;START_OF_HEADER
;HEADER_VERSION:0.1
;FLAVOR:Griffin
;GENERATOR.NAME:Cura_SteamEngine
;GENERATOR.VERSION:3.6.0
;GENERATOR.BUILD_DATE:2018-11-12
;TARGET_MACHINE.NAME:Ultimaker 3
;EXTRUDER_TRAIN.0.INITIAL_TEMPERATURE:205
;EXTRUDER_TRAIN.0.MATERIAL.VOLUME_USED:3978
;EXTRUDER_TRAIN.0.MATERIAL.GUID:506c9f0d-e3aa-4bd4-b2d2-23e2425b1aa9
;EXTRUDER_TRAIN.0.NOZZLE.DIAMETER:0.4
;EXTRUDER_TRAIN.0.NOZZLE.NAME:AA 0.4
;BUILD_PLATE.TYPE:glass
;BUILD_PLATE.INITIAL_TEMPERATURE:60
;PRINT.TIME:4031
;PRINT.SIZE.MIN.X:9
;PRINT.SIZE.MIN.Y:6
;PRINT.SIZE.MIN.Z:0.27
;PRINT.SIZE.MAX.X:156.028
;PRINT.SIZE.MAX.Y:174.776
;PRINT.SIZE.MAX.Z:3.17
;END_OF_HEADER
;Generated with Cura_SteamEngine 3.6.0
T0
M82 ;absolute extrusion mode

G92 E0
M109 S205
G0 F15000 X9 Y6 Z2
G280
G1 F1500 E-6.5
;LAYER_COUNT:31
;LAYER:0
M107
M204 S625
M205 X6 Y6
G0 F4285.7 X135.067 Y43.54 Z0.27
M204 S500
M205 X5 Y5
;TYPE:SKIRT
G1 F1500 E0
G1 F1200 X135.488 Y42.927 E0.01322
G1 X135.973 Y42.362 E0.02646
G1 X136.516 Y41.853 E0.03969
G1 X137.111 Y41.405 E0.05292
G1 X137.749 Y41.023 E0.06614
G1 X138.426 Y40.712 E0.07939
G1 X139.131 Y40.475 E0.09261
G1 X139.858 Y40.315 E0.10584
G1 X140.598 Y40.235 E0.11907
G1 X141.342 Y40.233 E0.1323
G1 X142.083 Y40.312 E0.14554
G1 X142.81 Y40.47 E0.15877
G1 X143.516 Y40.705 E0.17199
G1 X144.193 Y41.014 E0.18522
G1 X144.594 Y41.241 E0.19341
G1 X152.721 Y46.208 E0.36272
G1 X153.334 Y46.63 E0.37595
G1 X153.899 Y47.115 E0.38919
G1 X154.408 Y47.657 E0.40241
G1 X154.856 Y48.252 E0.41565
G1 X155.238 Y48.891 E0.42888
G1 X155.549 Y49.567 E0.44211
G1 X155.786 Y50.272 E0.45533
G1 X155.946 Y50.999 E0.46856
G1 X156.026 Y51.739 E0.48179
G1 X156.028 Y52.484 E0.49504
G1 X155.949 Y53.224 E0.50826
G1 X155.791 Y53.951 E0.52149
G1 X155.556 Y54.657 E0.53472
G1 X155.247 Y55.335 E0.54796
G1 X155.02 Y55.735 E0.55614
G1 X100.348 Y145.197 E2.41986
G1 X100.348 Y163.103 E2.73816
G1 X100.318 Y163.747 E2.74962
G1 X100.236 Y164.625 E2.76529
G1 X100.127 Y165.362 E2.77853
G1 X100.002 Y165.875 E2.78792
G1 X99.763 Y166.716 E2.80346
G1 X99.521 Y167.42 E2.81669
G1 X99.302 Y167.909 E2.82622
G1 X98.909 Y168.699 E2.8419
G1 X98.542 Y169.346 E2.85513
G1 X98.236 Y169.786 E2.86465
G1 X97.707 Y170.487 E2.88026
G1 X97.227 Y171.057 E2.89351
G1 X96.837 Y171.441 E2.90324
G1 X96.188 Y172.031 E2.91883
G1 X95.611 Y172.501 E2.93206
G1 X95.179 Y172.792 E2.94132
G1 X94.431 Y173.256 E2.95697
G1 X93.778 Y173.614 E2.9702
G1 X93.279 Y173.83 E2.97987
G1 X92.46 Y174.147 E2.99548
G1 X91.753 Y174.378 E3.0087
G1 X91.232 Y174.496 E3.0182
G1 X90.365 Y174.658 E3.03388
G1 X89.627 Y174.755 E3.04711
G1 X89.092 Y174.776 E3.05662
G1 X88.218 Y174.776 E3.07216
G1 X87.475 Y174.736 E3.08539
G1 X86.945 Y174.658 E3.09491
G1 X86.078 Y174.496 E3.11059
G1 X85.355 Y174.32 E3.12382
G1 X84.85 Y174.147 E3.13331
G1 X84.031 Y173.83 E3.14892
G1 X83.352 Y173.524 E3.16216
G1 X82.879 Y173.256 E3.17182
G1 X82.131 Y172.792 E3.18747
G1 X81.52 Y172.366 E3.20071
G1 X81.122 Y172.031 E3.20995
G1 X80.473 Y171.441 E3.22554
G1 X79.95 Y170.911 E3.23878
G1 X79.603 Y170.487 E3.24852
G1 X79.074 Y169.786 E3.26413
G1 X78.659 Y169.169 E3.27735
G1 X78.401 Y168.699 E3.28688
G1 X78.008 Y167.909 E3.30256
G1 X77.713 Y167.225 E3.31581
G1 X77.547 Y166.716 E3.32532
G1 X77.308 Y165.875 E3.34086
G1 X77.143 Y165.15 E3.35408
G1 X77.073 Y164.619 E3.3636
G1 X76.992 Y163.743 E3.37924
G1 X76.963 Y163.105 E3.39059
G1 X76.963 Y140.567 E3.79123
G1 X77.003 Y139.824 E3.80445
G1 X77.122 Y139.089 E3.81769
G1 X77.32 Y138.371 E3.83093
G1 X77.593 Y137.679 E3.84415
G1 X77.98 Y136.953 E3.85878
G1 X135.067 Y43.54 E5.80481
M204 S625
M205 X6 Y6
G0 F4285.7 X135.425 Y43.759
M204 S500
M205 X5 Y5
G1 F1200 X135.835 Y43.166 E5.81763
G1 X136.308 Y42.621 E5.83046
G1 X136.838 Y42.132 E5.84328
G1 X137.419 Y41.704 E5.8561
G1 X138.044 Y41.344 E5.86892
G1 X138.705 Y41.055 E5.88175
G1 X139.394 Y40.84 E5.89458
G1 X140.102 Y40.703 E5.9074
G1 X140.821 Y40.646 E5.92022
G1 X141.542 Y40.668 E5.93304
G1 X142.256 Y40.77 E5.94586
G1 X142.955 Y40.951 E5.9587
G1 X143.629 Y41.207 E5.97151
G1 X144.375 Y41.599 E5.98649
G1 X152.502 Y46.566 E6.1558
G1 X153.096 Y46.976 E6.16863
G1 X153.64 Y47.449 E6.18145
G1 X154.129 Y47.979 E6.19427
G1 X154.557 Y48.56 E6.20709
G1 X154.917 Y49.185 E6.21992
G1 X155.207 Y49.846 E6.23275
G1 X155.421 Y50.535 E6.24557
G1 X155.558 Y51.243 E6.25839
G1 X155.615 Y51.962 E6.27121
G1 X155.593 Y52.683 E6.28403
G1 X155.491 Y53.397 E6.29685
G1 X155.31 Y54.096 E6.30969
G1 X155.054 Y54.77 E6.32251
G1 X154.662 Y55.516 E6.33749
G1 X99.928 Y145.079 E8.20332
G1 X99.928 Y163.103 E8.52371
G1 X99.9 Y163.708 E8.53448
G1 X99.818 Y164.586 E8.55015
G1 X99.711 Y165.3 E8.56298
G1 X99.598 Y165.761 E8.57142
G1 X99.359 Y166.602 E8.58696
G1 X99.124 Y167.284 E8.59979
G1 X98.926 Y167.722 E8.60833
G1 X98.533 Y168.512 E8.62402
G1 X98.176 Y169.139 E8.63684
G1 X97.9 Y169.533 E8.64539
G1 X97.371 Y170.234 E8.661
G1 X96.906 Y170.785 E8.67382
G1 X96.554 Y171.13 E8.68258
G1 X95.905 Y171.72 E8.69817
G1 X95.345 Y172.175 E8.711
G1 X94.958 Y172.435 E8.71929
G1 X94.21 Y172.899 E8.73493
G1 X93.577 Y173.245 E8.74776
G1 X93.128 Y173.438 E8.75644
G1 X92.309 Y173.755 E8.77205
G1 X91.623 Y173.978 E8.78488
G1 X91.155 Y174.083 E8.7934
G1 X90.288 Y174.245 E8.80908
G1 X89.572 Y174.338 E8.82192
G1 X89.092 Y174.356 E8.83045
G1 X88.218 Y174.356 E8.84599
G1 X87.498 Y174.316 E8.85881
G1 X87.022 Y174.245 E8.86736
G1 X86.155 Y174.083 E8.88304
G1 X85.455 Y173.912 E8.89585
G1 X85.001 Y173.755 E8.90439
G1 X84.182 Y173.438 E8.92
G1 X83.525 Y173.141 E8.93282
G1 X83.1 Y172.899 E8.94151
G1 X82.352 Y172.435 E8.95716
G1 X81.761 Y172.021 E8.96999
G1 X81.405 Y171.72 E8.97827
G1 X80.756 Y171.13 E8.99386
G1 X80.25 Y170.616 E9.00669
G1 X79.939 Y170.234 E9.01544
G1 X79.41 Y169.533 E9.03105
G1 X79.008 Y168.934 E9.04388
G1 X78.777 Y168.512 E9.05243
G1 X78.384 Y167.722 E9.06811
G1 X78.099 Y167.059 E9.08094
G1 X77.951 Y166.602 E9.08948
G1 X77.712 Y165.761 E9.10502
G1 X77.554 Y165.057 E9.11785
G1 X77.492 Y164.58 E9.1264
G1 X77.411 Y163.704 E9.14204
G1 X77.383 Y163.105 E9.15269
G1 X77.383 Y140.567 E9.55333
G1 X77.423 Y139.847 E9.56615
G1 X77.542 Y139.135 E9.57898
G1 X77.74 Y138.441 E9.59181
G1 X78.013 Y137.774 E9.60462
G1 X78.338 Y137.172 E9.61678
G1 X135.425 Y43.759 E11.56282
M204 S625
M205 X6 Y6
G0 F4285.7 X135.784 Y43.978
M204 S500
M205 X5 Y5
G1 F1200 X136.181 Y43.405 E11.57521
G1 X136.641 Y42.88 E11.58762
G1 X137.158 Y42.412 E11.60001
G1 X137.726 Y42.006 E11.61242
G1 X138.336 Y41.668 E11.62482
G1 X138.981 Y41.401 E11.63723
G1 X139.652 Y41.211 E11.64963
G1 X140.34 Y41.098 E11.66202
G1 X141.037 Y41.064 E11.67442
G1 X141.734 Y41.111 E11.68684
G1 X142.42 Y41.237 E11.69924
G1 X143.087 Y41.44 E11.71163
G1 X143.727 Y41.719 E11.72405
G1 X144.156 Y41.958 E11.73277
G1 X152.283 Y46.925 E11.90209
G1 X152.856 Y47.322 E11.91448
G1 X153.381 Y47.782 E11.92688
G1 X153.849 Y48.3 E11.93929
G1 X154.255 Y48.867 E11.95169
G1 X154.593 Y49.477 E11.96409
G1 X154.86 Y50.122 E11.9765
G1 X155.05 Y50.793 E11.98889
G1 X155.163 Y51.482 E12.0013
G1 X155.197 Y52.179 E12.01371
G1 X155.15 Y52.875 E12.02611
G1 X155.024 Y53.561 E12.03851
G1 X154.821 Y54.228 E12.0509
G1 X154.542 Y54.868 E12.06331
G1 X154.303 Y55.297 E12.07204
G1 X99.508 Y144.96 E13.93995
G1 X99.508 Y163.103 E14.26246
G1 X99.482 Y163.669 E14.27253
G1 X99.4 Y164.547 E14.28821
G1 X99.295 Y165.237 E14.30062
G1 X99.194 Y165.646 E14.3081
G1 X98.955 Y166.487 E14.32365
G1 X98.726 Y167.146 E14.33605
G1 X98.55 Y167.534 E14.34362
G1 X98.157 Y168.324 E14.35931
G1 X97.811 Y168.93 E14.37171
G1 X97.565 Y169.28 E14.37931
G1 X97.036 Y169.981 E14.39493
G1 X96.585 Y170.513 E14.40732
G1 X96.272 Y170.819 E14.4151
G1 X95.623 Y171.409 E14.4307
G1 X95.08 Y171.848 E14.44311
G1 X94.736 Y172.078 E14.45046
G1 X93.988 Y172.542 E14.46611
G1 X93.375 Y172.875 E14.47851
G1 X92.976 Y173.046 E14.48623
G1 X92.157 Y173.363 E14.50184
G1 X91.493 Y173.578 E14.51425
G1 X91.078 Y173.67 E14.5218
G1 X90.211 Y173.832 E14.53748
G1 X89.519 Y173.921 E14.54988
G1 X89.092 Y173.936 E14.55748
G1 X88.218 Y173.936 E14.57301
G1 X87.521 Y173.896 E14.58542
G1 X87.099 Y173.832 E14.59301
G1 X86.232 Y173.67 E14.60869
G1 X85.555 Y173.503 E14.62108
G1 X85.153 Y173.363 E14.62865
G1 X84.334 Y173.046 E14.64426
G1 X83.699 Y172.758 E14.65666
G1 X83.322 Y172.542 E14.66438
G1 X82.574 Y172.078 E14.68003
G1 X82.003 Y171.677 E14.69243
G1 X81.687 Y171.409 E14.6998
G1 X81.038 Y170.819 E14.71539
G1 X80.55 Y170.321 E14.72778
G1 X80.274 Y169.981 E14.73557
G1 X79.745 Y169.28 E14.75118
G1 X79.357 Y168.7 E14.76358
G1 X79.153 Y168.324 E14.77118
G1 X78.76 Y167.534 E14.78687
G1 X78.486 Y166.893 E14.79926
G1 X78.355 Y166.487 E14.80684
G1 X78.116 Y165.646 E14.82239
G1 X77.964 Y164.965 E14.83479
G1 X77.91 Y164.542 E14.84237
G1 X77.829 Y163.666 E14.85801
G1 X77.803 Y163.105 E14.86799
G1 X77.803 Y140.567 E15.26863
G1 X77.843 Y139.87 E15.28104
G1 X77.962 Y139.183 E15.29343
G1 X78.16 Y138.514 E15.30583
G1 X78.432 Y137.871 E15.31824
G1 X78.697 Y137.391 E15.32799
G1 X135.784 Y43.978 E17.27403
M204 S625
M205 X6 Y6
G0 F4285.7 X136.142 Y44.197
M204 S500
M205 X5 Y5
G1 F1200 X136.526 Y43.645 E17.28598
G1 X136.974 Y43.142 E17.29795
G1 X137.478 Y42.695 E17.30993
G1 X138.031 Y42.311 E17.32189
G1 X138.625 Y41.996 E17.33385
G1 X139.253 Y41.753 E17.34582
G1 X139.906 Y41.587 E17.35779
G1 X140.573 Y41.499 E17.36975
G1 X141.246 Y41.49 E17.38172
G1 X141.916 Y41.562 E17.3937
G1 X142.572 Y41.712 E17.40566
G1 X143.206 Y41.939 E17.41763
G1 X143.937 Y42.316 E17.43225
G1 X152.064 Y47.283 E17.60156
G1 X152.616 Y47.668 E17.61352
G1 X153.119 Y48.115 E17.62548
G1 X153.566 Y48.619 E17.63746
G1 X153.95 Y49.172 E17.64943
G1 X154.265 Y49.767 E17.66139
G1 X154.508 Y50.395 E17.67336
G1 X154.674 Y51.047 E17.68532
G1 X154.762 Y51.714 E17.69728
G1 X154.771 Y52.387 E17.70925
G1 X154.699 Y53.057 E17.72123
G1 X154.549 Y53.713 E17.73319
G1 X154.322 Y54.347 E17.74516
G1 X153.945 Y55.078 E17.75978
G1 X99.088 Y144.843 E19.62981
G1 X99.088 Y163.103 E19.9544
G1 X99.063 Y163.63 E19.96378
G1 X98.981 Y164.508 E19.97945
G1 X98.879 Y165.174 E19.99143
G1 X98.79 Y165.531 E19.99797
G1 X98.551 Y166.372 E20.01351
G1 X98.329 Y167.007 E20.02547
G1 X98.174 Y167.347 E20.03211
G1 X97.781 Y168.137 E20.0478
G1 X97.445 Y168.721 E20.05977
G1 X97.23 Y169.027 E20.06642
G1 X96.701 Y169.728 E20.08203
G1 X96.264 Y170.241 E20.09401
G1 X95.989 Y170.508 E20.10083
G1 X95.34 Y171.098 E20.11642
G1 X94.816 Y171.521 E20.12839
G1 X94.515 Y171.721 E20.13481
G1 X93.767 Y172.185 E20.15046
G1 X93.175 Y172.506 E20.16243
G1 X92.825 Y172.655 E20.16919
G1 X92.006 Y172.972 E20.1848
G1 X91.365 Y173.177 E20.19677
G1 X91 Y173.258 E20.20341
G1 X90.133 Y173.42 E20.21909
G1 X89.466 Y173.504 E20.23104
G1 X89.092 Y173.516 E20.23769
G1 X88.218 Y173.516 E20.25323
G1 X87.546 Y173.476 E20.2652
G1 X87.177 Y173.42 E20.27183
G1 X86.31 Y173.258 E20.28751
G1 X85.656 Y173.095 E20.29949
G1 X85.304 Y172.972 E20.30612
G1 X84.485 Y172.655 E20.32173
G1 X83.873 Y172.375 E20.33369
G1 X83.543 Y172.185 E20.34046
G1 X82.795 Y171.721 E20.35611
G1 X82.245 Y171.333 E20.36807
G1 X81.97 Y171.098 E20.3745
G1 X81.321 Y170.508 E20.39009
G1 X80.851 Y170.027 E20.40205
G1 X80.609 Y169.728 E20.40889
G1 X80.08 Y169.027 E20.4245
G1 X79.707 Y168.467 E20.43646
G1 X79.529 Y168.137 E20.44312
G1 X79.136 Y167.347 E20.45881
G1 X78.873 Y166.728 E20.47076
G1 X78.759 Y166.372 E20.47741
G1 X78.52 Y165.531 E20.49295
G1 X78.375 Y164.874 E20.50491
G1 X78.328 Y164.503 E20.51156
G1 X78.247 Y163.627 E20.52719
G1 X78.223 Y163.105 E20.53648
G1 X78.223 Y140.567 E20.93712
G1 X78.263 Y139.895 E20.94908
G1 X78.382 Y139.232 E20.96106
G1 X78.579 Y138.589 E20.97301
G1 X78.851 Y137.973 E20.98498
G1 X79.055 Y137.61 E20.99238
G1 X136.142 Y44.197 E22.93842
M204 S625
M205 X6 Y6
G0 F4285.7 X136.5 Y44.416
M204 S500
M205 X5 Y5
G1 F1200 X136.872 Y43.886 E22.94993
G1 X137.305 Y43.404 E22.96145
G1 X137.795 Y42.98 E22.97297
G1 X138.333 Y42.62 E22.98447
G1 X138.912 Y42.329 E22.99599
G1 X139.522 Y42.111 E23.00751
G1 X140.154 Y41.969 E23.01902
G1 X140.799 Y41.907 E23.03054
G1 X141.446 Y41.925 E23.04205
G1 X142.087 Y42.022 E23.05357
G1 X142.71 Y42.197 E23.06507
G1 X143.307 Y42.448 E23.07659
G1 X143.718 Y42.674 E23.08492
G1 X151.845 Y47.641 E23.25423
G1 X152.376 Y48.013 E23.26576
G1 X152.857 Y48.446 E23.27726
G1 X153.281 Y48.936 E23.28878
G1 X153.641 Y49.474 E23.30029
G1 X153.933 Y50.053 E23.31182
G1 X154.15 Y50.663 E23.32332
G1 X154.292 Y51.295 E23.33484
G1 X154.354 Y51.94 E23.34636
G1 X154.336 Y52.587 E23.35786
G1 X154.239 Y53.228 E23.36939
G1 X154.064 Y53.851 E23.38089
G1 X153.813 Y54.449 E23.39242
G1 X153.587 Y54.859 E23.40074
G1 X98.668 Y144.725 E25.27288
G1 X98.668 Y163.103 E25.59957
G1 X98.645 Y163.591 E25.60825
G1 X98.563 Y164.469 E25.62393
G1 X98.386 Y165.416 E25.64105
G1 X98.147 Y166.257 E25.65659
G1 X97.797 Y167.16 E25.67381
G1 X97.404 Y167.95 E25.68949
G1 X96.895 Y168.774 E25.70671
G1 X96.366 Y169.475 E25.72232
G1 X95.944 Y169.967 E25.73384
G1 X95.707 Y170.198 E25.73973
G1 X95.058 Y170.788 E25.75532
G1 X94.293 Y171.364 E25.77234
G1 X93.545 Y171.828 E25.78799
G1 X92.975 Y172.135 E25.7995
G1 X92.673 Y172.263 E25.80533
G1 X91.854 Y172.58 E25.82094
G1 X90.923 Y172.845 E25.83814
G1 X90.056 Y173.007 E25.85382
G1 X89.092 Y173.096 E25.87103
G1 X88.218 Y173.096 E25.88657
G1 X87.254 Y173.007 E25.90378
G1 X86.387 Y172.845 E25.91946
G1 X85.456 Y172.58 E25.93666
G1 X84.637 Y172.263 E25.95227
G1 X84.048 Y171.992 E25.9638
G1 X83.765 Y171.828 E25.96961
G1 X83.017 Y171.364 E25.98526
G1 X82.252 Y170.788 E26.00228
G1 X81.603 Y170.198 E26.01787
G1 X81.152 Y169.733 E26.02939
G1 X80.944 Y169.475 E26.03528
G1 X80.415 Y168.774 E26.05089
G1 X79.906 Y167.95 E26.06811
G1 X79.513 Y167.16 E26.08379
G1 X79.163 Y166.257 E26.10101
G1 X78.924 Y165.416 E26.11655
G1 X78.746 Y164.464 E26.13376
G1 X78.665 Y163.588 E26.1494
G1 X78.643 Y163.105 E26.158
G1 X78.643 Y140.567 E26.55863
G1 X78.683 Y139.92 E26.57015
G1 X78.802 Y139.284 E26.58166
G1 X78.999 Y138.667 E26.59317
G1 X79.413 Y137.829 E26.60978
G1 X136.5 Y44.416 E28.55582
M204 S625
M205 X6 Y6
G0 F4285.7 X136.859 Y44.635
M204 S500
M205 X5 Y5
G1 F1200 X137.216 Y44.127 E28.56686
G1 X137.636 Y43.669 E28.5779
G1 X138.111 Y43.269 E28.58894
G1 X138.633 Y42.932 E28.59999
G1 X139.195 Y42.666 E28.61104
G1 X139.785 Y42.474 E28.62207
G1 X140.396 Y42.359 E28.63312
G1 X141.016 Y42.324 E28.64416
G1 X141.636 Y42.369 E28.65521
G1 X142.245 Y42.493 E28.66626
G1 X142.833 Y42.693 E28.6773
G1 X143.499 Y43.033 E28.69059
G1 X151.626 Y48 E28.8599
G1 X152.134 Y48.357 E28.87094
G1 X152.592 Y48.777 E28.88198
G1 X152.993 Y49.252 E28.89303
G1 X153.329 Y49.774 E28.90407
G1 X153.595 Y50.336 E28.91512
G1 X153.787 Y50.927 E28.92617
G1 X153.902 Y51.537 E28.9372
G1 X153.937 Y52.158 E28.94826
G1 X153.892 Y52.777 E28.95929
G1 X153.768 Y53.386 E28.97034
G1 X153.567 Y53.974 E28.98138
G1 X153.228 Y54.64 E28.99467
G1 X98.248 Y144.606 E30.86889
G1 X98.248 Y163.103 E31.19769
G1 X98.227 Y163.552 E31.20568
G1 X98.145 Y164.43 E31.22136
G1 X97.982 Y165.301 E31.23711
G1 X97.743 Y166.142 E31.25265
G1 X97.421 Y166.973 E31.26849
G1 X97.028 Y167.763 E31.28418
G1 X96.559 Y168.521 E31.30002
G1 X96.03 Y169.222 E31.31563
G1 X95.424 Y169.887 E31.33163
G1 X94.775 Y170.477 E31.34722
G1 X94.072 Y171.007 E31.36287
G1 X93.324 Y171.471 E31.37852
G1 X92.521 Y171.871 E31.39446
G1 X91.702 Y172.188 E31.41007
G1 X90.846 Y172.432 E31.4259
G1 X89.979 Y172.594 E31.44157
G1 X89.092 Y172.676 E31.45741
G1 X88.218 Y172.676 E31.47295
G1 X87.331 Y172.594 E31.48878
G1 X86.464 Y172.432 E31.50446
G1 X85.608 Y172.188 E31.52028
G1 X84.789 Y171.871 E31.53589
G1 X83.986 Y171.471 E31.55184
G1 X83.238 Y171.007 E31.56749
G1 X82.535 Y170.477 E31.58314
G1 X81.886 Y169.887 E31.59873
G1 X81.28 Y169.222 E31.61472
G1 X80.751 Y168.521 E31.63033
G1 X80.282 Y167.763 E31.64618
G1 X79.889 Y166.973 E31.66186
G1 X79.567 Y166.142 E31.6777
G1 X79.328 Y165.301 E31.69324
G1 X79.165 Y164.426 E31.70907
G1 X79.084 Y163.55 E31.7247
G1 X79.063 Y163.105 E31.73262
G1 X79.063 Y140.567 E32.13326
G1 X79.103 Y139.947 E32.1443
G1 X79.222 Y139.337 E32.15535
G1 X79.419 Y138.748 E32.16639
G1 X79.772 Y138.048 E32.18033
G1 X136.859 Y44.635 E34.12636
M204 S625
M205 X6 Y6
G0 F4285.7 X137.217 Y44.854
M204 S500
M205 X5 Y5
G1 F1200 X137.56 Y44.37 E34.13691
