;START_OF_HEADER
;HEADER_VERSION:0.1
;FLAVOR:Griffin
;GENERATOR.NAME:Cura_SteamEngine
;GENERATOR.VERSION:3.6.0
;GENERATOR.BUILD_DATE:2018-11-12
;TARGET_MACHINE.NAME:Ultimaker 3
;EXTRUDER_TRAIN.0.INITIAL_TEMPERATURE:205
;EXTRUDER_TRAIN.0.MATERIAL.VOLUME_USED:20195
;EXTRUDER_TRAIN.0.MATERIAL.GUID:506c9f0d-e3aa-4bd4-b2d2-23e2425b1aa9
;EXTRUDER_TRAIN.0.NOZZLE.DIAMETER:0.4
;EXTRUDER_TRAIN.0.NOZZLE.NAME:AA 0.4
;BUILD_PLATE.TYPE:glass
;BUILD_PLATE.INITIAL_TEMPERATURE:60
;PRINT.TIME:17669
;PRINT.SIZE.MIN.X:9
;PRINT.SIZE.MIN.Y:6
;PRINT.SIZE.MIN.Z:0.27
;PRINT.SIZE.MAX.X:169.43
;PRINT.SIZE.MAX.Y:158.181
;PRINT.SIZE.MAX.Z:13.77
;END_OF_HEADER
;Generated with Cura_SteamEngine 3.6.0
T0
M82 ;absolute extrusion mode

G92 E0
M109 S205
G0 F15000 X9 Y6 Z2
G280
G1 F1500 E-6.5
;LAYER_COUNT:137
;LAYER:0
M107
M204 S625
M205 X6 Y6
G0 F4285.7 X65.44 Y59.014 Z0.27
M204 S500
M205 X5 Y5
;TYPE:SKIRT
G1 F1500 E0
G1 F1200 X65.977 Y58.499 E0.01323
G1 X66.566 Y58.044 E0.02646
G1 X67.2 Y57.655 E0.03968
G1 X67.873 Y57.336 E0.05292
G1 X68.576 Y57.091 E0.06615
G1 X69.301 Y56.923 E0.07938
G1 X70.04 Y56.834 E0.09261
G1 X70.502 Y56.819 E0.10083
G1 X73.648 Y56.82 E0.15675
G1 X74.391 Y56.86 E0.16998
G1 X75.126 Y56.98 E0.18322
G1 X75.844 Y57.178 E0.19646
G1 X76.511 Y57.441 E0.2092
G1 X76.814 Y57.302 E0.21513
G1 X77.52 Y57.067 E0.22835
G1 X78.247 Y56.909 E0.24158
G1 X79.354 Y56.82 E0.26132
G1 X105.645 Y56.819 E0.72867
G1 X106.388 Y56.859 E0.7419
G1 X107.123 Y56.978 E0.75513
G1 X107.84 Y57.176 E0.76835
G1 X108.511 Y57.44 E0.78117
G1 X108.817 Y57.301 E0.78715
G1 X109.523 Y57.066 E0.80037
G1 X110.25 Y56.908 E0.8136
G1 X111.355 Y56.819 E0.8333
G1 X113.25 Y56.819 E0.86699
G1 X113.993 Y56.859 E0.88021
G1 X114.728 Y56.978 E0.89345
G1 X115.446 Y57.176 E0.90669
G1 X116.138 Y57.449 E0.91991
G1 X116.797 Y57.795 E0.93314
G1 X117.415 Y58.21 E0.94638
G1 X117.985 Y58.689 E0.95961
G1 X118.5 Y59.226 E0.97284
G1 X118.955 Y59.815 E0.98607
G1 X119.344 Y60.449 E0.99929
G1 X119.663 Y61.122 E1.01253
G1 X119.908 Y61.825 E1.02576
G1 X120.076 Y62.55 E1.03899
G1 X120.165 Y63.289 E1.05222
G1 X120.18 Y63.749 E1.0604
G1 X120.18 Y67.032 E1.11876
G1 X120.166 Y67.285 E1.12327
G1 X120.18 Y67.471 E1.12658
G1 X120.18 Y83.032 E1.4032
G1 X120.166 Y83.285 E1.4077
G1 X120.18 Y83.471 E1.41102
G1 X120.18 Y93.138 E1.58286
G1 X159.324 Y93.141 E2.27868
G1 X160.094 Y93.184 E2.29239
G1 X160.801 Y93.263 E2.30503
G1 X161.535 Y93.385 E2.31826
G1 X162.319 Y93.608 E2.33275
G1 X162.991 Y93.843 E2.3454
G1 X163.679 Y94.127 E2.35863
G1 X164.386 Y94.515 E2.37297
G1 X164.99 Y94.894 E2.38565
G1 X165.599 Y95.323 E2.39889
G1 X166.212 Y95.869 E2.41348
G1 X166.711 Y96.369 E2.42604
G1 X167.208 Y96.923 E2.43927
G1 X167.672 Y97.574 E2.45348
G1 X168.052 Y98.178 E2.46616
G1 X168.414 Y98.828 E2.47939
G1 X168.73 Y99.586 E2.49399
G1 X168.965 Y100.26 E2.50667
G1 X169.172 Y100.975 E2.51991
G1 X169.308 Y101.768 E2.53421
G1 X169.387 Y102.471 E2.54678
G1 X169.43 Y103.245 E2.56056
G1 X169.43 Y151.251 E3.41392
G1 X169.39 Y151.994 E3.42714
G1 X169.271 Y152.729 E3.44038
G1 X169.073 Y153.447 E3.45362
G1 X168.8 Y154.139 E3.46684
G1 X168.454 Y154.798 E3.48007
G1 X168.039 Y155.416 E3.49331
G1 X167.56 Y155.986 E3.50654
G1 X167.023 Y156.501 E3.51977
G1 X166.434 Y156.956 E3.533
G1 X165.8 Y157.345 E3.54622
G1 X165.127 Y157.664 E3.55946
G1 X164.424 Y157.909 E3.57269
G1 X163.699 Y158.077 E3.58592
G1 X162.96 Y158.166 E3.59915
G1 X162.498 Y158.181 E3.60737
G1 X159.065 Y158.18 E3.66839
G1 X158.322 Y158.14 E3.68162
G1 X157.587 Y158.02 E3.69486
G1 X156.87 Y157.822 E3.70808
G1 X156.512 Y157.681 E3.71492
G1 X156.473 Y157.699 E3.71568
G1 X155.766 Y157.934 E3.72893
G1 X155.039 Y158.092 E3.74215
G1 X153.933 Y158.181 E3.76188
G1 X135.067 Y158.18 E4.09724
G1 X134.323 Y158.14 E4.11048
G1 X133.589 Y158.02 E4.1237
G1 X132.871 Y157.823 E4.13694
G1 X132.512 Y157.681 E4.1438
G1 X132.473 Y157.699 E4.14456
G1 X131.766 Y157.934 E4.15781
G1 X131.039 Y158.092 E4.17103
G1 X129.933 Y158.181 E4.19076
G1 X103.067 Y158.18 E4.66833
G1 X102.324 Y158.14 E4.68155
G1 X101.589 Y158.021 E4.69479
G1 X100.871 Y157.823 E4.70803
G1 X100.512 Y157.681 E4.71489
G1 X100.473 Y157.699 E4.71565
G1 X99.766 Y157.934 E4.7289
G1 X99.039 Y158.092 E4.74212
G1 X97.933 Y158.181 E4.76185
G1 X79.067 Y158.18 E5.09721
G1 X78.323 Y158.14 E5.11045
G1 X77.589 Y158.02 E5.12367
G1 X76.871 Y157.823 E5.13691
G1 X76.512 Y157.681 E5.14377
G1 X76.473 Y157.699 E5.14453
G1 X75.766 Y157.934 E5.15778
G1 X75.039 Y158.092 E5.171
G1 X73.933 Y158.181 E5.19073
G1 X70.5 Y158.181 E5.25175
G1 X69.757 Y158.141 E5.26498
G1 X69.022 Y158.022 E5.27821
G1 X68.304 Y157.824 E5.29145
G1 X67.612 Y157.551 E5.30468
G1 X66.953 Y157.205 E5.31791
G1 X66.335 Y156.79 E5.33114
G1 X65.765 Y156.311 E5.34438
G1 X65.25 Y155.774 E5.3576
G1 X64.795 Y155.185 E5.37083
G1 X64.406 Y154.551 E5.38405
G1 X64.087 Y153.878 E5.39729
G1 X63.842 Y153.175 E5.41053
G1 X63.674 Y152.45 E5.42376
G1 X63.585 Y151.711 E5.43699
G1 X63.57 Y151.251 E5.44517
G1 X63.57 Y90.802 E6.51971
G1 X63.61 Y90.059 E6.53293
G1 X63.729 Y89.324 E6.54617
G1 X63.927 Y88.606 E6.55941
G1 X64.2 Y87.914 E6.57263
G1 X64.546 Y87.255 E6.58586
G1 X64.961 Y86.637 E6.5991
G1 X65.44 Y86.067 E6.61233
G1 X65.977 Y85.552 E6.62556
G1 X66.566 Y85.097 E6.63879
G1 X67.2 Y84.708 E6.65201
G1 X67.873 Y84.389 E6.66525
G1 X68.576 Y84.144 E6.67848
G1 X69.301 Y83.976 E6.69171
G1 X70.04 Y83.887 E6.70494
G1 X70.5 Y83.872 E6.71312
G1 X97.283 Y83.872 E7.18922
G1 X97.303 Y83.495 E7.19593
G1 X97.338 Y83.281 E7.19978
G1 X97.337 Y83.278 E7.19984
G1 X97.285 Y82.567 E7.21251
G1 X70.5 Y82.567 E7.68864
G1 X69.757 Y82.527 E7.70187
G1 X69.022 Y82.408 E7.7151
G1 X68.304 Y82.21 E7.72834
G1 X67.612 Y81.937 E7.74157
G1 X66.953 Y81.591 E7.7548
G1 X66.335 Y81.176 E7.76803
G1 X65.765 Y80.697 E7.78127
G1 X65.25 Y80.16 E7.79449
G1 X64.795 Y79.571 E7.80772
G1 X64.406 Y78.937 E7.82094
G1 X64.087 Y78.264 E7.83418
G1 X63.842 Y77.561 E7.84742
G1 X63.674 Y76.836 E7.86065
G1 X63.585 Y76.097 E7.87388
G1 X63.57 Y75.637 E7.88206
G1 X63.57 Y63.749 E8.09338
G1 X63.61 Y63.006 E8.10661
G1 X63.729 Y62.271 E8.11984
G1 X63.927 Y61.553 E8.13308
G1 X64.2 Y60.861 E8.14631
G1 X64.546 Y60.202 E8.15954
G1 X64.961 Y59.584 E8.17277
G1 X65.44 Y59.014 E8.186
M204 S625
M205 X6 Y6
G0 F4285.7 X65.854 Y59.189
M204 S500
M205 X5 Y5
G1 F1200 X66.387 Y58.703 E8.19883
G1 X66.971 Y58.279 E8.21165
G1 X67.598 Y57.922 E8.22448
G1 X68.26 Y57.636 E8.2373
G1 X68.95 Y57.426 E8.25012
G1 X69.659 Y57.294 E8.26294
G1 X70.502 Y57.239 E8.27796
G1 X73.648 Y57.24 E8.33388
G1 X74.368 Y57.28 E8.3467
G1 X75.08 Y57.4 E8.35953
G1 X75.774 Y57.597 E8.37236
G1 X76.441 Y57.871 E8.38518
G1 X76.503 Y57.905 E8.38643
G1 X76.631 Y57.837 E8.38901
G1 X77.302 Y57.572 E8.40183
G1 X77.998 Y57.383 E8.41465
G1 X78.711 Y57.272 E8.42748
G1 X79.354 Y57.24 E8.43892
G1 X105.645 Y57.239 E8.90627
G1 X106.365 Y57.279 E8.91909
G1 X107.076 Y57.398 E8.93191
G1 X107.77 Y57.596 E8.94473
G1 X108.438 Y57.869 E8.95756
G1 X108.503 Y57.904 E8.95887
G1 X108.634 Y57.835 E8.96151
G1 X109.305 Y57.57 E8.97433
G1 X110.001 Y57.381 E8.98715
G1 X110.714 Y57.271 E8.99997
G1 X111.355 Y57.239 E9.01138
G1 X113.25 Y57.239 E9.04507
G1 X113.97 Y57.279 E9.05789
G1 X114.682 Y57.398 E9.07072
G1 X115.376 Y57.596 E9.08355
G1 X116.043 Y57.869 E9.09636
G1 X116.677 Y58.214 E9.10919
G1 X117.268 Y58.627 E9.12201
G1 X117.81 Y59.103 E9.13483
G1 X118.296 Y59.636 E9.14765
G1 X118.72 Y60.22 E9.16048
G1 X119.077 Y60.847 E9.1733
G1 X119.363 Y61.509 E9.18612
G1 X119.573 Y62.199 E9.19894
G1 X119.705 Y62.908 E9.21176
G1 X119.76 Y63.749 E9.22675
G1 X119.76 Y67.032 E9.2851
G1 X119.751 Y67.198 E9.28806
G1 X119.76 Y67.471 E9.29292
G1 X119.76 Y83.032 E9.56953
G1 X119.751 Y83.198 E9.57248
G1 X119.76 Y83.471 E9.57734
G1 X119.76 Y93.558 E9.75664
G1 X159.324 Y93.561 E10.45993
G1 X160.047 Y93.601 E10.4728
G1 X160.754 Y93.68 E10.48545
G1 X161.465 Y93.8 E10.49827
G1 X162.18 Y94.005 E10.51149
G1 X162.852 Y94.24 E10.52414
G1 X163.519 Y94.515 E10.53697
G1 X164.163 Y94.871 E10.55005
G1 X164.767 Y95.25 E10.56272
G1 X165.356 Y95.666 E10.57554
G1 X165.915 Y96.165 E10.58886
G1 X166.414 Y96.665 E10.60142
G1 X166.894 Y97.203 E10.61424
G1 X167.316 Y97.797 E10.62719
G1 X167.696 Y98.401 E10.63987
G1 X168.046 Y99.032 E10.6527
G1 X168.333 Y99.725 E10.66603
G1 X168.568 Y100.399 E10.67872
G1 X168.767 Y101.092 E10.69154
G1 X168.89 Y101.815 E10.70458
G1 X168.969 Y102.518 E10.71715
G1 X169.01 Y103.245 E10.73009
G1 X169.01 Y151.251 E11.58345
G1 X168.97 Y151.971 E11.59627
G1 X168.851 Y152.683 E11.6091
G1 X168.653 Y153.377 E11.62193
G1 X168.38 Y154.044 E11.63474
G1 X168.035 Y154.678 E11.64757
G1 X167.622 Y155.269 E11.66039
G1 X167.146 Y155.811 E11.67321
G1 X166.613 Y156.297 E11.68603
G1 X166.029 Y156.721 E11.69886
G1 X165.402 Y157.078 E11.71168
G1 X164.74 Y157.364 E11.7245
G1 X164.05 Y157.574 E11.73732
G1 X163.341 Y157.706 E11.75014
G1 X162.498 Y157.761 E11.76516
G1 X159.065 Y157.76 E11.82619
G1 X158.345 Y157.72 E11.839
G1 X157.633 Y157.6 E11.85184
G1 X156.94 Y157.403 E11.86465
G1 X156.504 Y157.224 E11.87302
G1 X155.985 Y157.429 E11.88294
G1 X155.288 Y157.618 E11.89578
G1 X154.576 Y157.729 E11.90859
G1 X153.933 Y157.761 E11.92003
G1 X135.067 Y157.76 E12.2554
G1 X134.346 Y157.72 E12.26823
G1 X133.635 Y157.601 E12.28105
G1 X132.941 Y157.403 E12.29387
G1 X132.504 Y157.224 E12.30227
G1 X131.985 Y157.429 E12.31219
G1 X131.288 Y157.618 E12.32503
G1 X130.576 Y157.729 E12.33784
G1 X129.933 Y157.761 E12.34928
G1 X103.067 Y157.76 E12.82685
G1 X102.346 Y157.72 E12.83969
G1 X101.635 Y157.601 E12.8525
G1 X100.941 Y157.403 E12.86533
G1 X100.504 Y157.224 E12.87372
G1 X99.985 Y157.429 E12.88364
G1 X99.288 Y157.618 E12.89648
G1 X98.576 Y157.729 E12.90929
G1 X97.933 Y157.761 E12.92073
G1 X79.067 Y157.76 E13.25609
G1 X78.346 Y157.72 E13.26893
G1 X77.635 Y157.601 E13.28175
G1 X76.941 Y157.403 E13.29457
G1 X76.504 Y157.224 E13.30297
G1 X75.985 Y157.429 E13.31289
G1 X75.288 Y157.618 E13.32573
G1 X74.576 Y157.729 E13.33853
G1 X73.933 Y157.761 E13.34998
G1 X70.5 Y157.761 E13.411
G1 X69.78 Y157.721 E13.42382
G1 X69.068 Y157.602 E13.43665
G1 X68.374 Y157.404 E13.44948
G1 X67.707 Y157.131 E13.46229
G1 X67.073 Y156.786 E13.47512
G1 X66.482 Y156.373 E13.48794
G1 X65.94 Y155.897 E13.50076
G1 X65.454 Y155.364 E13.51359
G1 X65.03 Y154.78 E13.52641
G1 X64.673 Y154.153 E13.53924
G1 X64.387 Y153.491 E13.55206
G1 X64.177 Y152.801 E13.56488
G1 X64.045 Y152.092 E13.5777
G1 X63.99 Y151.251 E13.59268
G1 X63.99 Y90.802 E14.66722
G1 X64.03 Y90.082 E14.68004
G1 X64.149 Y89.37 E14.69287
G1 X64.347 Y88.676 E14.7057
G1 X64.62 Y88.009 E14.71851
G1 X64.965 Y87.375 E14.73134
G1 X65.378 Y86.784 E14.74416
G1 X65.854 Y86.242 E14.75698
G1 X66.387 Y85.756 E14.7698
G1 X66.971 Y85.332 E14.78263
G1 X67.598 Y84.975 E14.79546
G1 X68.26 Y84.689 E14.80828
G1 X68.95 Y84.479 E14.8211
G1 X69.659 Y84.347 E14.83392
G1 X70.5 Y84.292 E14.8489
G1 X97.683 Y84.292 E15.3321
G1 X97.683 Y84.238 E15.33306
G1 X97.723 Y83.518 E15.34588
G1 X97.766 Y83.259 E15.35055
G1 X97.698 Y82.709 E15.3604
G1 X97.683 Y82.265 E15.3683
G1 X97.683 Y82.147 E15.37039
G1 X70.5 Y82.147 E15.8536
G1 X69.78 Y82.107 E15.86642
G1 X69.068 Y81.988 E15.87925
G1 X68.374 Y81.79 E15.89208
G1 X67.707 Y81.517 E15.90489
G1 X67.073 Y81.172 E15.91772
G1 X66.482 Y80.759 E15.93054
G1 X65.94 Y80.283 E15.94336
G1 X65.454 Y79.75 E15.95618
G1 X65.03 Y79.166 E15.96901
G1 X64.673 Y78.539 E15.98184
G1 X64.387 Y77.877 E15.99465
G1 X64.177 Y77.187 E16.00747
G1 X64.045 Y76.478 E16.02029
G1 X63.99 Y75.637 E16.03528
G1 X63.99 Y63.749 E16.2466
G1 X64.03 Y63.029 E16.25942
G1 X64.149 Y62.317 E16.27225
G1 X64.347 Y61.623 E16.28508
G1 X64.62 Y60.956 E16.29789
G1 X64.965 Y60.322 E16.31072
G1 X65.378 Y59.731 E16.32353
G1 X65.854 Y59.189 E16.33636
M204 S625
M205 X6 Y6
G0 F4285.7 X66.268 Y59.37
M204 S500
M205 X5 Y5
G1 F1200 X66.796 Y58.915 E16.34875
G1 X67.373 Y58.523 E16.36115
G1 X67.992 Y58.2 E16.37356
G1 X68.643 Y57.949 E16.38596
G1 X69.319 Y57.775 E16.39837
G1 X70.01 Y57.679 E16.41077
G1 X70.502 Y57.659 E16.41952
G1 X73.648 Y57.66 E16.47545
G1 X74.344 Y57.7 E16.48784
G1 X75.032 Y57.82 E16.50025
G1 X75.701 Y58.017 E16.51265
G1 X76.343 Y58.29 E16.52505
G1 X76.492 Y58.375 E16.5281
G1 X77.122 Y58.084 E16.54044
G1 X77.785 Y57.866 E16.55284
G1 X78.468 Y57.725 E16.56524
G1 X79.354 Y57.66 E16.58103
G1 X105.645 Y57.659 E17.04838
G1 X106.341 Y57.699 E17.06077
G1 X107.029 Y57.818 E17.07318
G1 X107.698 Y58.015 E17.08558
G1 X108.34 Y58.288 E17.09798
G1 X108.492 Y58.374 E17.10109
G1 X109.125 Y58.082 E17.11348
G1 X109.788 Y57.864 E17.12588
G1 X110.471 Y57.723 E17.13828
G1 X111.355 Y57.659 E17.15404
G1 X113.25 Y57.659 E17.18772
G1 X113.947 Y57.699 E17.20013
G1 X114.634 Y57.818 E17.21253
G1 X115.303 Y58.016 E17.22493
G1 X115.946 Y58.288 E17.23734
G1 X116.552 Y58.632 E17.24973
G1 X117.116 Y59.044 E17.26214
G1 X117.629 Y59.517 E17.27455
G1 X118.084 Y60.045 E17.28693
G1 X118.476 Y60.622 E17.29933
G1 X118.799 Y61.241 E17.31175
G1 X119.05 Y61.892 E17.32415
G1 X119.224 Y62.568 E17.33656
G1 X119.32 Y63.259 E17.34896
G1 X119.34 Y63.749 E17.35768
G1 X119.34 Y67.032 E17.41603
G1 X119.329 Y67.232 E17.41959
G1 X119.34 Y67.471 E17.42385
G1 X119.34 Y83.032 E17.70046
G1 X119.329 Y83.232 E17.70402
G1 X119.34 Y83.471 E17.70827
G1 X119.34 Y93.978 E17.89505
G1 X159.324 Y93.981 E18.6058
G1 X160 Y94.019 E18.61784
G1 X160.707 Y94.098 E18.63048
G1 X161.395 Y94.215 E18.64289
G1 X162.041 Y94.401 E18.65484
G1 X162.713 Y94.636 E18.66749
G1 X163.358 Y94.904 E18.67991
G1 X163.94 Y95.226 E18.69173
G1 X164.544 Y95.605 E18.70441
G1 X165.113 Y96.01 E18.71682
G1 X165.618 Y96.462 E18.72887
G1 X166.117 Y96.962 E18.74143
G1 X166.58 Y97.483 E18.75382
G1 X166.961 Y98.021 E18.76553
G1 X167.341 Y98.625 E18.77822
G1 X167.678 Y99.236 E18.79062
G1 X167.936 Y99.863 E18.80267
G1 X168.171 Y100.537 E18.81536
G1 X168.363 Y101.208 E18.82777
G1 X168.473 Y101.862 E18.83956
G1 X168.552 Y102.565 E18.85213
G1 X168.59 Y103.245 E18.86424
G1 X168.59 Y151.251 E19.71759
G1 X168.55 Y151.948 E19.73
G1 X168.431 Y152.635 E19.7424
G1 X168.233 Y153.304 E19.7548
G1 X167.961 Y153.947 E19.76721
G1 X167.617 Y154.553 E19.7796
G1 X167.205 Y155.117 E19.79201
G1 X166.732 Y155.63 E19.80442
G1 X166.204 Y156.085 E19.81681
G1 X165.627 Y156.477 E19.82921
G1 X165.008 Y156.8 E19.84162
G1 X164.357 Y157.051 E19.85402
G1 X163.681 Y157.225 E19.86643
G1 X162.99 Y157.321 E19.87883
G1 X162.498 Y157.341 E19.88758
G1 X159.065 Y157.34 E19.94861
G1 X158.369 Y157.3 E19.961
G1 X157.681 Y157.18 E19.97341
G1 X157.012 Y156.983 E19.98581
G1 X156.497 Y156.764 E19.99576
G1 X156.164 Y156.918 E20.00228
G1 X155.501 Y157.136 E20.01469
G1 X154.818 Y157.276 E20.02708
G1 X153.933 Y157.341 E20.04285
G1 X135.067 Y157.34 E20.37822
G1 X134.37 Y157.3 E20.39063
G1 X133.683 Y157.181 E20.40302
G1 X133.013 Y156.983 E20.41544
G1 X132.496 Y156.764 E20.42542
G1 X132.164 Y156.918 E20.43193
G1 X131.501 Y157.136 E20.44433
G1 X130.818 Y157.276 E20.45673
G1 X129.933 Y157.341 E20.4725
G1 X103.067 Y157.34 E20.95007
G1 X102.37 Y157.3 E20.96248
G1 X101.683 Y157.181 E20.97487
G1 X101.014 Y156.983 E20.98728
G1 X100.497 Y156.764 E20.99726
G1 X100.164 Y156.918 E21.00378
G1 X99.501 Y157.136 E21.01618
G1 X98.818 Y157.276 E21.02858
G1 X97.933 Y157.341 E21.04435
G1 X79.067 Y157.34 E21.37971
G1 X78.37 Y157.3 E21.39212
G1 X77.683 Y157.181 E21.40452
G1 X77.013 Y156.983 E21.41694
G1 X76.496 Y156.764 E21.42692
G1 X76.164 Y156.918 E21.43342
G1 X75.501 Y157.136 E21.44583
G1 X74.818 Y157.276 E21.45822
G1 X73.933 Y157.341 E21.474
G1 X70.5 Y157.341 E21.53502
G1 X69.803 Y157.301 E21.54743
G1 X69.116 Y157.182 E21.55983
G1 X68.447 Y156.984 E21.57223
G1 X67.804 Y156.712 E21.58464
G1 X67.198 Y156.368 E21.59702
G1 X66.634 Y155.956 E21.60944
G1 X66.121 Y155.483 E21.62184
G1 X65.666 Y154.955 E21.63423
G1 X65.274 Y154.378 E21.64663
G1 X64.951 Y153.759 E21.65905
G1 X64.7 Y153.108 E21.67145
G1 X64.526 Y152.432 E21.68386
G1 X64.43 Y151.741 E21.69626
G1 X64.41 Y151.251 E21.70497
G1 X64.41 Y90.802 E22.77951
G1 X64.45 Y90.105 E22.79192
G1 X64.569 Y89.418 E22.80432
G1 X64.767 Y88.749 E22.81672
G1 X65.039 Y88.106 E22.82913
G1 X65.383 Y87.5 E22.84152
G1 X65.795 Y86.936 E22.85393
G1 X66.268 Y86.423 E22.86634
G1 X66.796 Y85.968 E22.87873
G1 X67.373 Y85.576 E22.89113
