;START_OF_HEADER
;HEADER_VERSION:0.1
;FLAVOR:Griffin
;GENERATOR.NAME:Cura_SteamEngine
;GENERATOR.VERSION:3.6.0
;GENERATOR.BUILD_DATE:2018-11-12
;TARGET_MACHINE.NAME:Ultimaker 3
;EXTRUDER_TRAIN.0.INITIAL_TEMPERATURE:205
;EXTRUDER_TRAIN.0.MATERIAL.VOLUME_USED:20182
;EXTRUDER_TRAIN.0.MATERIAL.GUID:506c9f0d-e3aa-4bd4-b2d2-23e2425b1aa9
;EXTRUDER_TRAIN.0.NOZZLE.DIAMETER:0.4
;EXTRUDER_TRAIN.0.NOZZLE.NAME:AA 0.4
;EXTRUDER_TRAIN.1.INITIAL_TEMPERATURE:100
;EXTRUDER_TRAIN.1.MATERIAL.VOLUME_USED:1748
;EXTRUDER_TRAIN.1.MATERIAL.GUID:fe15ed8a-33c3-4f57-a2a7-b4b78a38c3cb
;EXTRUDER_TRAIN.1.NOZZLE.DIAMETER:0.4
;EXTRUDER_TRAIN.1.NOZZLE.NAME:BB 0.4
;BUILD_PLATE.TYPE:glass
;BUILD_PLATE.INITIAL_TEMPERATURE:60
;PRINT.TIME:19915
;PRINT.SIZE.MIN.X:9
;PRINT.SIZE.MIN.Y:6
;PRINT.SIZE.MIN.Z:0.27
;PRINT.SIZE.MAX.X:213
;PRINT.SIZE.MAX.Y:207
;PRINT.SIZE.MAX.Z:13.77
;END_OF_HEADER
;Generated with Cura_SteamEngine 3.6.0
T0
M82 ;absolute extrusion mode

G92 E0
M109 S205
G0 F15000 X9 Y6 Z2
G280
G1 F1500 E-6.5
;LAYER_COUNT:137
;LAYER:0
M107
M204 S625
M205 X6 Y6
G0 F4285.7 X63.137 Y55.946 Z0.27
M204 S500
M205 X5 Y5
;TYPE:SKIRT
G1 F1500 E0
G1 F1200 X63.68 Y55.438 E0.01322
G1 X64.276 Y54.991 E0.02646
G1 X64.916 Y54.611 E0.03969
G1 X65.592 Y54.301 E0.05291
G1 X66.299 Y54.066 E0.06616
G1 X67.026 Y53.908 E0.07938
G1 X68.132 Y53.819 E0.0991
G1 X84.868 Y53.819 E0.3966
G1 X85.611 Y53.859 E0.40983
G1 X86.346 Y53.978 E0.42306
G1 X87.064 Y54.176 E0.4363
G1 X87.756 Y54.449 E0.44953
G1 X88.415 Y54.795 E0.46276
G1 X89.033 Y55.21 E0.47599
G1 X89.603 Y55.689 E0.48923
G1 X90.118 Y56.226 E0.50245
G1 X90.573 Y56.815 E0.51568
G1 X90.575 Y56.819 E0.51576
G1 X94.436 Y56.819 E0.5844
G1 X94.652 Y56.507 E0.59114
G1 X95.138 Y55.944 E0.60436
G1 X95.682 Y55.436 E0.61759
G1 X96.278 Y54.99 E0.63082
G1 X96.918 Y54.609 E0.64406
G1 X97.595 Y54.3 E0.65729
G1 X98.301 Y54.065 E0.67052
G1 X99.028 Y53.907 E0.68375
G1 X100.132 Y53.819 E0.70343
G1 X116.868 Y53.819 E1.00093
G1 X117.611 Y53.859 E1.01416
G1 X118.346 Y53.978 E1.02739
G1 X119.064 Y54.176 E1.04063
G1 X119.756 Y54.449 E1.05386
G1 X120.415 Y54.795 E1.06709
G1 X121.033 Y55.21 E1.08032
G1 X121.603 Y55.689 E1.09355
G1 X122.118 Y56.226 E1.10678
G1 X122.573 Y56.815 E1.12001
G1 X122.962 Y57.449 E1.13323
G1 X123.281 Y58.122 E1.14647
G1 X123.526 Y58.825 E1.15971
G1 X123.694 Y59.55 E1.17293
G1 X123.783 Y60.289 E1.18617
G1 X123.792 Y61.033 E1.19939
G1 X123.722 Y61.774 E1.21262
G1 X123.572 Y62.503 E1.22585
G1 X123.345 Y63.212 E1.23909
G1 X123.18 Y63.56 E1.24593
G1 X123.18 Y72.13 E1.39827
G1 X123.14 Y72.873 E1.4115
G1 X123.021 Y73.608 E1.42474
G1 X122.823 Y74.326 E1.43797
G1 X122.55 Y75.018 E1.4512
G1 X122.428 Y75.25 E1.45586
G1 X122.515 Y75.411 E1.45911
G1 X122.796 Y76.1 E1.47234
G1 X123.002 Y76.816 E1.48558
G1 X123.131 Y77.549 E1.49881
G1 X123.18 Y78.374 E1.5135
G1 X123.18 Y88.129 E1.68691
G1 X123.14 Y88.872 E1.70013
G1 X123.021 Y89.607 E1.71337
G1 X122.823 Y90.325 E1.72661
G1 X122.55 Y91.017 E1.73983
G1 X122.204 Y91.676 E1.75306
G1 X121.789 Y92.294 E1.7663
G1 X121.31 Y92.864 E1.77953
G1 X121.024 Y93.138 E1.78657
G1 X159.329 Y93.142 E2.46748
G1 X160.124 Y93.188 E2.48164
G1 X160.842 Y93.271 E2.49448
G1 X161.576 Y93.396 E2.50772
G1 X162.355 Y93.621 E2.52213
G1 X163.02 Y93.856 E2.53467
G1 X163.707 Y94.141 E2.54789
G1 X164.418 Y94.535 E2.56234
G1 X165.023 Y94.918 E2.57507
G1 X165.629 Y95.349 E2.58829
G1 X166.246 Y95.902 E2.60302
G1 X166.741 Y96.403 E2.61554
G1 X167.235 Y96.96 E2.62877
G1 X167.687 Y97.599 E2.64268
G1 X168.066 Y98.205 E2.65539
G1 X168.426 Y98.857 E2.66863
G1 X168.743 Y99.624 E2.68338
G1 X168.974 Y100.295 E2.696
G1 X169.178 Y101.011 E2.70923
G1 X169.308 Y101.777 E2.72304
G1 X169.387 Y102.48 E2.73562
G1 X169.43 Y103.254 E2.7494
G1 X169.43 Y141.142 E3.42289
G1 X170.957 Y143.786 E3.47717
G1 X171.294 Y144.45 E3.4904
G1 X171.558 Y145.145 E3.50362
G1 X171.746 Y145.866 E3.51686
G1 X171.855 Y146.602 E3.53009
G1 X171.885 Y147.346 E3.54333
G1 X171.835 Y148.088 E3.55655
G1 X171.706 Y148.821 E3.56978
G1 X171.499 Y149.536 E3.58301
G1 X171.216 Y150.225 E3.59625
G1 X170.958 Y150.716 E3.60611
G1 X170.739 Y151.095 E3.61389
G1 X170.919 Y151.449 E3.62095
G1 X171.183 Y152.145 E3.63418
G1 X171.371 Y152.865 E3.64741
G1 X171.48 Y153.601 E3.66063
G1 X171.51 Y154.345 E3.67387
G1 X171.46 Y155.088 E3.68711
G1 X171.331 Y155.821 E3.70034
G1 X171.124 Y156.536 E3.71357
G1 X170.841 Y157.224 E3.72679
G1 X170.486 Y157.878 E3.74002
G1 X170.063 Y158.491 E3.75326
G1 X169.576 Y159.054 E3.76649
G1 X169.033 Y159.562 E3.77971
G1 X168.437 Y160.009 E3.79295
G1 X167.797 Y160.389 E3.80618
G1 X167.121 Y160.699 E3.8194
G1 X166.414 Y160.934 E3.83265
G1 X165.687 Y161.092 E3.84587
G1 X164.581 Y161.181 E3.8656
G1 X148.421 Y161.18 E4.15286
G1 X147.677 Y161.14 E4.1661
G1 X146.943 Y161.02 E4.17932
G1 X146.225 Y160.823 E4.19256
G1 X145.533 Y160.549 E4.20579
G1 X144.874 Y160.203 E4.21902
G1 X144.505 Y159.956 E4.22691
G1 X144.433 Y160.01 E4.22851
G1 X143.793 Y160.391 E4.24175
G1 X143.116 Y160.7 E4.25498
G1 X142.41 Y160.935 E4.26821
G1 X141.683 Y161.093 E4.28143
G1 X140.579 Y161.181 E4.30112
G1 X124.419 Y161.181 E4.58838
G1 X123.676 Y161.141 E4.6016
G1 X122.941 Y161.022 E4.61484
G1 X122.223 Y160.824 E4.62808
G1 X121.531 Y160.551 E4.6413
G1 X120.872 Y160.205 E4.65453
G1 X120.254 Y159.79 E4.66777
G1 X119.684 Y159.311 E4.681
G1 X119.169 Y158.774 E4.69423
G1 X118.714 Y158.185 E4.70746
G1 X118.712 Y158.181 E4.70754
G1 X114.277 Y158.181 E4.78637
G1 X114.061 Y158.493 E4.79312
G1 X113.575 Y159.056 E4.80634
G1 X113.031 Y159.564 E4.81957
G1 X112.435 Y160.01 E4.8328
G1 X111.795 Y160.391 E4.84604
G1 X111.118 Y160.7 E4.85927
G1 X110.412 Y160.935 E4.8725
G1 X109.685 Y161.093 E4.88572
G1 X108.581 Y161.181 E4.90541
G1 X92.421 Y161.18 E5.19267
G1 X91.677 Y161.14 E5.20591
G1 X90.943 Y161.02 E5.21914
G1 X90.225 Y160.823 E5.23237
G1 X89.533 Y160.549 E5.2456
G1 X88.874 Y160.203 E5.25883
G1 X88.505 Y159.956 E5.26672
G1 X88.433 Y160.01 E5.26832
G1 X87.793 Y160.391 E5.28156
G1 X87.116 Y160.7 E5.29479
G1 X86.41 Y160.935 E5.30802
G1 X85.683 Y161.093 E5.32124
G1 X84.579 Y161.181 E5.34093
G1 X68.419 Y161.181 E5.62819
G1 X67.676 Y161.141 E5.64142
G1 X66.941 Y161.022 E5.65465
G1 X66.223 Y160.824 E5.66789
G1 X65.531 Y160.551 E5.68112
G1 X64.872 Y160.205 E5.69435
G1 X64.254 Y159.79 E5.70758
G1 X63.684 Y159.311 E5.72081
G1 X63.169 Y158.774 E5.73404
G1 X62.714 Y158.185 E5.74727
G1 X62.325 Y157.551 E5.76049
G1 X62.006 Y156.878 E5.77373
G1 X61.761 Y156.175 E5.78697
G1 X61.593 Y155.45 E5.8002
G1 X61.504 Y154.711 E5.81343
G1 X61.495 Y153.967 E5.82665
G1 X61.565 Y153.226 E5.83988
G1 X61.715 Y152.497 E5.85311
G1 X61.942 Y151.788 E5.86635
G1 X62.266 Y151.105 E5.87978
G1 X62.042 Y150.716 E5.88776
G1 X61.705 Y150.053 E5.90098
G1 X61.441 Y149.357 E5.91422
G1 X61.254 Y148.636 E5.92746
G1 X61.144 Y147.9 E5.94069
G1 X61.115 Y147.157 E5.9539
G1 X61.165 Y146.414 E5.96714
G1 X61.294 Y145.681 E5.98037
G1 X61.502 Y144.966 E5.99361
G1 X61.785 Y144.278 E6.00683
G1 X62.043 Y143.786 E6.01671
G1 X63.57 Y141.142 E6.07098
G1 X63.57 Y90.925 E6.96364
G1 X63.61 Y90.182 E6.97686
G1 X63.729 Y89.447 E6.9901
G1 X63.927 Y88.729 E7.00334
G1 X64.2 Y88.037 E7.01656
G1 X64.546 Y87.378 E7.02979
G1 X64.961 Y86.76 E7.04303
G1 X65.6 Y86.025 E7.06034
G1 X65.723 Y85.902 E7.06343
G1 X66.277 Y85.404 E7.07667
G1 X66.881 Y84.969 E7.0899
G1 X67.528 Y84.602 E7.10313
G1 X68.21 Y84.305 E7.11635
G1 X68.921 Y84.084 E7.12959
G1 X69.651 Y83.94 E7.14281
G1 X70.623 Y83.872 E7.16013
G1 X94.263 Y83.872 E7.58036
G1 X94.263 Y82.567 E7.60355
G1 X70.623 Y82.567 E8.02378
G1 X69.88 Y82.527 E8.03701
G1 X69.145 Y82.408 E8.05024
G1 X68.427 Y82.21 E8.06348
G1 X67.735 Y81.937 E8.0767
G1 X67.076 Y81.591 E8.08993
G1 X66.458 Y81.176 E8.10317
G1 X65.723 Y80.537 E8.12048
G1 X65.6 Y80.414 E8.12357
G1 X65.102 Y79.86 E8.13681
G1 X64.667 Y79.256 E8.15005
G1 X64.3 Y78.609 E8.16327
G1 X64.003 Y77.927 E8.17649
G1 X63.782 Y77.216 E8.18973
G1 X63.638 Y76.486 E8.20295
G1 X63.57 Y75.514 E8.22027
G1 X63.57 Y73.361 E8.25854
G1 X62.043 Y70.717 E8.31282
G1 X61.706 Y70.053 E8.32606
G1 X61.442 Y69.358 E8.33927
G1 X61.254 Y68.637 E8.35252
G1 X61.145 Y67.901 E8.36574
G1 X61.115 Y67.157 E8.37898
G1 X61.165 Y66.415 E8.3922
G1 X61.294 Y65.682 E8.40543
G1 X61.501 Y64.967 E8.41866
G1 X61.784 Y64.278 E8.4319
G1 X61.977 Y63.911 E8.43927
G1 X61.794 Y63.551 E8.44645
G1 X61.53 Y62.855 E8.45968
G1 X61.342 Y62.135 E8.47291
G1 X61.233 Y61.399 E8.48614
G1 X61.203 Y60.655 E8.49937
G1 X61.253 Y59.912 E8.51261
G1 X61.382 Y59.179 E8.52584
G1 X61.589 Y58.464 E8.53907
G1 X61.872 Y57.776 E8.55229
G1 X62.227 Y57.122 E8.56552
G1 X62.65 Y56.509 E8.57876
G1 X63.137 Y55.946 E8.59199
M204 S625
M205 X6 Y6
G0 F4285.7 X63.628 Y56.049
M204 S500
M205 X5 Y5
G1 F1200 X64.176 Y55.579 E8.60483
G1 X64.772 Y55.173 E8.61765
G1 X65.41 Y54.836 E8.63047
G1 X66.081 Y54.571 E8.6433
G1 X66.777 Y54.382 E8.65612
G1 X67.49 Y54.271 E8.66894
G1 X68.132 Y54.239 E8.68037
G1 X84.868 Y54.239 E8.97787
G1 X85.588 Y54.279 E8.99069
G1 X86.3 Y54.398 E9.00352
G1 X86.994 Y54.596 E9.01635
G1 X87.661 Y54.869 E9.02916
G1 X88.295 Y55.214 E9.04199
G1 X88.886 Y55.627 E9.05481
G1 X89.428 Y56.103 E9.06763
G1 X89.914 Y56.636 E9.08045
G1 X90.338 Y57.22 E9.09328
G1 X90.349 Y57.239 E9.09367
G1 X94.655 Y57.239 E9.17021
G1 X94.706 Y57.152 E9.17201
G1 X95.137 Y56.574 E9.18482
G1 X95.63 Y56.047 E9.19765
G1 X96.178 Y55.578 E9.21047
G1 X96.774 Y55.172 E9.22329
G1 X97.412 Y54.835 E9.23612
G1 X98.083 Y54.57 E9.24894
G1 X98.779 Y54.381 E9.26176
G1 X99.492 Y54.271 E9.27459
G1 X100.132 Y54.239 E9.28598
G1 X116.868 Y54.239 E9.58348
G1 X117.588 Y54.279 E9.59629
G1 X118.3 Y54.398 E9.60913
G1 X118.994 Y54.596 E9.62195
G1 X119.661 Y54.869 E9.63477
G1 X120.295 Y55.214 E9.6476
G1 X120.886 Y55.627 E9.66041
G1 X121.428 Y56.103 E9.67324
G1 X121.914 Y56.636 E9.68606
G1 X122.338 Y57.22 E9.69889
G1 X122.695 Y57.847 E9.71171
G1 X122.981 Y58.509 E9.72453
G1 X123.191 Y59.199 E9.73735
G1 X123.323 Y59.908 E9.75017
G1 X123.377 Y60.628 E9.76301
G1 X123.35 Y61.349 E9.77583
G1 X123.244 Y62.062 E9.78865
G1 X123.06 Y62.76 E9.80148
G1 X122.799 Y63.432 E9.81429
G1 X122.76 Y63.508 E9.81581
G1 X122.76 Y72.13 E9.96907
G1 X122.72 Y72.85 E9.98189
G1 X122.601 Y73.562 E9.99473
G1 X122.403 Y74.256 E10.00755
G1 X122.13 Y74.923 E10.02037
G1 X121.955 Y75.244 E10.02686
G1 X122.253 Y75.855 E10.03895
G1 X122.495 Y76.534 E10.05176
G1 X122.66 Y77.236 E10.06458
G1 X122.746 Y77.953 E10.07742
G1 X122.76 Y78.374 E10.08491
G1 X122.76 Y88.129 E10.25831
G1 X122.72 Y88.849 E10.27113
G1 X122.601 Y89.561 E10.28396
G1 X122.403 Y90.255 E10.29679
G1 X122.13 Y90.922 E10.3096
G1 X121.785 Y91.556 E10.32243
G1 X121.372 Y92.147 E10.33525
G1 X120.896 Y92.689 E10.34807
G1 X120.363 Y93.175 E10.36089
G1 X119.835 Y93.558 E10.37249
G1 X159.329 Y93.562 E11.07453
G1 X160.076 Y93.605 E11.08783
G1 X160.794 Y93.688 E11.10068
G1 X161.504 Y93.81 E11.11349
G1 X162.215 Y94.017 E11.12665
G1 X162.88 Y94.252 E11.13919
G1 X163.546 Y94.53 E11.15202
G1 X164.193 Y94.89 E11.16518
G1 X164.798 Y95.273 E11.17791
G1 X165.385 Y95.692 E11.19073
G1 X165.947 Y96.198 E11.20417
G1 X166.442 Y96.699 E11.21669
G1 X166.92 Y97.239 E11.22951
G1 X167.33 Y97.822 E11.24218
G1 X167.709 Y98.428 E11.25488
G1 X168.057 Y99.06 E11.26771
G1 X168.345 Y99.761 E11.28118
G1 X168.576 Y100.432 E11.29379
G1 X168.773 Y101.126 E11.30662
G1 X168.89 Y101.824 E11.3192
G1 X168.969 Y102.527 E11.33177
G1 X169.01 Y103.254 E11.34472
G1 X169.01 Y141.255 E12.02022
G1 X170.593 Y143.996 E12.07649
G1 X170.919 Y144.64 E12.08932
G1 X171.171 Y145.315 E12.10213
G1 X171.347 Y146.015 E12.11496
G1 X171.445 Y146.73 E12.12779
G1 X171.463 Y147.451 E12.14061
G1 X171.401 Y148.17 E12.15343
G1 X171.26 Y148.877 E12.16625
G1 X171.041 Y149.565 E12.17908
G1 X170.594 Y150.506 E12.1976
G1 X170.262 Y151.081 E12.20941
G1 X170.544 Y151.639 E12.22052
G1 X170.796 Y152.315 E12.23334
G1 X170.973 Y153.015 E12.24618
G1 X171.07 Y153.729 E12.25899
G1 X171.088 Y154.45 E12.27181
G1 X171.026 Y155.169 E12.28464
G1 X170.885 Y155.877 E12.29747
G1 X170.666 Y156.564 E12.31029
G1 X170.373 Y157.223 E12.32311
G1 X170.008 Y157.846 E12.33594
G1 X169.577 Y158.424 E12.34876
G1 X169.085 Y158.951 E12.36157
G1 X168.537 Y159.421 E12.37441
G1 X167.941 Y159.827 E12.38723
G1 X167.303 Y160.164 E12.40005
G1 X166.632 Y160.429 E12.41288
G1 X165.936 Y160.618 E12.4257
G1 X165.223 Y160.729 E12.43852
G1 X164.581 Y160.761 E12.44995
G1 X148.421 Y160.76 E12.73721
G1 X147.7 Y160.72 E12.75004
G1 X146.989 Y160.601 E12.76286
G1 X146.295 Y160.403 E12.77569
G1 X145.627 Y160.13 E12.78852
G1 X144.994 Y159.785 E12.80133
G1 X144.503 Y159.442 E12.81198
G1 X143.937 Y159.828 E12.82416
G1 X143.299 Y160.165 E12.83698
G1 X142.628 Y160.43 E12.84981
G1 X141.932 Y160.619 E12.86263
G1 X141.219 Y160.729 E12.87545
G1 X140.579 Y160.761 E12.88684
G1 X124.419 Y160.761 E13.1741
G1 X123.699 Y160.721 E13.18692
G1 X122.987 Y160.602 E13.19975
G1 X122.293 Y160.404 E13.21258
G1 X121.626 Y160.131 E13.22539
G1 X120.992 Y159.786 E13.23822
G1 X120.401 Y159.373 E13.25104
G1 X119.859 Y158.897 E13.26386
G1 X119.373 Y158.364 E13.27668
G1 X118.949 Y157.78 E13.28951
G1 X118.938 Y157.761 E13.2899
G1 X114.058 Y157.761 E13.37665
G1 X114.007 Y157.848 E13.37844
G1 X113.576 Y158.426 E13.39126
G1 X113.083 Y158.953 E13.40409
G1 X112.535 Y159.422 E13.41691
G1 X111.939 Y159.828 E13.42973
G1 X111.301 Y160.165 E13.44255
G1 X110.63 Y160.43 E13.45538
G1 X109.934 Y160.619 E13.4682
G1 X109.221 Y160.729 E13.48102
G1 X108.581 Y160.761 E13.49241
G1 X92.421 Y160.76 E13.77967
G1 X91.7 Y160.72 E13.79251
G1 X90.989 Y160.601 E13.80532
G1 X90.295 Y160.403 E13.81815
G1 X89.627 Y160.13 E13.83098
G1 X88.994 Y159.785 E13.84379
G1 X88.503 Y159.442 E13.85444
G1 X87.937 Y159.828 E13.86662
G1 X87.299 Y160.165 E13.87945
G1 X86.628 Y160.43 E13.89227
G1 X85.932 Y160.619 E13.90509
G1 X85.219 Y160.729 E13.91791
G1 X84.579 Y160.761 E13.9293
G1 X68.419 Y160.761 E14.21656
G1 X67.699 Y160.721 E14.22938
G1 X66.987 Y160.602 E14.24221
G1 X66.293 Y160.404 E14.25504
G1 X65.626 Y160.131 E14.26785
G1 X64.992 Y159.786 E14.28069
G1 X64.401 Y159.373 E14.2935
G1 X63.859 Y158.897 E14.30632
G1 X63.373 Y158.364 E14.31915
G1 X62.949 Y157.78 E14.33198
G1 X62.592 Y157.153 E14.3448
G1 X62.306 Y156.491 E14.35762
G1 X62.096 Y155.801 E14.37044
G1 X61.964 Y155.092 E14.38326
G1 X61.91 Y154.372 E14.39609
G1 X61.937 Y153.651 E14.40892
G1 X62.043 Y152.938 E14.42173
G1 X62.227 Y152.24 E14.43457
G1 X62.488 Y151.568 E14.44738
G1 X62.737 Y151.08 E14.45712
G1 X62.406 Y150.506 E14.4689
G1 X62.08 Y149.863 E14.48171
G1 X61.828 Y149.187 E14.49454
G1 X61.652 Y148.487 E14.50737
G1 X61.555 Y147.772 E14.52019
G1 X61.537 Y147.051 E14.53301
G1 X61.599 Y146.333 E14.54582
G1 X61.741 Y145.625 E14.55866
G1 X61.959 Y144.938 E14.57147
G1 X62.407 Y143.996 E14.59001
G1 X63.99 Y141.255 E14.64628
G1 X63.99 Y90.925 E15.54095
G1 X64.03 Y90.205 E15.55376
G1 X64.149 Y89.493 E15.5666
G1 X64.347 Y88.799 E15.57942
G1 X64.62 Y88.132 E15.59224
G1 X64.965 Y87.498 E15.60507
G1 X65.378 Y86.907 E15.61788
G1 X65.897 Y86.322 E15.63178
G1 X66.02 Y86.199 E15.63488
G1 X66.557 Y85.718 E15.64769
G1 X67.145 Y85.299 E15.66053
G1 X67.775 Y84.948 E15.67335
G1 X68.44 Y84.669 E15.68617
G1 X69.132 Y84.465 E15.69899
G1 X69.842 Y84.339 E15.71181
G1 X70.623 Y84.292 E15.72572
G1 X94.683 Y84.292 E16.15341
G1 X94.683 Y82.147 E16.19154
G1 X70.623 Y82.147 E16.61923
G1 X69.903 Y82.107 E16.63204
G1 X69.191 Y81.988 E16.64488
G1 X68.497 Y81.79 E16.6577
G1 X67.83 Y81.517 E16.67052
G1 X67.196 Y81.172 E16.68335
G1 X66.605 Y80.759 E16.69616
G1 X66.02 Y80.24 E16.71006
G1 X65.897 Y80.117 E16.71316
G1 X65.416 Y79.58 E16.72597
G1 X64.997 Y78.992 E16.73881
G1 X64.646 Y78.362 E16.75163
G1 X64.367 Y77.697 E16.76445
G1 X64.163 Y77.005 E16.77727
G1 X64.037 Y76.295 E16.79009
G1 X63.99 Y75.514 E16.804
G1 X63.99 Y73.248 E16.84428
G1 X62.407 Y70.507 E16.90054
G1 X62.081 Y69.863 E16.91337
G1 X61.829 Y69.188 E16.92618
G1 X61.653 Y68.488 E16.93901
G1 X61.555 Y67.773 E16.95184
G1 X61.537 Y67.052 E16.96466
G1 X61.599 Y66.333 E16.97749
G1 X61.74 Y65.626 E16.9903
G1 X61.959 Y64.938 E17.00314
G1 X62.406 Y63.997 E17.02166
G1 X62.451 Y63.919 E17.02326
G1 X62.169 Y63.361 E17.03437
G1 X61.917 Y62.685 E17.0472
G1 X61.74 Y61.985 E17.06003
