;START_OF_HEADER
;HEADER_VERSION:0.1
;FLAVOR:Griffin
;GENERATOR.NAME:Cura_SteamEngine
;GENERATOR.VERSION:4.3.0
;GENERATOR.BUILD_DATE:2019-09-24
;TARGET_MACHINE.NAME:Ultimaker 3
;EXTRUDER_TRAIN.0.INITIAL_TEMPERATURE:217
;EXTRUDER_TRAIN.0.MATERIAL.VOLUME_USED:5477
;EXTRUDER_TRAIN.0.MATERIAL.GUID:44a029e6-e31b-4c9e-a12f-9282e29a92ff
;EXTRUDER_TRAIN.0.NOZZLE.DIAMETER:0.4
;EXTRUDER_TRAIN.0.NOZZLE.NAME:AA 0.4
;BUILD_PLATE.TYPE:glass
;BUILD_PLATE.INITIAL_TEMPERATURE:60
;PRINT.TIME:5120
;PRINT.GROUPS:1
;PRINT.SIZE.MIN.X:9
;PRINT.SIZE.MIN.Y:6
;PRINT.SIZE.MIN.Z:0.27
;PRINT.SIZE.MAX.X:161.53
;PRINT.SIZE.MAX.Y:121.93
;PRINT.SIZE.MAX.Z:8.17
;END_OF_HEADER
;Generated with Cura_SteamEngine 4.3.0
T0
M82 ;absolute extrusion mode

G92 E0
M109 S217
G0 F15000 X9 Y6 Z2
G280
G1 F1500 E-6.5
;LAYER_COUNT:80
;LAYER:0
M107
M204 S625
M205 X6 Y6
G1 F600 Z2.27
G0 F4285.7 X74.466 Y94.295 Z2.27
M204 S500
M205 X5 Y5
;TYPE:SKIRT
G1 F600 Z0.27
G1 F1500 E0
G1 F1200 X75.1 Y93.906 E0.01322
G1 X75.773 Y93.587 E0.02646
G1 X76.476 Y93.342 E0.03969
G1 X77.201 Y93.174 E0.05292
G1 X77.94 Y93.085 E0.06616
G1 X78.4 Y93.07 E0.07434
G1 X154.6 Y93.07 E1.42887
G1 X155.343 Y93.11 E1.44209
G1 X156.078 Y93.229 E1.45533
G1 X156.796 Y93.427 E1.46857
G1 X157.488 Y93.7 E1.48179
G1 X158.147 Y94.046 E1.49502
G1 X158.765 Y94.461 E1.50825
G1 X159.335 Y94.94 E1.52149
G1 X159.85 Y95.477 E1.53472
G1 X160.305 Y96.066 E1.54795
G1 X160.694 Y96.7 E1.56117
G1 X161.013 Y97.373 E1.57441
G1 X161.258 Y98.076 E1.58764
G1 X161.426 Y98.801 E1.60087
G1 X161.515 Y99.54 E1.6141
G1 X161.53 Y100 E1.62228
G1 X161.53 Y115 E1.88892
G1 X161.49 Y115.743 E1.90215
G1 X161.371 Y116.478 E1.91538
G1 X161.173 Y117.196 E1.92862
G1 X160.9 Y117.888 E1.94185
G1 X160.554 Y118.547 E1.95508
G1 X160.139 Y119.165 E1.96831
G1 X159.66 Y119.735 E1.98155
G1 X159.123 Y120.25 E1.99477
G1 X158.534 Y120.705 E2.008
G1 X157.9 Y121.094 E2.02122
G1 X157.227 Y121.413 E2.03446
G1 X156.524 Y121.658 E2.0477
G1 X155.799 Y121.826 E2.06093
G1 X155.06 Y121.915 E2.07416
G1 X154.6 Y121.93 E2.08234
G1 X78.4 Y121.93 E3.43687
G1 X77.657 Y121.89 E3.4501
G1 X76.922 Y121.771 E3.46333
G1 X76.204 Y121.573 E3.47657
G1 X75.512 Y121.3 E3.48979
G1 X74.853 Y120.954 E3.50302
G1 X74.235 Y120.539 E3.51626
G1 X73.665 Y120.06 E3.52949
G1 X73.15 Y119.523 E3.54272
G1 X72.695 Y118.934 E3.55595
G1 X72.306 Y118.3 E3.56917
G1 X71.987 Y117.627 E3.58241
G1 X71.742 Y116.924 E3.59564
G1 X71.574 Y116.199 E3.60887
G1 X71.485 Y115.46 E3.6221
G1 X71.47 Y115 E3.63029
G1 X71.47 Y100 E3.89692
G1 X71.51 Y99.257 E3.91015
G1 X71.629 Y98.522 E3.92339
G1 X71.827 Y97.804 E3.93663
G1 X72.1 Y97.112 E3.94985
G1 X72.446 Y96.453 E3.96308
G1 X72.861 Y95.835 E3.97631
G1 X73.34 Y95.265 E3.98955
G1 X73.877 Y94.75 E4.00277
G1 X74.466 Y94.295 E4.016
M204 S625
M205 X6 Y6
G0 F4285.7 X74.871 Y94.53
M204 S500
M205 X5 Y5
G1 F1200 X75.498 Y94.173 E4.02883
G1 X76.16 Y93.887 E4.04165
G1 X76.85 Y93.677 E4.05447
G1 X77.559 Y93.545 E4.06729
G1 X78.4 Y93.49 E4.08227
G1 X154.6 Y93.49 E5.4368
G1 X155.32 Y93.53 E5.44962
G1 X156.032 Y93.649 E5.46245
G1 X156.726 Y93.847 E5.47528
G1 X157.393 Y94.12 E5.48809
G1 X158.027 Y94.465 E5.50092
G1 X158.618 Y94.878 E5.51374
G1 X159.16 Y95.354 E5.52656
G1 X159.646 Y95.887 E5.53938
G1 X160.07 Y96.471 E5.55221
G1 X160.427 Y97.098 E5.56504
G1 X160.713 Y97.76 E5.57786
G1 X160.923 Y98.45 E5.59068
G1 X161.055 Y99.159 E5.6035
G1 X161.11 Y100 E5.61848
G1 X161.11 Y115 E5.88512
G1 X161.07 Y115.72 E5.89794
G1 X160.951 Y116.432 E5.91077
G1 X160.753 Y117.126 E5.9236
G1 X160.48 Y117.793 E5.93641
G1 X160.135 Y118.427 E5.94924
G1 X159.722 Y119.018 E5.96206
G1 X159.246 Y119.56 E5.97488
G1 X158.713 Y120.046 E5.9877
G1 X158.129 Y120.47 E6.00053
G1 X157.502 Y120.827 E6.01335
G1 X156.84 Y121.113 E6.02617
G1 X156.15 Y121.323 E6.03899
G1 X155.441 Y121.455 E6.05181
G1 X154.6 Y121.51 E6.0668
G1 X78.4 Y121.51 E7.42133
G1 X77.68 Y121.47 E7.43414
G1 X76.968 Y121.351 E7.44698
G1 X76.274 Y121.153 E7.4598
G1 X75.607 Y120.88 E7.47262
G1 X74.973 Y120.535 E7.48545
G1 X74.382 Y120.122 E7.49826
G1 X73.84 Y119.646 E7.51109
G1 X73.354 Y119.113 E7.52391
G1 X72.93 Y118.529 E7.53674
G1 X72.573 Y117.902 E7.54956
G1 X72.287 Y117.24 E7.56238
G1 X72.077 Y116.55 E7.5752
G1 X71.945 Y115.841 E7.58802
G1 X71.89 Y115 E7.603
G1 X71.89 Y100 E7.86964
G1 X71.93 Y99.28 E7.88246
G1 X72.049 Y98.568 E7.89529
G1 X72.247 Y97.874 E7.90812
G1 X72.52 Y97.207 E7.92093
G1 X72.865 Y96.573 E7.93376
G1 X73.278 Y95.982 E7.94658
G1 X73.754 Y95.44 E7.9594
G1 X74.287 Y94.954 E7.97222
G1 X74.871 Y94.53 E7.98505
M204 S625
M205 X6 Y6
G0 F4285.7 X74.696 Y95.166
M204 S500
M205 X5 Y5
G1 F1200 X75.273 Y94.774 E7.99745
G1 X75.892 Y94.451 E8.00986
G1 X76.543 Y94.2 E8.02227
G1 X77.219 Y94.026 E8.03468
G1 X77.91 Y93.93 E8.04708
G1 X78.4 Y93.91 E8.05579
G1 X154.6 Y93.91 E9.41032
G1 X155.297 Y93.95 E9.42273
G1 X155.984 Y94.069 E9.43513
G1 X156.653 Y94.267 E9.44753
G1 X157.296 Y94.539 E9.45994
G1 X157.902 Y94.883 E9.47233
G1 X158.466 Y95.295 E9.48474
G1 X158.979 Y95.768 E9.49715
G1 X159.434 Y96.296 E9.50954
G1 X159.826 Y96.873 E9.52194
G1 X160.149 Y97.492 E9.53435
G1 X160.4 Y98.143 E9.54675
G1 X160.574 Y98.819 E9.55916
G1 X160.67 Y99.51 E9.57156
G1 X160.69 Y100 E9.58028
G1 X160.69 Y115 E9.84692
G1 X160.65 Y115.697 E9.85933
G1 X160.531 Y116.384 E9.87172
G1 X160.333 Y117.053 E9.88412
G1 X160.061 Y117.696 E9.89653
G1 X159.717 Y118.302 E9.90892
G1 X159.305 Y118.866 E9.92134
G1 X158.832 Y119.379 E9.93374
G1 X158.304 Y119.834 E9.94613
G1 X157.727 Y120.226 E9.95853
G1 X157.108 Y120.549 E9.97094
G1 X156.457 Y120.8 E9.98334
G1 X155.781 Y120.974 E9.99575
G1 X155.09 Y121.07 E10.00815
G1 X154.6 Y121.09 E10.01687
G1 X78.4 Y121.09 E11.3714
G1 X77.703 Y121.05 E11.38381
G1 X77.016 Y120.931 E11.3962
G1 X76.347 Y120.733 E11.40861
G1 X75.704 Y120.461 E11.42102
G1 X75.098 Y120.117 E11.4334
G1 X74.534 Y119.705 E11.44582
G1 X74.021 Y119.232 E11.45822
G1 X73.566 Y118.704 E11.47061
G1 X73.174 Y118.127 E11.48301
G1 X72.851 Y117.508 E11.49542
G1 X72.6 Y116.857 E11.50783
G1 X72.426 Y116.181 E11.52023
G1 X72.33 Y115.49 E11.53263
G1 X72.31 Y115 E11.54135
G1 X72.31 Y100 E11.80799
G1 X72.35 Y99.303 E11.8204
G1 X72.469 Y98.616 E11.8328
G1 X72.667 Y97.947 E11.8452
G1 X72.939 Y97.304 E11.85761
G1 X73.283 Y96.698 E11.87
G1 X73.695 Y96.134 E11.88241
G1 X74.168 Y95.621 E11.89482
G1 X74.696 Y95.166 E11.90721
M204 S625
M205 X6 Y6
G0 F4285.7 X75.104 Y95.387
M204 S500
M205 X5 Y5
G1 F1200 X75.674 Y95.028 E11.91918
G1 X76.282 Y94.74 E11.93114
G1 X76.92 Y94.526 E11.9431
G1 X77.58 Y94.39 E11.95508
G1 X78.4 Y94.33 E11.96969
G1 X154.6 Y94.33 E13.32422
G1 X155.272 Y94.37 E13.33619
G1 X155.935 Y94.489 E13.34816
G1 X156.578 Y94.686 E13.36012
G1 X157.194 Y94.958 E13.37209
G1 X157.773 Y95.301 E13.38405
G1 X158.308 Y95.71 E13.39602
G1 X158.79 Y96.18 E13.40799
G1 X159.213 Y96.704 E13.41996
G1 X159.572 Y97.274 E13.43193
G1 X159.86 Y97.882 E13.44389
G1 X160.074 Y98.52 E13.45586
G1 X160.21 Y99.18 E13.46783
G1 X160.27 Y100 E13.48245
G1 X160.27 Y115 E13.74909
G1 X160.23 Y115.672 E13.76106
G1 X160.111 Y116.335 E13.77303
G1 X159.914 Y116.978 E13.78498
G1 X159.642 Y117.594 E13.79695
G1 X159.299 Y118.173 E13.80892
G1 X158.89 Y118.708 E13.82089
G1 X158.42 Y119.19 E13.83285
G1 X157.896 Y119.613 E13.84483
G1 X157.326 Y119.972 E13.8568
G1 X156.718 Y120.26 E13.86876
G1 X156.08 Y120.474 E13.88072
G1 X155.42 Y120.61 E13.8927
G1 X154.6 Y120.67 E13.90731
G1 X78.4 Y120.67 E15.26184
G1 X77.728 Y120.63 E15.27381
G1 X77.065 Y120.511 E15.28578
G1 X76.422 Y120.314 E15.29774
G1 X75.806 Y120.042 E15.30971
G1 X75.227 Y119.699 E15.32167
G1 X74.692 Y119.29 E15.33364
G1 X74.21 Y118.82 E15.34561
G1 X73.787 Y118.296 E15.35758
G1 X73.428 Y117.726 E15.36956
G1 X73.14 Y117.118 E15.38151
G1 X72.926 Y116.48 E15.39348
G1 X72.79 Y115.82 E15.40545
G1 X72.73 Y115 E15.42007
G1 X72.73 Y100 E15.68671
G1 X72.77 Y99.328 E15.69868
G1 X72.889 Y98.665 E15.71065
G1 X73.086 Y98.022 E15.7226
G1 X73.358 Y97.406 E15.73457
G1 X73.701 Y96.827 E15.74654
G1 X74.11 Y96.292 E15.75851
G1 X74.58 Y95.81 E15.77048
G1 X75.104 Y95.387 E15.78245
M204 S625
M205 X6 Y6
G0 F4285.7 X75.509 Y95.618
M204 S500
M205 X5 Y5
G1 F1200 X76.071 Y95.295 E15.79397
G1 X76.668 Y95.044 E15.80548
G1 X77.292 Y94.868 E15.81701
G1 X77.932 Y94.771 E15.82851
G1 X78.4 Y94.75 E15.83684
G1 X154.6 Y94.75 E17.19137
G1 X155.247 Y94.79 E17.20289
G1 X155.883 Y94.909 E17.21439
G1 X156.5 Y95.106 E17.22591
G1 X157.089 Y95.377 E17.23743
G1 X157.639 Y95.719 E17.24894
G1 X158.143 Y96.126 E17.26046
G1 X158.593 Y96.592 E17.27198
G1 X158.982 Y97.109 E17.28348
G1 X159.305 Y97.671 E17.295
G1 X159.556 Y98.268 E17.30651
G1 X159.732 Y98.892 E17.31804
G1 X159.829 Y99.532 E17.32954
G1 X159.85 Y100 E17.33787
G1 X159.85 Y115 E17.60451
G1 X159.81 Y115.647 E17.61603
G1 X159.691 Y116.283 E17.62753
G1 X159.494 Y116.9 E17.63905
G1 X159.223 Y117.489 E17.65057
G1 X158.881 Y118.039 E17.66209
G1 X158.474 Y118.543 E17.6736
G1 X158.008 Y118.993 E17.68512
G1 X157.491 Y119.382 E17.69662
G1 X156.929 Y119.705 E17.70814
G1 X156.332 Y119.956 E17.71965
G1 X155.708 Y120.132 E17.73118
G1 X155.068 Y120.229 E17.74268
G1 X154.6 Y120.25 E17.75101
G1 X78.4 Y120.25 E19.10554
G1 X77.753 Y120.21 E19.11706
G1 X77.117 Y120.091 E19.12857
G1 X76.5 Y119.894 E19.14008
G1 X75.911 Y119.623 E19.1516
G1 X75.361 Y119.281 E19.16312
G1 X74.857 Y118.874 E19.17463
G1 X74.407 Y118.408 E19.18615
G1 X74.018 Y117.891 E19.19765
G1 X73.695 Y117.329 E19.20917
G1 X73.444 Y116.732 E19.22068
G1 X73.268 Y116.108 E19.23221
G1 X73.171 Y115.468 E19.24372
G1 X73.15 Y115 E19.25204
G1 X73.15 Y100 E19.51868
G1 X73.19 Y99.353 E19.53021
G1 X73.309 Y98.717 E19.54171
G1 X73.506 Y98.1 E19.55322
G1 X73.777 Y97.511 E19.56475
G1 X74.119 Y96.961 E19.57626
G1 X74.526 Y96.457 E19.58777
G1 X74.992 Y96.007 E19.59929
G1 X75.509 Y95.618 E19.61079
M204 S625
M205 X6 Y6
G0 F4285.7 X75.912 Y95.86
M204 S500
M205 X5 Y5
G1 F1200 X76.464 Y95.575 E19.62183
G1 X77.049 Y95.363 E19.63289
G1 X77.655 Y95.228 E19.64393
G1 X78.4 Y95.17 E19.65721
G1 X154.6 Y95.17 E21.01174
G1 X155.22 Y95.21 E21.02279
G1 X155.83 Y95.329 E21.03383
G1 X156.419 Y95.526 E21.04487
G1 X156.978 Y95.796 E21.05591
G1 X157.498 Y96.136 E21.06695
G1 X157.97 Y96.54 E21.078
G1 X158.387 Y97.002 E21.08906
G1 X158.74 Y97.512 E21.10009
G1 X159.025 Y98.064 E21.11113
G1 X159.237 Y98.649 E21.12219
G1 X159.372 Y99.255 E21.13323
G1 X159.43 Y100 E21.14651
G1 X159.43 Y115 E21.41315
G1 X159.39 Y115.62 E21.42419
G1 X159.271 Y116.23 E21.43524
G1 X159.074 Y116.819 E21.44628
G1 X158.804 Y117.378 E21.45732
G1 X158.464 Y117.898 E21.46836
G1 X158.06 Y118.37 E21.4794
G1 X157.598 Y118.787 E21.49047
G1 X157.088 Y119.14 E21.50149
G1 X156.536 Y119.425 E21.51254
G1 X155.951 Y119.637 E21.5236
G1 X155.345 Y119.772 E21.53463
G1 X154.6 Y119.83 E21.54792
G1 X78.4 Y119.83 E22.90245
G1 X77.78 Y119.79 E22.91349
G1 X77.17 Y119.671 E22.92454
G1 X76.581 Y119.474 E22.93558
G1 X76.022 Y119.204 E22.94661
G1 X75.502 Y118.864 E22.95766
G1 X75.03 Y118.46 E22.9687
G1 X74.613 Y117.998 E22.97976
G1 X74.26 Y117.488 E22.99079
G1 X73.975 Y116.936 E23.00183
G1 X73.763 Y116.351 E23.01289
G1 X73.628 Y115.745 E23.02393
G1 X73.57 Y115 E23.03721
G1 X73.57 Y100 E23.30385
G1 X73.61 Y99.38 E23.3149
G1 X73.729 Y98.77 E23.32594
G1 X73.926 Y98.181 E23.33698
G1 X74.196 Y97.622 E23.34802
G1 X74.536 Y97.102 E23.35906
G1 X74.94 Y96.63 E23.37011
G1 X75.402 Y96.213 E23.38117
G1 X75.912 Y95.86 E23.3922
M204 S625
M205 X6 Y6
G0 F4285.7 X75.81 Y96.431
M204 S500
M205 X5 Y5
G1 F1200 X76.313 Y96.115 E23.40276
G1 X76.853 Y95.87 E23.4133
G1 X77.422 Y95.7 E23.42385
G1 X78.008 Y95.607 E23.4344
G1 X78.4 Y95.59 E23.44137
G1 X154.6 Y95.59 E24.7959
G1 X155.192 Y95.63 E24.80645
G1 X155.774 Y95.749 E24.81701
G1 X156.334 Y95.945 E24.82756
G1 X156.863 Y96.215 E24.83811
G1 X157.351 Y96.553 E24.84867
G1 X157.789 Y96.954 E24.85922
G1 X158.169 Y97.41 E24.86977
G1 X158.485 Y97.913 E24.88033
G1 X158.73 Y98.453 E24.89087
G1 X158.9 Y99.022 E24.90143
G1 X158.993 Y99.608 E24.91198
G1 X159.01 Y100 E24.91895
G1 X159.01 Y115 E25.18559
G1 X158.97 Y115.592 E25.19614
G1 X158.851 Y116.174 E25.2067
G1 X158.655 Y116.734 E25.21725
G1 X158.385 Y117.263 E25.2278
G1 X158.047 Y117.751 E25.23836
G1 X157.646 Y118.189 E25.24891
G1 X157.19 Y118.569 E25.25946
G1 X156.687 Y118.885 E25.27002
G1 X156.147 Y119.13 E25.28056
G1 X155.578 Y119.3 E25.29112
G1 X154.992 Y119.393 E25.30167
G1 X154.6 Y119.41 E25.30864
G1 X78.4 Y119.41 E26.66317
G1 X77.808 Y119.37 E26.67372
G1 X77.226 Y119.251 E26.68428
G1 X76.666 Y119.055 E26.69482
G1 X76.137 Y118.785 E26.70538
G1 X75.649 Y118.447 E26.71593
G1 X75.211 Y118.046 E26.72649
G1 X74.831 Y117.59 E26.73704
G1 X74.515 Y117.087 E26.7476
G1 X74.27 Y116.547 E26.75814
G1 X74.1 Y115.978 E26.7687
G1 X74.007 Y115.392 E26.77925
G1 X73.99 Y115 E26.78622
G1 X73.99 Y100 E27.05286
G1 X74.03 Y99.408 E27.06341
G1 X74.149 Y98.826 E27.07397
G1 X74.345 Y98.266 E27.08451
G1 X74.615 Y97.737 E27.09507
G1 X74.953 Y97.249 E27.10562
G1 X75.354 Y96.811 E27.11618
G1 X75.81 Y96.431 E27.12673
M204 S625
M205 X6 Y6
G0 F4285.7 X76.215 Y96.661
M204 S500
M205 X5 Y5
G1 F1200 X76.709 Y96.386 E27.13678
G1 X77.236 Y96.184 E27.14681
G1 X77.786 Y96.058 E27.15684
G1 X78.4 Y96.01 E27.16779
G1 X154.6 Y96.01 E28.52232
G1 X155.163 Y96.05 E28.53235
G1 X155.715 Y96.169 E28.54239
G1 X156.245 Y96.365 E28.55244
G1 X156.741 Y96.633 E28.56246
G1 X157.195 Y96.969 E28.5725
G1 X157.597 Y97.366 E28.58254
G1 X157.939 Y97.815 E28.59257
G1 X158.214 Y98.309 E28.60262
G1 X158.416 Y98.836 E28.61266
G1 X158.542 Y99.386 E28.62269
G1 X158.59 Y100 E28.63364
G1 X158.59 Y115 E28.90027
G1 X158.55 Y115.563 E28.91031
G1 X158.431 Y116.115 E28.92035
G1 X158.235 Y116.645 E28.93039
G1 X157.967 Y117.141 E28.94041
G1 X157.631 Y117.595 E28.95045
G1 X157.234 Y117.997 E28.9605
G1 X156.785 Y118.339 E28.97053
G1 X156.291 Y118.614 E28.98058
G1 X155.764 Y118.816 E28.99061
G1 X155.214 Y118.942 E29.00064
G1 X154.6 Y118.99 E29.01159
G1 X78.4 Y118.99 E30.36612
G1 X77.837 Y118.95 E30.37615
G1 X77.285 Y118.831 E30.38619
G1 X76.755 Y118.635 E30.39623
G1 X76.259 Y118.367 E30.40626
G1 X75.805 Y118.031 E30.4163
G1 X75.403 Y117.634 E30.42634
G1 X75.061 Y117.185 E30.43637
G1 X74.786 Y116.691 E30.44642
G1 X74.584 Y116.164 E30.45646
G1 X74.458 Y115.614 E30.46649
G1 X74.41 Y115 E30.47743
G1 X74.41 Y100 E30.74407
G1 X74.45 Y99.437 E30.75411
G1 X74.569 Y98.885 E30.76414
G1 X74.765 Y98.355 E30.77419
G1 X75.033 Y97.859 E30.78421
G1 X75.369 Y97.405 E30.79425
G1 X75.766 Y97.003 E30.80429
G1 X76.215 Y96.661 E30.81433
M204 S625
M205 X6 Y6
G0 F4285.7 X76.176 Y97.207
M204 S500
M205 X5 Y5
G1 F1200 X76.618 Y96.907 E30.82382
G1 X77.099 Y96.675 E30.83331
G1 X77.61 Y96.519 E30.84281
G1 X78.4 Y96.43 E30.85694
G1 X154.6 Y96.43 E32.21147
G1 X155.133 Y96.47 E32.22097
G1 X155.653 Y96.589 E32.23046
G1 X156.15 Y96.784 E32.23995
G1 X156.613 Y97.051 E32.24945
G1 X157.03 Y97.385 E32.25895
G1 X157.393 Y97.776 E32.26843
G1 X157.693 Y98.218 E32.27793
G1 X157.925 Y98.699 E32.28742
G1 X158.081 Y99.21 E32.29692
G1 X158.17 Y100 E32.31105
G1 X158.17 Y115 E32.57769
G1 X158.13 Y115.533 E32.58719
G1 X158.011 Y116.053 E32.59667
G1 X157.816 Y116.55 E32.60616
G1 X157.549 Y117.013 E32.61566
G1 X157.215 Y117.43 E32.62516
G1 X156.824 Y117.793 E32.63464
G1 X156.382 Y118.093 E32.64414
G1 X155.901 Y118.325 E32.65363
G1 X155.39 Y118.481 E32.66313
G1 X154.6 Y118.57 E32.67726
G1 X78.4 Y118.57 E34.03179
G1 X77.867 Y118.53 E34.04129
G1 X77.347 Y118.411 E34.05077
G1 X76.85 Y118.216 E34.06026
G1 X76.387 Y117.949 E34.06976
G1 X75.97 Y117.615 E34.07926
G1 X75.607 Y117.224 E34.08875
G1 X75.307 Y116.782 E34.09824
G1 X75.075 Y116.301 E34.10773
G1 X74.919 Y115.79 E34.11723
G1 X74.83 Y115 E34.13136
G1 X74.83 Y100 E34.398
G1 X74.87 Y99.467 E34.4075
G1 X74.989 Y98.947 E34.41699
G1 X75.184 Y98.45 E34.42648
G1 X75.451 Y97.987 E34.43598
G1 X75.785 Y97.57 E34.44548
G1 X76.176 Y97.207 E34.45496
M204 S625
M205 X6 Y6
G0 F4285.7 X76.584 Y97.426
M204 S500
M205 X5 Y5
G1 F1200 X77.016 Y97.17 E34.46389
G1 X77.483 Y96.987 E34.4728
G1 X77.972 Y96.879 E34.4817
G1 X78.4 Y96.85 E34.48933
G1 X154.6 Y96.85 E35.84386
G1 X155.1 Y96.89 E35.85277
G1 X155.587 Y97.009 E35.86169
G1 X156.05 Y97.203 E35.87061
G1 X156.475 Y97.469 E35.87952
G1 X156.853 Y97.799 E35.88844
