;START_OF_HEADER
;HEADER_VERSION:0.1
;FLAVOR:Griffin
;GENERATOR.NAME:Cura_SteamEngine
;GENERATOR.VERSION:4.1.0
;GENERATOR.BUILD_DATE:2019-05-28
;TARGET_MACHINE.NAME:Ultimaker 3
;EXTRUDER_TRAIN.0.INITIAL_TEMPERATURE:217
;EXTRUDER_TRAIN.0.MATERIAL.VOLUME_USED:1630
;EXTRUDER_TRAIN.0.MATERIAL.GUID:44a029e6-e31b-4c9e-a12f-9282e29a92ff
;EXTRUDER_TRAIN.0.NOZZLE.DIAMETER:0.4
;EXTRUDER_TRAIN.0.NOZZLE.NAME:AA 0.4
;BUILD_PLATE.TYPE:glass
;BUILD_PLATE.INITIAL_TEMPERATURE:60
;BUILD_VOLUME.TEMPERATURE:35
;PRINT.TIME:1904
;PRINT.GROUPS:1
;PRINT.SIZE.MIN.X:9
;PRINT.SIZE.MIN.Y:6
;PRINT.SIZE.MIN.Z:0.27
;PRINT.SIZE.MAX.X:129.025
;PRINT.SIZE.MAX.Y:113.675
;PRINT.SIZE.MAX.Z:8.97
;END_OF_HEADER
;Generated with Cura_SteamEngine 4.1.0
T0
M82 ;absolute extrusion mode

G92 E0
M109 S217
G0 F15000 X9 Y6 Z2
G280
G1 F1500 E-6.5
;LAYER_COUNT:88
;LAYER:0
M107
M204 S625
M205 X6 Y6
;MESH:pulley enclosure test.stl
G0 F4285.7 X109.19 Y110.67 Z0.27
M204 S500
M205 X5 Y5
;TYPE:WALL-INNER
G1 F1500 E0
G1 F1200 X123.81 Y110.67 E0.22276
G1 X123.81 Y104 E0.32439
G1 X109.19 Y104 E0.54714
G1 X109.19 Y110.67 E0.64877
M204 S625
M205 X6 Y6
G0 F4285.7 X109.55 Y110.31
M204 S500
M205 X5 Y5
G1 F1200 X123.45 Y110.31 E0.86056
G1 X123.45 Y104.36 E0.95122
G1 X109.55 Y104.36 E1.16301
G1 X109.55 Y110.31 E1.25366
M204 S625
M205 X6 Y6
G0 F4285.7 X109.94 Y109.92
M204 S500
M205 X5 Y5
;TYPE:WALL-OUTER
G1 F1200 X123.06 Y109.92 E1.48688
G1 X123.06 Y104.75 E1.57879
G1 X109.94 Y104.75 E1.81201
G1 X109.94 Y109.92 E1.90391
M204 S625
M205 X6 Y6
G0 F4285.7 X110.14 Y109.92
G0 X110.14 Y110.382
G0 X110.14 Y110.41
G0 X104.76 Y112.89
M204 S500
M205 X5 Y5
;TYPE:WALL-INNER
G1 F1200 X104.76 Y102.11 E2.06816
G1 X128.24 Y102.11 E2.42591
G1 X128.24 Y112.89 E2.59016
G1 X104.76 Y112.89 E2.94792
M204 S625
M205 X6 Y6
G0 F4285.7 X104.4 Y113.25
M204 S500
M205 X5 Y5
G1 F1200 X104.4 Y101.75 E3.12314
G1 X128.6 Y101.75 E3.49186
G1 X128.6 Y113.25 E3.66708
G1 X104.4 Y113.25 E4.03581
M204 S625
M205 X6 Y6
G0 F4285.7 X104.01 Y113.64
M204 S500
M205 X5 Y5
;TYPE:WALL-OUTER
G1 F1200 X104.01 Y101.36 E4.2541
G1 X128.99 Y101.36 E4.69814
G1 X128.99 Y113.64 E4.91643
G1 X104.01 Y113.64 E5.36047
M204 S625
M205 X6 Y6
G0 F4285.7 X104.01 Y113.44
G0 X104.472 Y113.178
G0 X105.14 Y112.51
M204 S500
M205 X5 Y5
;TYPE:SKIN
G1 F1200 X105.14 Y102.49 E5.53859
G1 X127.86 Y102.49 E5.94246
G1 X127.86 Y112.51 E6.12057
G1 X105.14 Y112.51 E6.52444
M204 S625
M205 X6 Y6
G0 F4285.7 X108.81 Y111.05
M204 S500
M205 X5 Y5
G1 F1200 X124.19 Y111.05 E6.79784
G1 X124.19 Y103.62 E6.92991
G1 X108.81 Y103.62 E7.20331
G1 X108.81 Y111.05 E7.33538
M204 S625
M205 X6 Y6
G0 F4285.7 X105.797 Y112.33
M204 S500
M205 X5 Y5
G1 F1200 X105.317 Y111.85 E7.34745
M204 S625
M205 X6 Y6
G0 F4285.7 X105.317 Y111.256
M204 S500
M205 X5 Y5
G1 F1200 X106.391 Y112.33 E7.37445
M204 S625
M205 X6 Y6
G0 F4285.7 X106.985 Y112.33
M204 S500
M205 X5 Y5
G1 F1200 X105.317 Y110.662 E7.41638
M204 S625
M205 X6 Y6
G0 F4285.7 X105.317 Y110.068
M204 S500
M205 X5 Y5
G1 F1200 X107.579 Y112.33 E7.47325
M204 S625
M205 X6 Y6
G0 F4285.7 X108.173 Y112.33
M204 S500
M205 X5 Y5
G1 F1200 X105.317 Y109.474 E7.54504
M204 S625
M205 X6 Y6
G0 F4285.7 X105.317 Y108.881
M204 S500
M205 X5 Y5
G1 F1200 X108.767 Y112.33 E7.63176
M204 S625
M205 X6 Y6
G0 F4285.7 X109.361 Y112.33
M204 S500
M205 X5 Y5
G1 F1200 X105.317 Y108.287 E7.73341
M204 S625
M205 X6 Y6
G0 F4285.7 X105.317 Y107.693
M204 S500
M205 X5 Y5
G1 F1200 X108.632 Y111.007 E7.81673
M204 S625
M205 X6 Y6
G0 F4285.7 X108.852 Y111.227
M204 S500
M205 X5 Y5
G1 F1200 X109.955 Y112.33 E7.84446
M204 S625
M205 X6 Y6
G0 F4285.7 X110.549 Y112.33
M204 S500
M205 X5 Y5
G1 F1200 X109.445 Y111.227 E7.8722
M204 S625
M205 X6 Y6
G0 F4285.7 X110.039 Y111.227
M204 S500
M205 X5 Y5
G1 F1200 X111.143 Y112.33 E7.89994
M204 S625
M205 X6 Y6
G0 F4285.7 X111.737 Y112.33
M204 S500
M205 X5 Y5
G1 F1200 X110.633 Y111.227 E7.92768
M204 S625
M205 X6 Y6
G0 F4285.7 X111.227 Y111.227
M204 S500
M205 X5 Y5
G1 F1200 X112.33 Y112.33 E7.95541
M204 S625
M205 X6 Y6
G0 F4285.7 X112.924 Y112.33
M204 S500
M205 X5 Y5
G1 F1200 X111.821 Y111.227 E7.98314
M204 S625
M205 X6 Y6
G0 F4285.7 X112.415 Y111.227
M204 S500
M205 X5 Y5
G1 F1200 X113.518 Y112.33 E8.01087
M204 S625
M205 X6 Y6
G0 F4285.7 X114.112 Y112.33
M204 S500
M205 X5 Y5
G1 F1200 X113.009 Y111.227 E8.0386
M204 S625
M205 X6 Y6
G0 F4285.7 X113.603 Y111.227
M204 S500
M205 X5 Y5
G1 F1200 X114.706 Y112.33 E8.06633
M204 S625
M205 X6 Y6
G0 F4285.7 X115.3 Y112.33
M204 S500
M205 X5 Y5
G1 F1200 X114.197 Y111.227 E8.09405
M204 S625
M205 X6 Y6
G0 F4285.7 X114.791 Y111.227
M204 S500
M205 X5 Y5
G1 F1200 X115.894 Y112.33 E8.12178
M204 S625
M205 X6 Y6
G0 F4285.7 X116.488 Y112.33
M204 S500
M205 X5 Y5
G1 F1200 X115.385 Y111.227 E8.14951
M204 S625
M205 X6 Y6
G0 F4285.7 X115.979 Y111.227
M204 S500
M205 X5 Y5
G1 F1200 X117.082 Y112.33 E8.17724
M204 S625
M205 X6 Y6
G0 F4285.7 X117.676 Y112.33
M204 S500
M205 X5 Y5
G1 F1200 X116.573 Y111.227 E8.20497
M204 S625
M205 X6 Y6
G0 F4285.7 X117.167 Y111.227
M204 S500
M205 X5 Y5
G1 F1200 X118.27 Y112.33 E8.2327
M204 S625
M205 X6 Y6
G0 F4285.7 X118.864 Y112.33
M204 S500
M205 X5 Y5
G1 F1200 X117.761 Y111.227 E8.26042
M204 S625
M205 X6 Y6
G0 F4285.7 X118.355 Y111.227
M204 S500
M205 X5 Y5
G1 F1200 X119.458 Y112.33 E8.28815
M204 S625
M205 X6 Y6
G0 F4285.7 X120.052 Y112.33
M204 S500
M205 X5 Y5
G1 F1200 X118.949 Y111.227 E8.31588
M204 S625
M205 X6 Y6
G0 F4285.7 X119.543 Y111.227
M204 S500
M205 X5 Y5
G1 F1200 X120.646 Y112.33 E8.34361
M204 S625
M205 X6 Y6
G0 F4285.7 X121.24 Y112.33
M204 S500
M205 X5 Y5
G1 F1200 X120.137 Y111.227 E8.37134
M204 S625
M205 X6 Y6
G0 F4285.7 X120.731 Y111.227
M204 S500
M205 X5 Y5
G1 F1200 X121.834 Y112.33 E8.39907
M204 S625
M205 X6 Y6
G0 F4285.7 X122.428 Y112.33
M204 S500
M205 X5 Y5
G1 F1200 X121.325 Y111.227 E8.42679
M204 S625
M205 X6 Y6
G0 F4285.7 X121.919 Y111.227
M204 S500
M205 X5 Y5
G1 F1200 X123.022 Y112.33 E8.45452
M204 S625
M205 X6 Y6
G0 F4285.7 X123.616 Y112.33
M204 S500
M205 X5 Y5
G1 F1200 X122.513 Y111.227 E8.48225
M204 S625
M205 X6 Y6
G0 F4285.7 X123.107 Y111.227
M204 S500
M205 X5 Y5
G1 F1200 X124.21 Y112.33 E8.50998
M204 S625
M205 X6 Y6
G0 F4285.7 X124.804 Y112.33
M204 S500
M205 X5 Y5
G1 F1200 X123.701 Y111.227 E8.53771
M204 S625
M205 X6 Y6
G0 F4285.7 X124.295 Y111.227
M204 S500
M205 X5 Y5
G1 F1200 X125.398 Y112.33 E8.56544
M204 S625
M205 X6 Y6
G0 F4285.7 X125.992 Y112.33
M204 S500
M205 X5 Y5
G1 F1200 X124.366 Y110.705 E8.6063
M204 S625
M205 X6 Y6
G0 F4285.7 X124.366 Y110.111
M204 S500
M205 X5 Y5
G1 F1200 X126.586 Y112.33 E8.6621
M204 S625
M205 X6 Y6
G0 F4285.7 X127.18 Y112.33
M204 S500
M205 X5 Y5
G1 F1200 X124.366 Y109.517 E8.73282
M204 S625
M205 X6 Y6
G0 F4285.7 X124.366 Y108.923
M204 S500
M205 X5 Y5
G1 F1200 X127.681 Y112.238 E8.81616
M204 S625
M205 X6 Y6
G0 F4285.7 X127.681 Y111.644
M204 S500
M205 X5 Y5
G1 F1200 X124.366 Y108.329 E8.8995
M204 S625
M205 X6 Y6
G0 F4285.7 X124.366 Y107.735
M204 S500
M205 X5 Y5
G1 F1200 X127.681 Y111.05 E8.98283
M204 S625
M205 X6 Y6
G0 F4285.7 X127.681 Y110.456
M204 S500
M205 X5 Y5
G1 F1200 X124.366 Y107.141 E9.06617
M204 S625
M205 X6 Y6
G0 F4285.7 X124.366 Y106.547
M204 S500
M205 X5 Y5
G1 F1200 X127.681 Y109.862 E9.1495
M204 S625
M205 X6 Y6
G0 F4285.7 X127.681 Y109.268
M204 S500
M205 X5 Y5
G1 F1200 X124.366 Y105.953 E9.23284
M204 S625
M205 X6 Y6
G0 F4285.7 X124.366 Y105.359
M204 S500
M205 X5 Y5
G1 F1200 X127.681 Y108.674 E9.31618
M204 S625
M205 X6 Y6
G0 F4285.7 X127.681 Y108.08
M204 S500
M205 X5 Y5
G1 F1200 X124.366 Y104.765 E9.39951
M204 S625
M205 X6 Y6
G0 F4285.7 X124.366 Y104.171
M204 S500
M205 X5 Y5
G1 F1200 X127.681 Y107.486 E9.48285
M204 S625
M205 X6 Y6
G0 F4285.7 X127.681 Y106.892
M204 S500
M205 X5 Y5
G1 F1200 X124.366 Y103.577 E9.56618
M204 S625
M205 X6 Y6
G0 F4285.7 X124.23 Y103.441
M204 S500
M205 X5 Y5
G1 F1200 X123.457 Y102.668 E9.58562
M204 S625
M205 X6 Y6
G0 F4285.7 X122.863 Y102.668
M204 S500
M205 X5 Y5
G1 F1200 X123.636 Y103.441 E9.60505
M204 S625
M205 X6 Y6
G0 F4285.7 X123.042 Y103.441
M204 S500
M205 X5 Y5
G1 F1200 X122.269 Y102.668 E9.62448
M204 S625
M205 X6 Y6
G0 F4285.7 X121.675 Y102.668
M204 S500
M205 X5 Y5
G1 F1200 X122.448 Y103.441 E9.64391
M204 S625
M205 X6 Y6
G0 F4285.7 X121.855 Y103.441
M204 S500
M205 X5 Y5
G1 F1200 X121.081 Y102.668 E9.66336
M204 S625
M205 X6 Y6
G0 F4285.7 X120.487 Y102.668
M204 S500
M205 X5 Y5
G1 F1200 X121.261 Y103.441 E9.6828
M204 S625
M205 X6 Y6
G0 F4285.7 X120.667 Y103.441
M204 S500
M205 X5 Y5
G1 F1200 X119.893 Y102.668 E9.70225
M204 S625
M205 X6 Y6
G0 F4285.7 X119.299 Y102.668
M204 S500
M205 X5 Y5
G1 F1200 X120.073 Y103.441 E9.72169
M204 S625
M205 X6 Y6
G0 F4285.7 X119.479 Y103.441
M204 S500
M205 X5 Y5
G1 F1200 X118.705 Y102.668 E9.74114
M204 S625
M205 X6 Y6
G0 F4285.7 X118.111 Y102.668
M204 S500
M205 X5 Y5
G1 F1200 X118.885 Y103.441 E9.76058
M204 S625
M205 X6 Y6
G0 F4285.7 X118.291 Y103.441
M204 S500
M205 X5 Y5
G1 F1200 X117.517 Y102.668 E9.78003
M204 S625
M205 X6 Y6
G0 F4285.7 X116.923 Y102.668
M204 S500
M205 X5 Y5
G1 F1200 X117.697 Y103.441 E9.79947
M204 S625
M205 X6 Y6
G0 F4285.7 X117.103 Y103.441
M204 S500
M205 X5 Y5
G1 F1200 X116.329 Y102.668 E9.81892
M204 S625
M205 X6 Y6
G0 F4285.7 X115.735 Y102.668
M204 S500
M205 X5 Y5
G1 F1200 X116.509 Y103.441 E9.83836
M204 S625
M205 X6 Y6
G0 F4285.7 X115.915 Y103.441
M204 S500
M205 X5 Y5
G1 F1200 X115.141 Y102.668 E9.85781
M204 S625
M205 X6 Y6
G0 F4285.7 X114.547 Y102.668
M204 S500
M205 X5 Y5
G1 F1200 X115.321 Y103.441 E9.87725
M204 S625
M205 X6 Y6
G0 F4285.7 X114.727 Y103.441
M204 S500
M205 X5 Y5
G1 F1200 X113.953 Y102.668 E9.8967
M204 S625
M205 X6 Y6
G0 F4285.7 X113.359 Y102.668
M204 S500
M205 X5 Y5
G1 F1200 X114.133 Y103.441 E9.91614
M204 S625
M205 X6 Y6
G0 F4285.7 X113.539 Y103.441
M204 S500
M205 X5 Y5
G1 F1200 X112.765 Y102.668 E9.93559
M204 S625
M205 X6 Y6
G0 F4285.7 X112.171 Y102.668
M204 S500
M205 X5 Y5
G1 F1200 X112.945 Y103.441 E9.95503
M204 S625
M205 X6 Y6
G0 F4285.7 X112.351 Y103.441
M204 S500
M205 X5 Y5
G1 F1200 X111.577 Y102.668 E9.97448
M204 S625
M205 X6 Y6
G0 F4285.7 X110.983 Y102.668
M204 S500
M205 X5 Y5
G1 F1200 X111.757 Y103.441 E9.99392
M204 S625
M205 X6 Y6
G0 F4285.7 X111.163 Y103.441
M204 S500
M205 X5 Y5
G1 F1200 X110.389 Y102.668 E10.01337
M204 S625
M205 X6 Y6
G0 F4285.7 X109.796 Y102.668
M204 S500
M205 X5 Y5
G1 F1200 X110.569 Y103.441 E10.0328
M204 S625
M205 X6 Y6
G0 F4285.7 X109.975 Y103.441
M204 S500
M205 X5 Y5
G1 F1200 X109.202 Y102.668 E10.05223
M204 S625
M205 X6 Y6
G0 F4285.7 X108.608 Y102.668
M204 S500
M205 X5 Y5
G1 F1200 X109.381 Y103.441 E10.07167
M204 S625
M205 X6 Y6
G0 F4285.7 X108.787 Y103.441
M204 S500
M205 X5 Y5
G1 F1200 X108.014 Y102.668 E10.0911
M204 S625
M205 X6 Y6
G0 F4285.7 X107.42 Y102.668
M204 S500
M205 X5 Y5
G1 F1200 X108.631 Y103.879 E10.12154
M204 S625
M205 X6 Y6
G0 F4285.7 X108.631 Y104.473
M204 S500
M205 X5 Y5
G1 F1200 X106.826 Y102.668 E10.16692
M204 S625
M205 X6 Y6
G0 F4285.7 X106.232 Y102.668
M204 S500
M205 X5 Y5
G1 F1200 X108.631 Y105.067 E10.22723
M204 S625
M205 X6 Y6
G0 F4285.7 X108.631 Y105.661
M204 S500
M205 X5 Y5
G1 F1200 X105.638 Y102.668 E10.30247
M204 S625
M205 X6 Y6
G0 F4285.7 X105.317 Y102.941
M204 S500
M205 X5 Y5
G1 F1200 X108.631 Y106.255 E10.38578
M204 S625
M205 X6 Y6
G0 F4285.7 X108.631 Y106.849
M204 S500
M205 X5 Y5
G1 F1200 X105.317 Y103.535 E10.46909
M204 S625
M205 X6 Y6
G0 F4285.7 X105.317 Y104.129
M204 S500
M205 X5 Y5
G1 F1200 X108.632 Y107.444 E10.55242
M204 S625
M205 X6 Y6
G0 F4285.7 X108.632 Y108.038
M204 S500
M205 X5 Y5
G1 F1200 X105.317 Y104.723 E10.63576
M204 S625
M205 X6 Y6
G0 F4285.7 X105.317 Y105.317
M204 S500
M205 X5 Y5
G1 F1200 X108.632 Y108.632 E10.7191
M204 S625
M205 X6 Y6
G0 F4285.7 X108.632 Y109.226
M204 S500
M205 X5 Y5
G1 F1200 X105.317 Y105.911 E10.80243
M104 S212
M204 S625
M205 X6 Y6
G0 F4285.7 X105.317 Y106.505
M204 S500
M205 X5 Y5
G1 F1200 X108.632 Y109.82 E10.88577
M204 S625
M205 X6 Y6
G0 F4285.7 X108.632 Y110.414
M204 S500
M205 X5 Y5
G1 F1200 X105.317 Y107.099 E10.9691
M204 S625
M205 X6 Y6
G0 F4285.7 X109.522 Y104.332
G0 X124.051 Y102.668
M204 S500
M205 X5 Y5
G1 F1200 X127.681 Y106.298 E11.06036
M204 S625
M205 X6 Y6
G0 F4285.7 X127.681 Y105.704
M204 S500
M205 X5 Y5
G1 F1200 X124.645 Y102.668 E11.13668
M204 S625
M205 X6 Y6
G0 F4285.7 X125.239 Y102.668
M204 S500
M205 X5 Y5
G1 F1200 X127.681 Y105.11 E11.19807
M204 S625
M205 X6 Y6
G0 F4285.7 X127.681 Y104.516
M204 S500
M205 X5 Y5
G1 F1200 X125.833 Y102.668 E11.24453
M204 S625
M205 X6 Y6
G0 F4285.7 X126.427 Y102.668
M204 S500
M205 X5 Y5
G1 F1200 X127.681 Y103.922 E11.27605
M204 S625
M205 X6 Y6
G0 F4285.7 X127.681 Y103.328
M204 S500
M205 X5 Y5
G1 F1200 X127.021 Y102.668 E11.29264
M204 S625
M205 X6 Y6
G0 F4285.7 X127.615 Y102.668
M204 S500
M205 X5 Y5
G1 F1200 X127.681 Y102.734 E11.2943
M204 S625
M205 X6 Y6
;MESH:NONMESH
G0 F4285.7 X123.478 Y110.338
G0 X109.35 Y110.51
;TIME_ELAPSED:46.424853
;LAYER:1
M140 S60
M106 S85
M204 S2812
M205 X18 Y18
;MESH:pulley enclosure test.stl
G0 F9642.9 X109.35 Y110.51 Z0.37
M204 S750
M205 X7.5 Y7.5
;TYPE:WALL-INNER
G1 F1500 X123.65 Y110.51 E11.36155
G1 X123.65 Y104.16 E11.39141
G1 X109.35 Y104.16 E11.45866
G1 X109.35 Y110.51 E11.48852
M204 S2812
M205 X18 Y18
G0 F9642.9 X109.65 Y110.21
M204 S750
M205 X7.5 Y7.5
G1 F1500 X123.35 Y110.21 E11.55295
G1 X123.35 Y104.46 E11.57999
G1 X109.65 Y104.46 E11.64441
G1 X109.65 Y110.21 E11.67145
M204 S2812
M205 X18 Y18
G0 F9642.9 X109.975 Y109.885
M204 S500
M205 X5 Y5
;TYPE:WALL-OUTER
G1 F1200 X123.025 Y109.885 E11.74305
G1 X123.025 Y104.785 E11.77103
G1 X109.975 Y104.785 E11.84263
G1 X109.975 Y109.885 E11.87061
M204 S2812
M205 X18 Y18
G0 F9642.9 X110.175 Y109.885
G0 X110.175 Y110.27
G0 X110.175 Y110.31
G0 X104.6 Y113.05
M204 S750
M205 X7.5 Y7.5
;TYPE:WALL-INNER
G1 F1500 X104.6 Y101.95 E11.92281
G1 X128.4 Y101.95 E12.03473
G1 X128.4 Y113.05 E12.08693
G1 X104.6 Y113.05 E12.19886
M204 S2812
M205 X18 Y18
G0 F9642.9 X104.3 Y113.35
M204 S750
M205 X7.5 Y7.5
G1 F1500 X104.3 Y101.65 E12.25388
G1 X128.7 Y101.65 E12.36862
G1 X128.7 Y113.35 E12.42364
G1 X104.3 Y113.35 E12.53839
M204 S2812
M205 X18 Y18
G0 F9642.9 X103.975 Y113.675
M204 S500
M205 X5 Y5
;TYPE:WALL-OUTER
G1 F1200 X103.975 Y101.325 E12.60614
G1 X129.025 Y101.325 E12.74358
G1 X129.025 Y113.675 E12.81133
G1 X103.975 Y113.675 E12.94877
M204 S2812
M205 X18 Y18
G0 F9642.9 X103.975 Y113.475
G0 X104.36 Y113.29
G0 X104.915 Y112.735
M204 S500
M205 X5 Y5
;TYPE:SKIN
G1 F1500 X104.915 Y102.265 E13.00621
G1 X128.085 Y102.265 E13.13333
G1 X128.085 Y112.735 E13.19077
G1 X104.915 Y112.735 E13.3179
M204 S2812
M205 X18 Y18
G0 F9642.9 X109.035 Y110.825
M204 S500
M205 X5 Y5
G1 F1500 X123.965 Y110.825 E13.39981
G1 X123.965 Y103.845 E13.4381
G1 X109.035 Y103.845 E13.52001
G1 X109.035 Y110.825 E13.55831
M204 S2812
M205 X18 Y18
G0 F9642.9 X105.481 Y102.408
M204 S500
M205 X5 Y5
G1 F1500 X105.057 Y102.831 E13.5616
M204 S2812
M205 X18 Y18
G0 F9642.9 X105.057 Y103.326
M204 S500
M205 X5 Y5
G1 F1500 X105.976 Y102.408 E13.56872
M204 S2812
M205 X18 Y18
G0 F9642.9 X106.471 Y102.408
M204 S500
M205 X5 Y5
G1 F1500 X105.057 Y103.821 E13.57969
M204 S2812
M205 X18 Y18
G0 F9642.9 X105.057 Y104.316
M204 S500
M205 X5 Y5
G1 F1500 X106.966 Y102.408 E13.5945
M204 S2812
M205 X18 Y18
G0 F9642.9 X107.461 Y102.408
M204 S500
M205 X5 Y5
G1 F1500 X105.057 Y104.811 E13.61315
M204 S2812
M205 X18 Y18
G0 F9642.9 X105.057 Y105.306
M204 S500
M205 X5 Y5
G1 F1500 X107.956 Y102.408 E13.63564
M204 S2812
M205 X18 Y18
G0 F9642.9 X108.451 Y102.408
M204 S500
M205 X5 Y5
G1 F1500 X105.057 Y105.801 E13.66197
M204 S2812
M205 X18 Y18
G0 F9642.9 X105.057 Y106.296
M204 S500
M205 X5 Y5
G1 F1500 X108.946 Y102.408 E13.69214
M204 S2812
M205 X18 Y18
G0 F9642.9 X109.441 Y102.408
M204 S500
M205 X5 Y5
G1 F1500 X105.057 Y106.791 E13.72615
M204 S2812
M205 X18 Y18
G0 F9642.9 X105.057 Y107.286
M204 S500
M205 X5 Y5
G1 F1500 X109.936 Y102.408 E13.764
M204 S2812
M205 X18 Y18
G0 F9642.9 X110.43 Y102.408
M204 S500
M205 X5 Y5
G1 F1500 X109.136 Y103.702 E13.77404
M204 S2812
M205 X18 Y18
G0 F9642.9 X108.89 Y103.948
M204 S500
M205 X5 Y5
G1 F1500 X105.057 Y107.781 E13.80378
M204 S2812
M205 X18 Y18
G0 F9642.9 X105.057 Y108.276
M204 S500
M205 X5 Y5
G1 F1500 X108.89 Y104.443 E13.83352
M204 S2812
