;START_OF_HEADER
;HEADER_VERSION:0.1
;FLAVOR:Griffin
;GENERATOR.NAME:Cura_SteamEngine
;GENERATOR.VERSION:4.3.0
;GENERATOR.BUILD_DATE:2019-09-24
;TARGET_MACHINE.NAME:Ultimaker 3
;EXTRUDER_TRAIN.0.INITIAL_TEMPERATURE:217
;EXTRUDER_TRAIN.0.MATERIAL.VOLUME_USED:3243
;EXTRUDER_TRAIN.0.MATERIAL.GUID:44a029e6-e31b-4c9e-a12f-9282e29a92ff
;EXTRUDER_TRAIN.0.NOZZLE.DIAMETER:0.4
;EXTRUDER_TRAIN.0.NOZZLE.NAME:AA 0.4
;BUILD_PLATE.TYPE:glass
;BUILD_PLATE.INITIAL_TEMPERATURE:60
;PRINT.TIME:3081
;PRINT.GROUPS:1
;PRINT.SIZE.MIN.X:9
;PRINT.SIZE.MIN.Y:6
;PRINT.SIZE.MIN.Z:0.27
;PRINT.SIZE.MAX.X:184.834
;PRINT.SIZE.MAX.Y:127.13
;PRINT.SIZE.MAX.Z:5.77
;END_OF_HEADER
;Generated with Cura_SteamEngine 4.3.0
T0
M82 ;absolute extrusion mode

G92 E0
M109 S217
G0 F15000 X9 Y6 Z2
G280
G1 F1500 E-6.5
;LAYER_COUNT:36
;LAYER:0
M107
M204 S625
M205 X6 Y6
G1 F600 Z2.27
G0 F4285.7 X98.74 Y90.065 Z2.27
M204 S500
M205 X5 Y5
;TYPE:SKIRT
G1 F600 Z0.27
G1 F1500 E0
G1 F1200 X99.277 Y89.55 E0.01323
G1 X99.866 Y89.095 E0.02646
G1 X100.5 Y88.706 E0.03968
G1 X101.173 Y88.387 E0.05292
G1 X101.876 Y88.142 E0.06615
G1 X102.601 Y87.974 E0.07938
G1 X103.34 Y87.885 E0.09261
G1 X103.8 Y87.87 E0.10079
G1 X129.2 Y87.87 E0.5523
G1 X129.943 Y87.91 E0.56553
G1 X130.678 Y88.029 E0.57876
G1 X131.396 Y88.227 E0.592
G1 X132.088 Y88.5 E0.60523
G1 X132.747 Y88.846 E0.61846
G1 X133.365 Y89.261 E0.63169
G1 X133.935 Y89.74 E0.64493
G1 X134.45 Y90.277 E0.65815
G1 X134.905 Y90.866 E0.67138
G1 X135.294 Y91.5 E0.6846
G1 X135.613 Y92.173 E0.69784
G1 X135.858 Y92.876 E0.71108
G1 X136.026 Y93.601 E0.72431
G1 X136.115 Y94.34 E0.73754
G1 X136.13 Y94.8 E0.74572
G1 X136.13 Y120.2 E1.19723
G1 X136.09 Y120.943 E1.21046
G1 X135.971 Y121.678 E1.22369
G1 X135.773 Y122.396 E1.23693
G1 X135.5 Y123.088 E1.25015
G1 X135.154 Y123.747 E1.26339
G1 X134.739 Y124.365 E1.27662
G1 X134.26 Y124.935 E1.28985
G1 X133.723 Y125.45 E1.30308
G1 X133.134 Y125.905 E1.31631
G1 X132.5 Y126.294 E1.32953
G1 X131.827 Y126.613 E1.34277
G1 X131.124 Y126.858 E1.356
G1 X130.399 Y127.026 E1.36923
G1 X129.66 Y127.115 E1.38246
G1 X129.2 Y127.13 E1.39065
G1 X103.8 Y127.13 E1.84216
G1 X103.057 Y127.09 E1.85538
G1 X102.322 Y126.971 E1.86862
G1 X101.604 Y126.773 E1.88186
G1 X100.912 Y126.5 E1.89508
G1 X100.253 Y126.154 E1.90831
G1 X99.635 Y125.739 E1.92154
G1 X99.065 Y125.26 E1.93478
G1 X98.55 Y124.723 E1.94801
G1 X98.095 Y124.134 E1.96124
G1 X97.706 Y123.5 E1.97446
G1 X97.387 Y122.827 E1.9877
G1 X97.142 Y122.124 E2.00093
G1 X96.974 Y121.399 E2.01416
G1 X96.885 Y120.66 E2.02739
G1 X96.87 Y120.2 E2.03557
G1 X96.87 Y94.8 E2.48708
G1 X96.91 Y94.057 E2.50031
G1 X97.029 Y93.322 E2.51354
G1 X97.227 Y92.604 E2.52678
G1 X97.5 Y91.912 E2.54001
G1 X97.846 Y91.253 E2.55324
G1 X98.261 Y90.635 E2.56647
G1 X98.74 Y90.065 E2.57971
M204 S625
M205 X6 Y6
G0 F4285.7 X99.154 Y90.24
M204 S500
M205 X5 Y5
G1 F1200 X99.687 Y89.754 E2.59253
G1 X100.271 Y89.33 E2.60536
G1 X100.898 Y88.973 E2.61818
G1 X101.56 Y88.687 E2.631
G1 X102.25 Y88.477 E2.64382
G1 X102.959 Y88.345 E2.65664
G1 X103.8 Y88.29 E2.67162
G1 X129.2 Y88.29 E3.12313
G1 X129.92 Y88.33 E3.13595
G1 X130.632 Y88.449 E3.14878
G1 X131.326 Y88.647 E3.16161
G1 X131.993 Y88.92 E3.17442
G1 X132.627 Y89.265 E3.18725
G1 X133.218 Y89.678 E3.20007
G1 X133.76 Y90.154 E3.21289
G1 X134.246 Y90.687 E3.22572
G1 X134.67 Y91.271 E3.23854
G1 X135.027 Y91.898 E3.25137
G1 X135.313 Y92.56 E3.26419
G1 X135.523 Y93.25 E3.27701
G1 X135.655 Y93.959 E3.28983
G1 X135.71 Y94.8 E3.30481
G1 X135.71 Y120.2 E3.75632
G1 X135.67 Y120.92 E3.76914
G1 X135.551 Y121.632 E3.78197
G1 X135.353 Y122.326 E3.7948
G1 X135.08 Y122.993 E3.80761
G1 X134.735 Y123.627 E3.82044
G1 X134.322 Y124.218 E3.83326
G1 X133.846 Y124.76 E3.84608
G1 X133.313 Y125.246 E3.8589
G1 X132.729 Y125.67 E3.87173
G1 X132.102 Y126.027 E3.88456
G1 X131.44 Y126.313 E3.89738
G1 X130.75 Y126.523 E3.9102
G1 X130.041 Y126.655 E3.92302
G1 X129.2 Y126.71 E3.938
G1 X103.8 Y126.71 E4.38951
G1 X103.08 Y126.67 E4.40233
G1 X102.368 Y126.551 E4.41516
G1 X101.674 Y126.353 E4.42799
G1 X101.007 Y126.08 E4.4408
G1 X100.373 Y125.735 E4.45363
G1 X99.782 Y125.322 E4.46645
G1 X99.24 Y124.846 E4.47927
G1 X98.754 Y124.313 E4.49209
G1 X98.33 Y123.729 E4.50492
G1 X97.973 Y123.102 E4.51774
G1 X97.687 Y122.44 E4.53056
G1 X97.477 Y121.75 E4.54338
G1 X97.345 Y121.041 E4.5562
G1 X97.29 Y120.2 E4.57119
G1 X97.29 Y94.8 E5.0227
G1 X97.33 Y94.08 E5.03551
G1 X97.449 Y93.368 E5.04835
G1 X97.647 Y92.674 E5.06117
G1 X97.92 Y92.007 E5.07399
G1 X98.265 Y91.373 E5.08682
G1 X98.678 Y90.782 E5.09963
G1 X99.154 Y90.24 E5.11246
M204 S625
M205 X6 Y6
G0 F4285.7 X99.568 Y90.421
M204 S500
M205 X5 Y5
G1 F1200 X100.096 Y89.966 E5.12485
G1 X100.673 Y89.574 E5.13725
G1 X101.292 Y89.251 E5.14966
G1 X101.943 Y89 E5.16206
G1 X102.619 Y88.826 E5.17447
G1 X103.31 Y88.73 E5.18687
G1 X103.8 Y88.71 E5.19559
G1 X129.2 Y88.71 E5.6471
G1 X129.897 Y88.75 E5.65951
G1 X130.584 Y88.869 E5.6719
G1 X131.253 Y89.067 E5.6843
G1 X131.896 Y89.339 E5.69671
G1 X132.502 Y89.683 E5.7091
G1 X133.066 Y90.095 E5.72152
G1 X133.579 Y90.568 E5.73392
G1 X134.034 Y91.096 E5.74631
G1 X134.426 Y91.673 E5.75871
G1 X134.749 Y92.292 E5.77112
G1 X135 Y92.943 E5.78352
G1 X135.174 Y93.619 E5.79593
G1 X135.27 Y94.31 E5.80833
G1 X135.29 Y94.8 E5.81705
G1 X135.29 Y120.2 E6.26856
G1 X135.25 Y120.897 E6.28097
G1 X135.131 Y121.584 E6.29336
G1 X134.933 Y122.253 E6.30577
G1 X134.661 Y122.896 E6.31818
G1 X134.317 Y123.502 E6.33056
G1 X133.905 Y124.066 E6.34298
G1 X133.432 Y124.579 E6.35538
G1 X132.904 Y125.034 E6.36777
G1 X132.327 Y125.426 E6.38017
G1 X131.708 Y125.749 E6.39258
G1 X131.057 Y126 E6.40499
G1 X130.381 Y126.174 E6.41739
G1 X129.69 Y126.27 E6.42979
G1 X129.2 Y126.29 E6.43851
G1 X103.8 Y126.29 E6.89002
G1 X103.103 Y126.25 E6.90243
G1 X102.416 Y126.131 E6.91483
G1 X101.747 Y125.933 E6.92723
G1 X101.104 Y125.661 E6.93964
G1 X100.498 Y125.317 E6.95203
G1 X99.934 Y124.905 E6.96444
G1 X99.421 Y124.432 E6.97685
G1 X98.966 Y123.904 E6.98924
G1 X98.574 Y123.327 E7.00163
G1 X98.251 Y122.708 E7.01405
G1 X98 Y122.057 E7.02645
G1 X97.826 Y121.381 E7.03886
G1 X97.73 Y120.69 E7.05126
G1 X97.71 Y120.2 E7.05998
G1 X97.71 Y94.8 E7.51149
G1 X97.75 Y94.103 E7.5239
G1 X97.869 Y93.416 E7.53629
G1 X98.067 Y92.747 E7.54869
G1 X98.339 Y92.104 E7.5611
G1 X98.683 Y91.498 E7.57349
G1 X99.095 Y90.934 E7.5859
G1 X99.568 Y90.421 E7.59831
M204 S625
M205 X6 Y6
G0 F4285.7 X99.51 Y91.092
M204 S500
M205 X5 Y5
G1 F1200 X99.98 Y90.61 E7.61028
G1 X100.504 Y90.187 E7.62225
G1 X101.074 Y89.828 E7.63422
G1 X101.682 Y89.54 E7.64618
G1 X102.32 Y89.326 E7.65814
G1 X102.98 Y89.19 E7.67012
G1 X103.8 Y89.13 E7.68474
G1 X129.2 Y89.13 E8.13625
G1 X129.872 Y89.17 E8.14821
G1 X130.535 Y89.289 E8.16019
G1 X131.178 Y89.486 E8.17214
G1 X131.794 Y89.758 E8.18411
G1 X132.373 Y90.101 E8.19607
G1 X132.908 Y90.51 E8.20804
G1 X133.39 Y90.98 E8.22001
G1 X133.813 Y91.504 E8.23198
G1 X134.172 Y92.074 E8.24396
G1 X134.46 Y92.682 E8.25592
G1 X134.674 Y93.32 E8.26788
G1 X134.81 Y93.98 E8.27986
G1 X134.87 Y94.8 E8.29447
G1 X134.87 Y120.2 E8.74598
G1 X134.83 Y120.872 E8.75795
G1 X134.711 Y121.535 E8.76992
G1 X134.514 Y122.178 E8.78188
G1 X134.242 Y122.794 E8.79385
G1 X133.899 Y123.373 E8.80581
G1 X133.49 Y123.908 E8.81778
G1 X133.02 Y124.39 E8.82975
G1 X132.496 Y124.813 E8.84172
G1 X131.926 Y125.172 E8.85369
G1 X131.318 Y125.46 E8.86565
G1 X130.68 Y125.674 E8.87761
G1 X130.02 Y125.81 E8.88959
G1 X129.2 Y125.87 E8.90421
G1 X103.8 Y125.87 E9.35572
G1 X103.128 Y125.83 E9.36768
G1 X102.465 Y125.711 E9.37966
G1 X101.822 Y125.514 E9.39161
G1 X101.206 Y125.242 E9.40358
G1 X100.627 Y124.899 E9.41554
G1 X100.092 Y124.49 E9.42751
G1 X99.61 Y124.02 E9.43948
G1 X99.187 Y123.496 E9.45145
G1 X98.828 Y122.926 E9.46343
G1 X98.54 Y122.318 E9.47539
G1 X98.326 Y121.68 E9.48735
G1 X98.19 Y121.02 E9.49933
G1 X98.13 Y120.2 E9.51394
G1 X98.13 Y94.8 E9.96545
G1 X98.17 Y94.128 E9.97742
G1 X98.289 Y93.465 E9.98939
G1 X98.486 Y92.822 E10.00135
G1 X98.758 Y92.206 E10.01332
G1 X99.101 Y91.627 E10.02528
G1 X99.51 Y91.092 E10.03725
M204 S625
M205 X6 Y6
G0 F4285.7 X99.926 Y91.257
M204 S500
M205 X5 Y5
G1 F1200 X100.392 Y90.807 E10.04877
G1 X100.909 Y90.418 E10.06027
G1 X101.471 Y90.095 E10.07179
G1 X102.068 Y89.844 E10.0833
G1 X102.692 Y89.668 E10.09483
G1 X103.332 Y89.571 E10.10633
G1 X103.8 Y89.55 E10.11466
G1 X129.2 Y89.55 E10.56617
G1 X129.847 Y89.59 E10.57769
G1 X130.483 Y89.709 E10.5892
G1 X131.1 Y89.906 E10.60071
G1 X131.689 Y90.177 E10.61223
G1 X132.239 Y90.519 E10.62375
G1 X132.743 Y90.926 E10.63526
G1 X133.193 Y91.392 E10.64678
G1 X133.582 Y91.909 E10.65828
G1 X133.905 Y92.471 E10.6698
G1 X134.156 Y93.068 E10.68131
G1 X134.332 Y93.692 E10.69284
G1 X134.429 Y94.332 E10.70434
G1 X134.45 Y94.8 E10.71267
G1 X134.45 Y120.2 E11.16418
G1 X134.41 Y120.847 E11.1757
G1 X134.291 Y121.483 E11.18721
G1 X134.094 Y122.1 E11.19872
G1 X133.823 Y122.689 E11.21024
G1 X133.481 Y123.239 E11.22176
G1 X133.074 Y123.743 E11.23327
G1 X132.608 Y124.193 E11.24479
G1 X132.091 Y124.582 E11.25629
G1 X131.529 Y124.905 E11.26781
G1 X130.932 Y125.156 E11.27932
G1 X130.308 Y125.332 E11.29085
G1 X129.668 Y125.429 E11.30236
G1 X129.2 Y125.45 E11.31068
G1 X103.8 Y125.45 E11.76219
G1 X103.153 Y125.41 E11.77372
G1 X102.517 Y125.291 E11.78522
G1 X101.9 Y125.094 E11.79673
G1 X101.311 Y124.823 E11.80826
G1 X100.761 Y124.481 E11.81977
G1 X100.257 Y124.074 E11.83128
G1 X99.807 Y123.608 E11.8428
G1 X99.418 Y123.091 E11.8543
G1 X99.095 Y122.529 E11.86582
G1 X98.844 Y121.932 E11.87734
G1 X98.668 Y121.308 E11.88886
G1 X98.571 Y120.668 E11.90037
G1 X98.55 Y120.2 E11.90869
G1 X98.55 Y94.8 E12.3602
G1 X98.59 Y94.153 E12.37173
G1 X98.709 Y93.517 E12.38323
G1 X98.906 Y92.9 E12.39474
G1 X99.177 Y92.311 E12.40627
G1 X99.519 Y91.761 E12.41778
G1 X99.926 Y91.257 E12.4293
M204 S625
M205 X6 Y6
G0 F4285.7 X100.34 Y91.43
M204 S500
M205 X5 Y5
G1 F1200 X100.802 Y91.013 E12.44036
G1 X101.312 Y90.66 E12.45138
G1 X101.864 Y90.375 E12.46243
G1 X102.449 Y90.163 E12.47349
G1 X103.055 Y90.028 E12.48452
G1 X103.8 Y89.97 E12.49781
G1 X129.2 Y89.97 E12.94932
G1 X129.82 Y90.01 E12.96036
G1 X130.43 Y90.129 E12.97141
G1 X131.019 Y90.326 E12.98245
G1 X131.578 Y90.596 E12.99348
G1 X132.098 Y90.936 E13.00453
G1 X132.57 Y91.34 E13.01557
G1 X132.987 Y91.802 E13.02664
G1 X133.34 Y92.312 E13.03766
G1 X133.625 Y92.864 E13.0487
G1 X133.837 Y93.449 E13.05977
G1 X133.972 Y94.055 E13.0708
G1 X134.03 Y94.8 E13.08408
G1 X134.03 Y120.2 E13.53559
G1 X133.99 Y120.82 E13.54664
G1 X133.871 Y121.43 E13.55769
G1 X133.674 Y122.019 E13.56873
G1 X133.404 Y122.578 E13.57976
G1 X133.064 Y123.098 E13.59081
G1 X132.66 Y123.57 E13.60185
G1 X132.198 Y123.987 E13.61291
G1 X131.688 Y124.34 E13.62394
G1 X131.136 Y124.625 E13.63498
G1 X130.551 Y124.837 E13.64604
G1 X129.945 Y124.972 E13.65708
G1 X129.2 Y125.03 E13.67036
G1 X103.8 Y125.03 E14.12187
G1 X103.18 Y124.99 E14.13292
G1 X102.57 Y124.871 E14.14396
G1 X101.981 Y124.674 E14.155
G1 X101.422 Y124.404 E14.16604
G1 X100.902 Y124.064 E14.17708
G1 X100.43 Y123.66 E14.18813
G1 X100.013 Y123.198 E14.19919
G1 X99.66 Y122.688 E14.21021
G1 X99.375 Y122.136 E14.22126
G1 X99.163 Y121.551 E14.23232
G1 X99.028 Y120.945 E14.24335
G1 X98.97 Y120.2 E14.25664
G1 X98.97 Y94.8 E14.70815
G1 X99.01 Y94.18 E14.71919
G1 X99.129 Y93.57 E14.73024
G1 X99.326 Y92.981 E14.74128
G1 X99.596 Y92.422 E14.75231
G1 X99.936 Y91.902 E14.76336
G1 X100.34 Y91.43 E14.7744
M204 S625
M205 X6 Y6
G0 F4285.7 X100.754 Y91.611
M204 S500
M205 X5 Y5
G1 F1200 X101.21 Y91.231 E14.78495
G1 X101.713 Y90.915 E14.79551
G1 X102.253 Y90.67 E14.80605
G1 X102.822 Y90.5 E14.81661
G1 X103.408 Y90.407 E14.82716
G1 X103.8 Y90.39 E14.83413
G1 X129.2 Y90.39 E15.28564
G1 X129.792 Y90.43 E15.29619
G1 X130.374 Y90.549 E15.30675
G1 X130.934 Y90.745 E15.3173
G1 X131.463 Y91.015 E15.32785
G1 X131.951 Y91.353 E15.33841
G1 X132.389 Y91.754 E15.34896
G1 X132.769 Y92.21 E15.35951
G1 X133.085 Y92.713 E15.37007
G1 X133.33 Y93.253 E15.38061
G1 X133.5 Y93.822 E15.39117
G1 X133.593 Y94.408 E15.40172
G1 X133.61 Y94.8 E15.40869
G1 X133.61 Y120.2 E15.8602
G1 X133.57 Y120.792 E15.87075
G1 X133.451 Y121.374 E15.88131
G1 X133.255 Y121.934 E15.89186
G1 X132.985 Y122.463 E15.90241
G1 X132.647 Y122.951 E15.91296
G1 X132.246 Y123.389 E15.92352
G1 X131.79 Y123.769 E15.93407
G1 X131.287 Y124.085 E15.94463
G1 X130.747 Y124.33 E15.95517
G1 X130.178 Y124.5 E15.96573
G1 X129.592 Y124.593 E15.97628
G1 X129.2 Y124.61 E15.98325
G1 X103.8 Y124.61 E16.43476
G1 X103.208 Y124.57 E16.44531
G1 X102.626 Y124.451 E16.45587
G1 X102.066 Y124.255 E16.46641
G1 X101.537 Y123.985 E16.47697
G1 X101.049 Y123.647 E16.48752
G1 X100.611 Y123.246 E16.49808
G1 X100.231 Y122.79 E16.50863
G1 X99.915 Y122.287 E16.51919
G1 X99.67 Y121.747 E16.52973
G1 X99.5 Y121.178 E16.54029
G1 X99.407 Y120.592 E16.55083
G1 X99.39 Y120.2 E16.55781
G1 X99.39 Y94.8 E17.00932
G1 X99.43 Y94.208 E17.01987
G1 X99.549 Y93.626 E17.03043
G1 X99.745 Y93.066 E17.04097
G1 X100.015 Y92.537 E17.05153
G1 X100.353 Y92.049 E17.06208
G1 X100.754 Y91.611 E17.07264
M204 S625
M205 X6 Y6
G0 F4285.7 X100.769 Y92.205
M204 S500
M205 X5 Y5
G1 F1200 X101.166 Y91.803 E17.08268
G1 X101.615 Y91.461 E17.09272
G1 X102.109 Y91.186 E17.10277
G1 X102.636 Y90.984 E17.1128
G1 X103.186 Y90.858 E17.12283
G1 X103.8 Y90.81 E17.13378
G1 X129.2 Y90.81 E17.58529
G1 X129.763 Y90.85 E17.59532
G1 X130.315 Y90.969 E17.60536
G1 X130.845 Y91.165 E17.6154
G1 X131.341 Y91.433 E17.62542
G1 X131.795 Y91.769 E17.63546
G1 X132.197 Y92.166 E17.64551
G1 X132.539 Y92.615 E17.65554
G1 X132.814 Y93.109 E17.66559
G1 X133.016 Y93.636 E17.67562
G1 X133.142 Y94.186 E17.68565
G1 X133.19 Y94.8 E17.6966
G1 X133.19 Y120.2 E18.14811
G1 X133.15 Y120.763 E18.15814
G1 X133.031 Y121.315 E18.16818
G1 X132.835 Y121.845 E18.17823
G1 X132.567 Y122.341 E18.18825
G1 X132.231 Y122.795 E18.19829
G1 X131.834 Y123.197 E18.20833
G1 X131.385 Y123.539 E18.21836
G1 X130.891 Y123.814 E18.22841
G1 X130.364 Y124.016 E18.23845
G1 X129.814 Y124.142 E18.24848
G1 X129.2 Y124.19 E18.25942
G1 X103.8 Y124.19 E18.71093
G1 X103.237 Y124.15 E18.72097
G1 X102.685 Y124.031 E18.731
G1 X102.155 Y123.835 E18.74105
G1 X101.659 Y123.567 E18.75107
G1 X101.205 Y123.231 E18.76111
G1 X100.803 Y122.834 E18.77115
G1 X100.461 Y122.385 E18.78119
G1 X100.186 Y121.891 E18.79124
G1 X99.984 Y121.364 E18.80127
G1 X99.858 Y120.814 E18.8113
G1 X99.81 Y120.2 E18.82225
G1 X99.81 Y94.8 E19.27376
G1 X99.85 Y94.237 E19.28379
G1 X99.969 Y93.685 E19.29383
G1 X100.165 Y93.155 E19.30387
G1 X100.433 Y92.659 E19.3139
G1 X100.769 Y92.205 E19.32394
M204 S625
M205 X6 Y6
G0 F4285.7 X101.185 Y92.37
M204 S500
M205 X5 Y5
G1 F1200 X101.576 Y92.007 E19.33342
G1 X102.018 Y91.707 E19.34292
G1 X102.499 Y91.475 E19.35241
G1 X103.01 Y91.319 E19.36191
G1 X103.8 Y91.23 E19.37604
G1 X129.2 Y91.23 E19.82755
G1 X129.733 Y91.27 E19.83705
G1 X130.253 Y91.389 E19.84653
G1 X130.75 Y91.584 E19.85602
G1 X131.213 Y91.851 E19.86552
G1 X131.63 Y92.185 E19.87502
G1 X131.993 Y92.576 E19.8845
G1 X132.293 Y93.018 E19.894
G1 X132.525 Y93.499 E19.90349
G1 X132.681 Y94.01 E19.91299
G1 X132.77 Y94.8 E19.92712
G1 X132.77 Y120.2 E20.37863
G1 X132.73 Y120.733 E20.38813
G1 X132.611 Y121.253 E20.39761
G1 X132.416 Y121.75 E20.4071
G1 X132.149 Y122.213 E20.41661
G1 X131.815 Y122.63 E20.4261
G1 X131.424 Y122.993 E20.43559
G1 X130.982 Y123.293 E20.44508
G1 X130.501 Y123.525 E20.45458
G1 X129.99 Y123.681 E20.46407
G1 X129.2 Y123.77 E20.4782
G1 X103.8 Y123.77 E20.92971
G1 X103.267 Y123.73 E20.93922
G1 X102.747 Y123.611 E20.9487
G1 X102.25 Y123.416 E20.95819
G1 X101.787 Y123.149 E20.96769
G1 X101.37 Y122.815 E20.97719
G1 X101.007 Y122.424 E20.98667
G1 X100.707 Y121.982 E20.99617
G1 X100.475 Y121.501 E21.00566
G1 X100.319 Y120.99 E21.01516
G1 X100.23 Y120.2 E21.02929
G1 X100.23 Y94.8 E21.4808
G1 X100.27 Y94.267 E21.4903
G1 X100.389 Y93.747 E21.49978
G1 X100.584 Y93.25 E21.50927
G1 X100.851 Y92.787 E21.51877
G1 X101.185 Y92.37 E21.52827
M204 S625
M205 X6 Y6
G0 F4285.7 X101.599 Y92.547
M204 S500
M205 X5 Y5
G1 F1200 X101.984 Y92.226 E21.53718
G1 X102.416 Y91.97 E21.54611
G1 X102.883 Y91.787 E21.55502
G1 X103.372 Y91.679 E21.56392
G1 X103.8 Y91.65 E21.57155
G1 X129.2 Y91.65 E22.02306
