;START_OF_HEADER
;HEADER_VERSION:0.1
;FLAVOR:Griffin
;GENERATOR.NAME:Cura_SteamEngine
;GENERATOR.VERSION:4.1.0
;GENERATOR.BUILD_DATE:2019-05-28
;TARGET_MACHINE.NAME:Ultimaker 3
;EXTRUDER_TRAIN.0.INITIAL_TEMPERATURE:217
;EXTRUDER_TRAIN.0.MATERIAL.VOLUME_USED:2620
;EXTRUDER_TRAIN.0.MATERIAL.GUID:44a029e6-e31b-4c9e-a12f-9282e29a92ff
;EXTRUDER_TRAIN.0.NOZZLE.DIAMETER:0.4
;EXTRUDER_TRAIN.0.NOZZLE.NAME:AA 0.4
;BUILD_PLATE.TYPE:glass
;BUILD_PLATE.INITIAL_TEMPERATURE:60
;BUILD_VOLUME.TEMPERATURE:35
;PRINT.TIME:2853
;PRINT.GROUPS:1
;PRINT.SIZE.MIN.X:9
;PRINT.SIZE.MIN.Y:6
;PRINT.SIZE.MIN.Z:0.27
;PRINT.SIZE.MAX.X:129.78
;PRINT.SIZE.MAX.Y:136.655
;PRINT.SIZE.MAX.Z:8.27
;END_OF_HEADER
;Generated with Cura_SteamEngine 4.1.0
T0
M82 ;absolute extrusion mode

G92 E0
M109 S217
G0 F15000 X9 Y6 Z2
G280
G1 F1500 E-6.5
;LAYER_COUNT:61
;LAYER:0
M107
M204 S625
M205 X6 Y6
G0 F4285.7 X104.611 Y81.233 Z0.27
M204 S500
M205 X5 Y5
;TYPE:SKIRT
G1 F1500 E0
G1 F1200 X105.25 Y80.498 E0.01731
G1 X105.373 Y80.375 E0.0204
G1 X105.927 Y79.877 E0.03365
G1 X106.531 Y79.442 E0.04688
G1 X107.178 Y79.075 E0.0601
G1 X107.86 Y78.778 E0.07332
G1 X108.571 Y78.557 E0.08656
G1 X109.301 Y78.413 E0.09979
G1 X110.273 Y78.345 E0.11711
G1 X122.727 Y78.345 E0.33849
G1 X123.47 Y78.385 E0.35171
G1 X124.205 Y78.504 E0.36495
G1 X124.923 Y78.702 E0.37819
G1 X125.615 Y78.975 E0.39141
G1 X126.274 Y79.321 E0.40464
G1 X126.892 Y79.736 E0.41788
G1 X127.627 Y80.375 E0.43519
G1 X127.75 Y80.498 E0.43828
G1 X128.248 Y81.052 E0.45152
G1 X128.683 Y81.656 E0.46475
G1 X129.05 Y82.303 E0.47798
G1 X129.347 Y82.985 E0.4912
G1 X129.568 Y83.696 E0.50443
G1 X129.712 Y84.426 E0.51766
G1 X129.78 Y85.398 E0.53498
G1 X129.78 Y129.602 E1.32075
G1 X129.74 Y130.345 E1.33398
G1 X129.621 Y131.08 E1.34721
G1 X129.423 Y131.798 E1.36045
G1 X129.15 Y132.49 E1.37368
G1 X128.804 Y133.149 E1.38691
G1 X128.389 Y133.767 E1.40014
G1 X127.75 Y134.502 E1.41745
G1 X127.627 Y134.625 E1.42054
G1 X127.073 Y135.123 E1.43379
G1 X126.469 Y135.558 E1.44702
G1 X125.822 Y135.925 E1.46024
G1 X125.14 Y136.222 E1.47346
G1 X124.429 Y136.443 E1.4867
G1 X123.699 Y136.587 E1.49992
G1 X122.727 Y136.655 E1.51725
G1 X110.273 Y136.655 E1.73863
G1 X109.53 Y136.615 E1.75185
G1 X108.795 Y136.496 E1.76509
G1 X108.077 Y136.298 E1.77833
G1 X107.385 Y136.025 E1.79155
G1 X106.726 Y135.679 E1.80478
G1 X106.108 Y135.264 E1.81802
G1 X105.373 Y134.625 E1.83533
G1 X105.25 Y134.502 E1.83842
G1 X104.752 Y133.948 E1.85166
G1 X104.317 Y133.344 E1.86489
G1 X103.95 Y132.697 E1.87812
G1 X103.653 Y132.015 E1.89134
G1 X103.432 Y131.304 E1.90457
G1 X103.288 Y130.574 E1.9178
G1 X103.22 Y129.602 E1.93512
G1 X103.22 Y85.398 E2.72089
G1 X103.26 Y84.655 E2.73412
G1 X103.379 Y83.92 E2.74735
G1 X103.577 Y83.202 E2.76059
G1 X103.85 Y82.51 E2.77382
G1 X104.196 Y81.851 E2.78705
G1 X104.611 Y81.233 E2.80028
M204 S625
M205 X6 Y6
G0 F4285.7 X105.028 Y81.38
M204 S500
M205 X5 Y5
G1 F1200 X105.547 Y80.795 E2.81418
G1 X105.67 Y80.672 E2.81727
G1 X106.207 Y80.191 E2.83009
G1 X106.795 Y79.772 E2.84292
G1 X107.425 Y79.421 E2.85574
G1 X108.09 Y79.142 E2.86856
G1 X108.782 Y78.938 E2.88139
G1 X109.492 Y78.812 E2.8942
G1 X110.273 Y78.765 E2.90811
G1 X122.727 Y78.765 E3.12949
G1 X123.447 Y78.805 E3.14231
G1 X124.159 Y78.924 E3.15515
G1 X124.853 Y79.122 E3.16797
G1 X125.52 Y79.395 E3.18079
G1 X126.154 Y79.74 E3.19362
G1 X126.745 Y80.153 E3.20643
G1 X127.33 Y80.672 E3.22033
G1 X127.453 Y80.795 E3.22343
G1 X127.934 Y81.332 E3.23624
G1 X128.353 Y81.92 E3.24908
G1 X128.704 Y82.55 E3.2619
G1 X128.983 Y83.215 E3.27471
G1 X129.187 Y83.907 E3.28754
G1 X129.313 Y84.617 E3.30036
G1 X129.36 Y85.398 E3.31427
G1 X129.36 Y129.602 E4.10003
G1 X129.32 Y130.322 E4.11285
G1 X129.201 Y131.034 E4.12568
G1 X129.003 Y131.728 E4.13851
G1 X128.73 Y132.395 E4.15132
G1 X128.385 Y133.029 E4.16416
G1 X127.972 Y133.62 E4.17697
G1 X127.453 Y134.205 E4.19087
G1 X127.33 Y134.328 E4.19397
G1 X126.793 Y134.809 E4.20678
G1 X126.205 Y135.228 E4.21962
G1 X125.575 Y135.579 E4.23243
G1 X124.91 Y135.858 E4.24525
G1 X124.218 Y136.062 E4.25808
G1 X123.508 Y136.188 E4.2709
G1 X122.727 Y136.235 E4.2848
G1 X110.273 Y136.235 E4.50619
G1 X109.553 Y136.195 E4.51901
G1 X108.841 Y136.076 E4.53184
G1 X108.147 Y135.878 E4.54467
G1 X107.48 Y135.605 E4.55748
G1 X106.846 Y135.26 E4.57031
G1 X106.255 Y134.847 E4.58312
G1 X105.67 Y134.328 E4.59703
G1 X105.547 Y134.205 E4.60012
G1 X105.066 Y133.668 E4.61293
G1 X104.647 Y133.08 E4.62577
G1 X104.296 Y132.45 E4.63859
G1 X104.017 Y131.785 E4.65141
G1 X103.813 Y131.093 E4.66423
G1 X103.687 Y130.383 E4.67705
G1 X103.64 Y129.602 E4.69096
G1 X103.64 Y85.398 E5.47673
G1 X103.68 Y84.678 E5.48954
G1 X103.799 Y83.966 E5.50238
G1 X103.997 Y83.272 E5.51521
G1 X104.27 Y82.605 E5.52802
G1 X104.615 Y81.971 E5.54085
G1 X105.028 Y81.38 E5.55366
M204 S625
M205 X6 Y6
G0 F4285.7 X105.445 Y81.532
M204 S500
M205 X5 Y5
G1 F1200 X105.844 Y81.092 E5.56422
G1 X105.967 Y80.969 E5.56731
G1 X106.488 Y80.504 E5.57973
G1 X107.058 Y80.103 E5.59212
G1 X107.671 Y79.769 E5.60453
G1 X108.318 Y79.507 E5.61693
G1 X108.99 Y79.322 E5.62932
G1 X109.679 Y79.214 E5.64172
G1 X110.273 Y79.185 E5.65229
G1 X122.727 Y79.185 E5.87367
G1 X123.424 Y79.225 E5.88608
G1 X124.111 Y79.344 E5.89848
G1 X124.78 Y79.542 E5.91088
G1 X125.423 Y79.814 E5.92329
G1 X126.029 Y80.158 E5.93568
G1 X126.593 Y80.57 E5.94809
G1 X127.033 Y80.969 E5.95865
G1 X127.156 Y81.092 E5.96174
G1 X127.621 Y81.613 E5.97416
G1 X128.022 Y82.183 E5.98655
G1 X128.356 Y82.796 E5.99896
G1 X128.618 Y83.443 E6.01136
G1 X128.803 Y84.115 E6.02375
G1 X128.911 Y84.804 E6.03615
G1 X128.94 Y85.398 E6.04672
G1 X128.94 Y129.602 E6.83249
G1 X128.9 Y130.299 E6.8449
G1 X128.781 Y130.986 E6.8573
G1 X128.583 Y131.655 E6.8697
G1 X128.311 Y132.298 E6.88211
G1 X127.967 Y132.904 E6.8945
G1 X127.555 Y133.468 E6.90691
G1 X127.156 Y133.908 E6.91747
G1 X127.033 Y134.031 E6.92056
G1 X126.512 Y134.496 E6.93298
G1 X125.942 Y134.897 E6.94536
G1 X125.329 Y135.231 E6.95777
G1 X124.682 Y135.493 E6.97018
G1 X124.01 Y135.678 E6.98257
G1 X123.321 Y135.786 E6.99497
G1 X122.727 Y135.815 E7.00554
G1 X110.273 Y135.815 E7.22692
G1 X109.576 Y135.775 E7.23933
G1 X108.889 Y135.656 E7.25173
G1 X108.22 Y135.458 E7.26413
G1 X107.577 Y135.186 E7.27654
G1 X106.971 Y134.842 E7.28893
G1 X106.407 Y134.43 E7.30134
G1 X105.967 Y134.031 E7.3119
G1 X105.844 Y133.908 E7.31499
G1 X105.379 Y133.387 E7.3274
G1 X104.978 Y132.817 E7.33979
G1 X104.644 Y132.204 E7.3522
G1 X104.382 Y131.557 E7.36461
G1 X104.197 Y130.885 E7.377
G1 X104.089 Y130.196 E7.3894
G1 X104.06 Y129.602 E7.39997
G1 X104.06 Y85.398 E8.18574
G1 X104.1 Y84.701 E8.19815
G1 X104.219 Y84.014 E8.21054
G1 X104.417 Y83.345 E8.22294
G1 X104.689 Y82.702 E8.23536
G1 X105.033 Y82.096 E8.24774
G1 X105.445 Y81.532 E8.26016
M204 S625
M205 X6 Y6
G0 F4285.7 X105.451 Y82.225
M204 S500
M205 X5 Y5
G1 F1200 X105.86 Y81.69 E8.27213
G1 X106.141 Y81.389 E8.27945
G1 X106.264 Y81.266 E8.28254
G1 X106.767 Y80.819 E8.2945
G1 X107.32 Y80.435 E8.30647
G1 X107.915 Y80.119 E8.31845
G1 X108.542 Y79.876 E8.3304
G1 X109.194 Y79.709 E8.34236
G1 X109.862 Y79.62 E8.35434
G1 X110.273 Y79.605 E8.36165
G1 X122.727 Y79.605 E8.58304
G1 X123.399 Y79.645 E8.595
G1 X124.062 Y79.764 E8.60698
G1 X124.705 Y79.961 E8.61893
G1 X125.321 Y80.233 E8.6309
G1 X125.9 Y80.576 E8.64286
G1 X126.435 Y80.985 E8.65483
G1 X126.736 Y81.266 E8.66215
G1 X126.859 Y81.389 E8.66525
G1 X127.306 Y81.892 E8.67721
G1 X127.69 Y82.445 E8.68917
G1 X128.006 Y83.04 E8.70115
G1 X128.249 Y83.667 E8.7131
G1 X128.416 Y84.319 E8.72507
G1 X128.505 Y84.987 E8.73705
G1 X128.52 Y85.398 E8.74436
G1 X128.52 Y129.602 E9.53013
G1 X128.48 Y130.274 E9.54209
G1 X128.361 Y130.937 E9.55407
G1 X128.164 Y131.58 E9.56602
G1 X127.892 Y132.196 E9.57799
G1 X127.549 Y132.775 E9.58995
G1 X127.14 Y133.31 E9.60193
G1 X126.859 Y133.611 E9.60925
G1 X126.736 Y133.734 E9.61234
G1 X126.233 Y134.181 E9.6243
G1 X125.68 Y134.565 E9.63627
G1 X125.085 Y134.881 E9.64824
G1 X124.458 Y135.124 E9.6602
G1 X123.806 Y135.291 E9.67216
G1 X123.138 Y135.38 E9.68414
G1 X122.727 Y135.395 E9.69145
G1 X110.273 Y135.395 E9.91283
G1 X109.601 Y135.355 E9.9248
G1 X108.938 Y135.236 E9.93677
G1 X108.295 Y135.039 E9.94873
G1 X107.679 Y134.767 E9.9607
G1 X107.1 Y134.424 E9.97266
G1 X106.565 Y134.015 E9.98463
G1 X106.264 Y133.734 E9.99195
G1 X106.141 Y133.611 E9.99504
G1 X105.694 Y133.108 E10.007
G1 X105.31 Y132.555 E10.01897
G1 X104.994 Y131.96 E10.03095
G1 X104.751 Y131.333 E10.0429
G1 X104.584 Y130.681 E10.05487
G1 X104.495 Y130.013 E10.06684
G1 X104.48 Y129.602 E10.07416
G1 X104.48 Y85.398 E10.85992
G1 X104.52 Y84.726 E10.87189
G1 X104.639 Y84.063 E10.88386
G1 X104.836 Y83.42 E10.89582
G1 X105.108 Y82.804 E10.90779
G1 X105.451 Y82.225 E10.91975
M204 S625
M205 X6 Y6
G0 F4285.7 X105.869 Y82.359
M204 S500
M205 X5 Y5
G1 F1200 X106.438 Y81.686 E10.93542
G1 X106.561 Y81.563 E10.93851
G1 X107.046 Y81.134 E10.95002
G1 X107.581 Y80.768 E10.96154
G1 X108.156 Y80.471 E10.97305
G1 X108.764 Y80.247 E10.98456
G1 X109.395 Y80.099 E10.99609
G1 X110.273 Y80.025 E11.01175
G1 X122.727 Y80.025 E11.23313
G1 X123.374 Y80.065 E11.24465
G1 X124.01 Y80.184 E11.25616
G1 X124.627 Y80.381 E11.26767
G1 X125.216 Y80.652 E11.27919
G1 X125.766 Y80.994 E11.29071
G1 X126.439 Y81.563 E11.30637
G1 X126.562 Y81.686 E11.30946
G1 X126.991 Y82.171 E11.32097
G1 X127.357 Y82.706 E11.3325
G1 X127.654 Y83.281 E11.344
G1 X127.878 Y83.889 E11.35552
G1 X128.026 Y84.52 E11.36704
G1 X128.1 Y85.398 E11.3827
G1 X128.1 Y129.602 E12.16847
G1 X128.06 Y130.249 E12.18
G1 X127.941 Y130.885 E12.1915
G1 X127.744 Y131.502 E12.20301
G1 X127.473 Y132.091 E12.21454
G1 X127.131 Y132.641 E12.22605
G1 X126.562 Y133.314 E12.24171
G1 X126.439 Y133.437 E12.24481
G1 X125.954 Y133.866 E12.25632
G1 X125.419 Y134.232 E12.26784
G1 X124.844 Y134.529 E12.27934
G1 X124.236 Y134.753 E12.29086
G1 X123.605 Y134.901 E12.30238
G1 X122.727 Y134.975 E12.31804
G1 X110.273 Y134.975 E12.53943
G1 X109.626 Y134.935 E12.55095
G1 X108.99 Y134.816 E12.56245
G1 X108.373 Y134.619 E12.57396
G1 X107.784 Y134.348 E12.58549
G1 X107.234 Y134.006 E12.597
G1 X106.561 Y133.437 E12.61267
G1 X106.438 Y133.314 E12.61576
G1 X106.009 Y132.829 E12.62727
G1 X105.643 Y132.294 E12.63879
G1 X105.346 Y131.719 E12.6503
G1 X105.122 Y131.111 E12.66182
G1 X104.974 Y130.48 E12.67334
G1 X104.9 Y129.602 E12.689
G1 X104.9 Y85.398 E13.47477
G1 X104.94 Y84.751 E13.48629
G1 X105.059 Y84.115 E13.49779
G1 X105.256 Y83.498 E13.50931
G1 X105.527 Y82.909 E13.52083
G1 X105.869 Y82.359 E13.53234
M204 S625
M205 X6 Y6
G0 F4285.7 X106.286 Y82.5
M204 S500
M205 X5 Y5
G1 F1200 X106.735 Y81.983 E13.54452
G1 X106.858 Y81.86 E13.54761
G1 X107.324 Y81.45 E13.55864
G1 X107.84 Y81.103 E13.5697
G1 X108.396 Y80.825 E13.58075
G1 X108.982 Y80.621 E13.59178
G1 X109.59 Y80.493 E13.60282
G1 X110.273 Y80.445 E13.61499
G1 X122.727 Y80.445 E13.83637
G1 X123.347 Y80.485 E13.84742
G1 X123.957 Y80.604 E13.85846
G1 X124.546 Y80.801 E13.8695
G1 X125.105 Y81.071 E13.88054
G1 X125.625 Y81.411 E13.89158
G1 X126.142 Y81.86 E13.90376
G1 X126.265 Y81.983 E13.90685
G1 X126.675 Y82.449 E13.91788
G1 X127.022 Y82.965 E13.92894
G1 X127.3 Y83.521 E13.93999
G1 X127.504 Y84.107 E13.95102
G1 X127.632 Y84.715 E13.96206
G1 X127.68 Y85.398 E13.97423
G1 X127.68 Y129.602 E14.76
G1 X127.64 Y130.222 E14.77104
G1 X127.521 Y130.832 E14.78209
G1 X127.324 Y131.421 E14.79313
G1 X127.054 Y131.98 E14.80417
G1 X126.714 Y132.5 E14.81521
G1 X126.265 Y133.017 E14.82738
G1 X126.142 Y133.14 E14.83048
G1 X125.676 Y133.55 E14.84151
G1 X125.16 Y133.897 E14.85256
G1 X124.604 Y134.175 E14.86361
G1 X124.018 Y134.379 E14.87464
G1 X123.41 Y134.507 E14.88569
G1 X122.727 Y134.555 E14.89786
G1 X110.273 Y134.555 E15.11924
G1 X109.653 Y134.515 E15.13028
G1 X109.043 Y134.396 E15.14133
G1 X108.454 Y134.199 E15.15237
G1 X107.895 Y133.929 E15.16341
G1 X107.375 Y133.589 E15.17445
G1 X106.858 Y133.14 E15.18662
G1 X106.735 Y133.017 E15.18972
G1 X106.325 Y132.551 E15.20075
G1 X105.978 Y132.035 E15.2118
G1 X105.7 Y131.479 E15.22285
G1 X105.496 Y130.893 E15.23388
G1 X105.368 Y130.285 E15.24493
G1 X105.32 Y129.602 E15.2571
G1 X105.32 Y85.398 E16.04287
G1 X105.36 Y84.778 E16.05391
G1 X105.479 Y84.168 E16.06496
G1 X105.676 Y83.579 E16.076
G1 X105.946 Y83.02 E16.08703
G1 X106.286 Y82.5 E16.09808
M204 S625
M205 X6 Y6
G0 F4285.7 X106.703 Y82.647
M204 S500
M205 X5 Y5
G1 F1200 X107.032 Y82.28 E16.10684
G1 X107.155 Y82.157 E16.10993
G1 X107.602 Y81.766 E16.12049
G1 X108.097 Y81.439 E16.13103
G1 X108.632 Y81.182 E16.14158
G1 X109.197 Y80.998 E16.15215
G1 X109.781 Y80.893 E16.16269
G1 X110.273 Y80.865 E16.17145
G1 X122.727 Y80.865 E16.39284
G1 X123.319 Y80.905 E16.40338
G1 X123.901 Y81.024 E16.41394
G1 X124.461 Y81.22 E16.42449
G1 X124.99 Y81.49 E16.43505
G1 X125.478 Y81.828 E16.4456
G1 X125.845 Y82.157 E16.45436
G1 X125.968 Y82.28 E16.45745
G1 X126.359 Y82.727 E16.46801
G1 X126.686 Y83.222 E16.47856
G1 X126.943 Y83.757 E16.48911
G1 X127.127 Y84.322 E16.49967
G1 X127.232 Y84.906 E16.51022
G1 X127.26 Y85.398 E16.51898
G1 X127.26 Y129.602 E17.30475
G1 X127.22 Y130.194 E17.31529
G1 X127.101 Y130.776 E17.32585
G1 X126.905 Y131.336 E17.3364
G1 X126.635 Y131.865 E17.34696
G1 X126.297 Y132.353 E17.35751
G1 X125.968 Y132.72 E17.36627
G1 X125.845 Y132.843 E17.36936
G1 X125.398 Y133.234 E17.37992
G1 X124.903 Y133.561 E17.39047
G1 X124.368 Y133.818 E17.40102
G1 X123.803 Y134.002 E17.41158
G1 X123.219 Y134.107 E17.42213
G1 X122.727 Y134.135 E17.43089
G1 X110.273 Y134.135 E17.65227
G1 X109.681 Y134.095 E17.66282
G1 X109.099 Y133.976 E17.67338
G1 X108.539 Y133.78 E17.68392
G1 X108.01 Y133.51 E17.69448
G1 X107.522 Y133.172 E17.70503
G1 X107.155 Y132.843 E17.71379
G1 X107.032 Y132.72 E17.71689
G1 X106.641 Y132.273 E17.72744
G1 X106.314 Y131.778 E17.73799
G1 X106.057 Y131.243 E17.74854
G1 X105.873 Y130.678 E17.7591
G1 X105.768 Y130.094 E17.76965
G1 X105.74 Y129.602 E17.77841
G1 X105.74 Y85.398 E18.56418
G1 X105.78 Y84.806 E18.57472
G1 X105.899 Y84.224 E18.58528
G1 X106.095 Y83.664 E18.59583
G1 X106.365 Y83.135 E18.60639
G1 X106.703 Y82.647 E18.61694
M204 S625
M205 X6 Y6
G0 F4285.7 X107.119 Y82.803
M204 S500
M205 X5 Y5
G1 F1200 X107.329 Y82.577 E18.62242
G1 X107.452 Y82.454 E18.62552
G1 X107.878 Y82.084 E18.63555
G1 X108.353 Y81.778 E18.64559
G1 X108.866 Y81.541 E18.65564
G1 X109.407 Y81.38 E18.66567
G1 X109.965 Y81.297 E18.6757
G1 X110.273 Y81.285 E18.68118
G1 X122.727 Y81.285 E18.90256
G1 X123.29 Y81.325 E18.91259
G1 X123.842 Y81.444 E18.92263
G1 X124.372 Y81.64 E18.93267
G1 X124.868 Y81.908 E18.9427
G1 X125.322 Y82.244 E18.95274
G1 X125.548 Y82.454 E18.95822
G1 X125.671 Y82.577 E18.96131
G1 X126.041 Y83.003 E18.97134
G1 X126.347 Y83.478 E18.98139
G1 X126.584 Y83.991 E18.99143
G1 X126.745 Y84.532 E19.00147
G1 X126.828 Y85.09 E19.01149
G1 X126.84 Y85.398 E19.01697
G1 X126.84 Y129.602 E19.80274
G1 X126.8 Y130.165 E19.81278
G1 X126.681 Y130.717 E19.82281
G1 X126.485 Y131.247 E19.83286
G1 X126.217 Y131.743 E19.84288
G1 X125.881 Y132.197 E19.85292
G1 X125.671 Y132.423 E19.8584
G1 X125.548 Y132.546 E19.8615
G1 X125.122 Y132.916 E19.87153
G1 X124.647 Y133.222 E19.88157
G1 X124.134 Y133.459 E19.89161
G1 X123.593 Y133.62 E19.90165
G1 X123.035 Y133.703 E19.91168
G1 X122.727 Y133.715 E19.91716
G1 X110.273 Y133.715 E20.13854
G1 X109.71 Y133.675 E20.14857
G1 X109.158 Y133.556 E20.15861
G1 X108.628 Y133.36 E20.16865
G1 X108.132 Y133.092 E20.17867
G1 X107.678 Y132.756 E20.18872
G1 X107.452 Y132.546 E20.1942
G1 X107.329 Y132.423 E20.19729
G1 X106.959 Y131.997 E20.20732
G1 X106.653 Y131.522 E20.21737
G1 X106.416 Y131.009 E20.22741
G1 X106.255 Y130.468 E20.23744
G1 X106.172 Y129.91 E20.24747
G1 X106.16 Y129.602 E20.25295
G1 X106.16 Y85.398 E21.03872
G1 X106.2 Y84.835 E21.04875
G1 X106.319 Y84.283 E21.05879
G1 X106.515 Y83.753 E21.06884
G1 X106.783 Y83.257 E21.07886
G1 X107.119 Y82.803 E21.0889
M204 S625
M205 X6 Y6
G0 F4285.7 X107.201 Y83.385
M204 S500
M205 X5 Y5
G1 F1200 X107.626 Y82.874 E21.10071
G1 X107.749 Y82.751 E21.1038
G1 X108.153 Y82.402 E21.11329
G1 X108.606 Y82.118 E21.1228
G1 X109.095 Y81.905 E21.13228
G1 X109.611 Y81.767 E21.14177
G1 X110.273 Y81.705 E21.15359
G1 X122.727 Y81.705 E21.37498
G1 X123.26 Y81.745 E21.38448
