;START_OF_HEADER
;HEADER_VERSION:0.1
;FLAVOR:Griffin
;GENERATOR.NAME:Cura_SteamEngine
;GENERATOR.VERSION:4.3.0
;GENERATOR.BUILD_DATE:2019-09-24
;TARGET_MACHINE.NAME:Ultimaker 3
;EXTRUDER_TRAIN.0.INITIAL_TEMPERATURE:217
;EXTRUDER_TRAIN.0.MATERIAL.VOLUME_USED:29606
;EXTRUDER_TRAIN.0.MATERIAL.GUID:44a029e6-e31b-4c9e-a12f-9282e29a92ff
;EXTRUDER_TRAIN.0.NOZZLE.DIAMETER:0.4
;EXTRUDER_TRAIN.0.NOZZLE.NAME:AA 0.4
;BUILD_PLATE.TYPE:glass
;BUILD_PLATE.INITIAL_TEMPERATURE:60
;PRINT.TIME:24483
;PRINT.GROUPS:1
;PRINT.SIZE.MIN.X:9
;PRINT.SIZE.MIN.Y:6
;PRINT.SIZE.MIN.Z:0.27
;PRINT.SIZE.MAX.X:195.095
;PRINT.SIZE.MAX.Y:133.494
;PRINT.SIZE.MAX.Z:8.97
;END_OF_HEADER
;Generated with Cura_SteamEngine 4.3.0
T0
M82 ;absolute extrusion mode

G92 E0
M109 S217
G0 F15000 X9 Y6 Z2
G280
G1 F1500 E-6.5
;LAYER_COUNT:88
;LAYER:0
M107
M204 S625
M205 X6 Y6
G1 F600 Z2.27
G0 F4285.7 X17.705 Y78.149 Z2.27
M204 S500
M205 X5 Y5
;TYPE:SKIRT
G1 F600 Z0.27
G1 F1500 E0
G1 F1200 X18.165 Y78.134 E0.00818
G1 X188.165 Y78.134 E3.0301
G1 X188.908 Y78.174 E3.04332
G1 X189.643 Y78.293 E3.05656
G1 X190.361 Y78.491 E3.0698
G1 X191.053 Y78.764 E3.08302
G1 X191.712 Y79.11 E3.09625
G1 X192.33 Y79.525 E3.10949
G1 X192.9 Y80.004 E3.12272
G1 X193.415 Y80.541 E3.13595
G1 X193.87 Y81.13 E3.14918
G1 X194.259 Y81.764 E3.1624
G1 X194.578 Y82.437 E3.17564
G1 X194.823 Y83.14 E3.18887
G1 X194.991 Y83.865 E3.2021
G1 X195.08 Y84.604 E3.21533
G1 X195.095 Y85.064 E3.22351
G1 X195.095 Y126.564 E3.96122
G1 X195.055 Y127.307 E3.97444
G1 X194.936 Y128.042 E3.98768
G1 X194.738 Y128.76 E4.00092
G1 X194.465 Y129.452 E4.01414
G1 X194.119 Y130.111 E4.02737
G1 X193.704 Y130.729 E4.04061
G1 X193.225 Y131.299 E4.05384
G1 X192.688 Y131.814 E4.06707
G1 X192.099 Y132.269 E4.0803
G1 X191.465 Y132.658 E4.09352
G1 X190.792 Y132.977 E4.10676
G1 X190.089 Y133.222 E4.11999
G1 X189.364 Y133.39 E4.13322
G1 X188.625 Y133.479 E4.14645
G1 X188.165 Y133.494 E4.15463
G1 X18.165 Y133.494 E7.17655
G1 X17.422 Y133.454 E7.18978
G1 X16.687 Y133.335 E7.20301
G1 X15.969 Y133.137 E7.21625
G1 X15.277 Y132.864 E7.22947
G1 X14.618 Y132.518 E7.24271
G1 X14 Y132.103 E7.25594
G1 X13.43 Y131.624 E7.26917
G1 X12.915 Y131.087 E7.2824
G1 X12.46 Y130.498 E7.29563
G1 X12.071 Y129.864 E7.30885
G1 X11.752 Y129.191 E7.32209
G1 X11.507 Y128.488 E7.33532
G1 X11.339 Y127.763 E7.34855
G1 X11.25 Y127.024 E7.36178
G1 X11.235 Y126.564 E7.36997
G1 X11.235 Y85.064 E8.10767
G1 X11.275 Y84.321 E8.1209
G1 X11.394 Y83.586 E8.13413
G1 X11.592 Y82.868 E8.14737
G1 X11.865 Y82.176 E8.16059
G1 X12.211 Y81.517 E8.17383
G1 X12.626 Y80.899 E8.18706
G1 X13.105 Y80.329 E8.20029
G1 X13.642 Y79.814 E8.21352
G1 X14.231 Y79.359 E8.22675
G1 X14.865 Y78.97 E8.23997
G1 X15.538 Y78.651 E8.25321
G1 X16.241 Y78.406 E8.26644
G1 X16.966 Y78.238 E8.27967
G1 X17.705 Y78.149 E8.2929
M204 S625
M205 X6 Y6
G0 F4285.7 X17.324 Y78.609
M204 S500
M205 X5 Y5
G1 F1200 X18.165 Y78.554 E8.30789
G1 X188.165 Y78.554 E11.3298
G1 X188.885 Y78.594 E11.34262
G1 X189.597 Y78.713 E11.35545
G1 X190.291 Y78.911 E11.36828
G1 X190.958 Y79.184 E11.38109
G1 X191.592 Y79.529 E11.39392
G1 X192.183 Y79.942 E11.40674
G1 X192.725 Y80.418 E11.41956
G1 X193.211 Y80.951 E11.43238
G1 X193.635 Y81.535 E11.44521
G1 X193.992 Y82.162 E11.45804
G1 X194.278 Y82.824 E11.47086
G1 X194.488 Y83.514 E11.48368
G1 X194.62 Y84.223 E11.4965
G1 X194.675 Y85.064 E11.51148
G1 X194.675 Y126.564 E12.24918
G1 X194.635 Y127.284 E12.262
G1 X194.516 Y127.996 E12.27483
G1 X194.318 Y128.69 E12.28766
G1 X194.045 Y129.357 E12.30047
G1 X193.7 Y129.991 E12.3133
G1 X193.287 Y130.582 E12.32612
G1 X192.811 Y131.124 E12.33894
G1 X192.278 Y131.61 E12.35176
G1 X191.694 Y132.034 E12.36459
G1 X191.067 Y132.391 E12.37742
G1 X190.405 Y132.677 E12.39024
G1 X189.715 Y132.887 E12.40306
G1 X189.006 Y133.019 E12.41588
G1 X188.165 Y133.074 E12.43086
G1 X18.165 Y133.074 E15.45278
G1 X17.445 Y133.034 E15.46559
G1 X16.733 Y132.915 E15.47843
G1 X16.039 Y132.717 E15.49126
G1 X15.372 Y132.444 E15.50407
G1 X14.738 Y132.099 E15.5169
G1 X14.147 Y131.686 E15.52971
G1 X13.605 Y131.21 E15.54254
G1 X13.119 Y130.677 E15.55536
G1 X12.695 Y130.093 E15.56819
G1 X12.338 Y129.466 E15.58101
G1 X12.052 Y128.804 E15.59383
G1 X11.842 Y128.114 E15.60665
G1 X11.71 Y127.405 E15.61947
G1 X11.655 Y126.564 E15.63445
G1 X11.655 Y85.064 E16.37216
G1 X11.695 Y84.344 E16.38498
G1 X11.814 Y83.632 E16.39781
G1 X12.012 Y82.938 E16.41064
G1 X12.285 Y82.271 E16.42345
G1 X12.63 Y81.637 E16.43628
G1 X13.043 Y81.046 E16.44909
G1 X13.519 Y80.504 E16.46192
G1 X14.052 Y80.018 E16.47474
G1 X14.636 Y79.594 E16.48757
G1 X15.263 Y79.237 E16.50039
G1 X15.925 Y78.951 E16.51321
G1 X16.615 Y78.741 E16.52603
G1 X17.324 Y78.609 E16.53885
M204 S625
M205 X6 Y6
G0 F4285.7 X17.675 Y78.994
M204 S500
M205 X5 Y5
G1 F1200 X18.165 Y78.974 E16.54757
G1 X188.165 Y78.974 E19.56949
G1 X188.862 Y79.014 E19.5819
G1 X189.549 Y79.133 E19.59429
G1 X190.218 Y79.331 E19.60669
G1 X190.861 Y79.603 E19.6191
G1 X191.467 Y79.947 E19.63149
G1 X192.031 Y80.359 E19.64391
G1 X192.544 Y80.832 E19.65631
G1 X192.999 Y81.36 E19.6687
G1 X193.391 Y81.937 E19.6811
G1 X193.714 Y82.556 E19.69351
G1 X193.965 Y83.207 E19.70591
G1 X194.139 Y83.883 E19.71832
G1 X194.235 Y84.574 E19.73072
G1 X194.255 Y85.064 E19.73944
G1 X194.255 Y126.564 E20.47714
G1 X194.215 Y127.261 E20.48955
G1 X194.096 Y127.948 E20.50195
G1 X193.898 Y128.617 E20.51435
G1 X193.626 Y129.26 E20.52676
G1 X193.282 Y129.866 E20.53915
G1 X192.87 Y130.43 E20.55156
G1 X192.397 Y130.943 E20.56397
G1 X191.869 Y131.398 E20.57636
G1 X191.292 Y131.79 E20.58876
G1 X190.673 Y132.113 E20.60117
G1 X190.022 Y132.364 E20.61357
G1 X189.346 Y132.538 E20.62598
G1 X188.655 Y132.634 E20.63838
G1 X188.165 Y132.654 E20.6471
G1 X18.165 Y132.654 E23.66901
G1 X17.468 Y132.614 E23.68142
G1 X16.781 Y132.495 E23.69382
G1 X16.112 Y132.297 E23.70622
G1 X15.469 Y132.025 E23.71863
G1 X14.863 Y131.681 E23.73102
G1 X14.299 Y131.269 E23.74343
G1 X13.786 Y130.796 E23.75584
G1 X13.331 Y130.268 E23.76822
G1 X12.939 Y129.691 E23.78062
G1 X12.616 Y129.072 E23.79304
G1 X12.365 Y128.421 E23.80544
G1 X12.191 Y127.745 E23.81785
G1 X12.095 Y127.054 E23.83025
G1 X12.075 Y126.564 E23.83897
G1 X12.075 Y85.064 E24.57667
G1 X12.115 Y84.367 E24.58908
G1 X12.234 Y83.68 E24.60147
G1 X12.432 Y83.011 E24.61387
G1 X12.704 Y82.368 E24.62629
G1 X13.048 Y81.762 E24.63867
G1 X13.46 Y81.198 E24.65109
G1 X13.933 Y80.685 E24.66349
G1 X14.461 Y80.23 E24.67588
G1 X15.038 Y79.838 E24.68828
G1 X15.657 Y79.515 E24.70069
G1 X16.308 Y79.264 E24.7131
G1 X16.984 Y79.09 E24.7255
G1 X17.675 Y78.994 E24.7379
M204 S625
M205 X6 Y6
G0 F4285.7 X18.165 Y79.394
M204 S500
M205 X5 Y5
G1 F1200 X188.165 Y79.394 E27.75982
G1 X188.837 Y79.434 E27.77179
G1 X189.5 Y79.553 E27.78376
G1 X190.143 Y79.75 E27.79572
G1 X190.759 Y80.022 E27.80769
G1 X191.338 Y80.365 E27.81965
G1 X191.873 Y80.774 E27.83162
G1 X192.355 Y81.244 E27.84359
G1 X192.778 Y81.768 E27.85556
G1 X193.137 Y82.338 E27.86753
G1 X193.425 Y82.946 E27.87949
G1 X193.639 Y83.584 E27.89145
G1 X193.775 Y84.244 E27.90343
G1 X193.835 Y85.064 E27.91805
G1 X193.835 Y126.564 E28.65575
G1 X193.795 Y127.236 E28.66772
G1 X193.676 Y127.899 E28.67969
G1 X193.479 Y128.542 E28.69164
G1 X193.207 Y129.158 E28.70361
G1 X192.864 Y129.737 E28.71558
G1 X192.455 Y130.272 E28.72755
G1 X191.985 Y130.754 E28.73951
G1 X191.461 Y131.177 E28.75149
G1 X190.891 Y131.536 E28.76346
G1 X190.283 Y131.824 E28.77542
G1 X189.645 Y132.038 E28.78738
G1 X188.985 Y132.174 E28.79936
G1 X188.165 Y132.234 E28.81397
G1 X18.165 Y132.234 E31.83589
G1 X17.493 Y132.194 E31.84786
G1 X16.83 Y132.075 E31.85983
G1 X16.187 Y131.878 E31.87179
G1 X15.571 Y131.606 E31.88376
G1 X14.992 Y131.263 E31.89572
G1 X14.457 Y130.854 E31.90769
G1 X13.975 Y130.384 E31.91966
G1 X13.552 Y129.86 E31.93163
G1 X13.193 Y129.29 E31.9436
G1 X12.905 Y128.682 E31.95556
G1 X12.691 Y128.044 E31.96752
G1 X12.555 Y127.384 E31.9795
G1 X12.495 Y126.564 E31.99412
G1 X12.495 Y85.064 E32.73182
G1 X12.535 Y84.392 E32.74379
G1 X12.654 Y83.729 E32.75576
G1 X12.851 Y83.086 E32.76771
G1 X13.123 Y82.47 E32.77968
G1 X13.466 Y81.891 E32.79165
G1 X13.875 Y81.356 E32.80362
G1 X14.345 Y80.874 E32.81558
G1 X14.869 Y80.451 E32.82756
G1 X15.439 Y80.092 E32.83953
G1 X16.047 Y79.804 E32.85149
G1 X16.685 Y79.59 E32.86345
G1 X17.345 Y79.454 E32.87543
G1 X18.165 Y79.394 E32.89005
M204 S625
M205 X6 Y6
G0 F4285.7 X17.697 Y79.835
M204 S500
M205 X5 Y5
G1 F1200 X18.165 Y79.814 E32.89837
G1 X188.165 Y79.814 E35.92029
G1 X188.812 Y79.854 E35.93181
G1 X189.448 Y79.973 E35.94331
G1 X190.065 Y80.17 E35.95483
G1 X190.654 Y80.441 E35.96635
G1 X191.204 Y80.783 E35.97786
G1 X191.708 Y81.19 E35.98938
G1 X192.158 Y81.656 E36.0009
G1 X192.547 Y82.173 E36.0124
G1 X192.87 Y82.735 E36.02392
G1 X193.121 Y83.332 E36.03543
G1 X193.297 Y83.956 E36.04696
G1 X193.394 Y84.596 E36.05846
G1 X193.415 Y85.064 E36.06679
G1 X193.415 Y126.564 E36.80449
G1 X193.375 Y127.211 E36.81602
G1 X193.256 Y127.847 E36.82752
G1 X193.059 Y128.464 E36.83903
G1 X192.788 Y129.053 E36.85056
G1 X192.446 Y129.603 E36.86207
G1 X192.039 Y130.107 E36.87358
G1 X191.573 Y130.557 E36.8851
G1 X191.056 Y130.946 E36.8966
G1 X190.494 Y131.269 E36.90812
G1 X189.897 Y131.52 E36.91964
G1 X189.273 Y131.696 E36.93116
G1 X188.633 Y131.793 E36.94267
G1 X188.165 Y131.814 E36.95099
G1 X18.165 Y131.814 E39.97291
G1 X17.518 Y131.774 E39.98443
G1 X16.882 Y131.655 E39.99594
G1 X16.265 Y131.458 E40.00745
G1 X15.676 Y131.187 E40.01897
G1 X15.126 Y130.845 E40.03049
G1 X14.622 Y130.438 E40.042
G1 X14.172 Y129.972 E40.05352
G1 X13.783 Y129.455 E40.06502
G1 X13.46 Y128.893 E40.07654
G1 X13.209 Y128.296 E40.08805
G1 X13.033 Y127.672 E40.09958
G1 X12.936 Y127.032 E40.11108
G1 X12.915 Y126.564 E40.11941
G1 X12.915 Y85.064 E40.85712
G1 X12.955 Y84.417 E40.86864
G1 X13.074 Y83.781 E40.88014
G1 X13.271 Y83.164 E40.89165
G1 X13.542 Y82.575 E40.90318
G1 X13.884 Y82.025 E40.91469
G1 X14.291 Y81.521 E40.92621
G1 X14.757 Y81.071 E40.93772
G1 X15.274 Y80.682 E40.94922
G1 X15.836 Y80.359 E40.96075
G1 X16.433 Y80.108 E40.97226
G1 X17.057 Y79.932 E40.98378
G1 X17.697 Y79.835 E40.99529
M204 S625
M205 X6 Y6
G0 F4285.7 X18.165 Y80.234
M204 S500
M205 X5 Y5
G1 F1200 X188.165 Y80.234 E44.01721
G1 X188.785 Y80.274 E44.02825
G1 X189.395 Y80.393 E44.0393
G1 X189.984 Y80.59 E44.05034
G1 X190.543 Y80.86 E44.06137
G1 X191.063 Y81.2 E44.07242
G1 X191.535 Y81.604 E44.08346
G1 X191.952 Y82.066 E44.09452
G1 X192.305 Y82.576 E44.10555
G1 X192.59 Y83.128 E44.11659
G1 X192.802 Y83.713 E44.12765
G1 X192.937 Y84.319 E44.13869
G1 X192.995 Y85.064 E44.15197
G1 X192.995 Y126.564 E44.88968
G1 X192.955 Y127.184 E44.90072
G1 X192.836 Y127.794 E44.91177
G1 X192.639 Y128.383 E44.92281
G1 X192.369 Y128.942 E44.93384
G1 X192.029 Y129.462 E44.94489
G1 X191.625 Y129.934 E44.95593
G1 X191.163 Y130.351 E44.96699
G1 X190.653 Y130.704 E44.97802
G1 X190.101 Y130.989 E44.98906
G1 X189.516 Y131.201 E45.00012
G1 X188.91 Y131.336 E45.01116
G1 X188.165 Y131.394 E45.02444
G1 X18.165 Y131.394 E48.04636
G1 X17.545 Y131.354 E48.0574
G1 X16.935 Y131.235 E48.06845
G1 X16.346 Y131.038 E48.07949
G1 X15.787 Y130.768 E48.09053
G1 X15.267 Y130.428 E48.10157
G1 X14.795 Y130.024 E48.11261
G1 X14.378 Y129.562 E48.12368
G1 X14.025 Y129.052 E48.1347
G1 X13.74 Y128.5 E48.14574
G1 X13.528 Y127.915 E48.15681
G1 X13.393 Y127.309 E48.16784
G1 X13.335 Y126.564 E48.18112
G1 X13.335 Y85.064 E48.91883
G1 X13.375 Y84.444 E48.92987
G1 X13.494 Y83.834 E48.94092
G1 X13.691 Y83.245 E48.95196
G1 X13.961 Y82.686 E48.96299
G1 X14.301 Y82.166 E48.97404
G1 X14.705 Y81.694 E48.98508
G1 X15.167 Y81.277 E48.99615
G1 X15.677 Y80.924 E49.00717
G1 X16.229 Y80.639 E49.01821
G1 X16.814 Y80.427 E49.02928
G1 X17.42 Y80.292 E49.04031
G1 X18.165 Y80.234 E49.05359
M204 S625
M205 X6 Y6
G0 F4285.7 X17.773 Y80.671
M204 S500
M205 X5 Y5
G1 F1200 X18.165 Y80.654 E49.06057
G1 X188.165 Y80.654 E52.08249
G1 X188.757 Y80.694 E52.09303
G1 X189.339 Y80.813 E52.10359
G1 X189.899 Y81.009 E52.11414
G1 X190.428 Y81.279 E52.1247
G1 X190.916 Y81.617 E52.13525
G1 X191.354 Y82.018 E52.1458
G1 X191.734 Y82.474 E52.15636
G1 X192.05 Y82.977 E52.16692
G1 X192.295 Y83.517 E52.17746
G1 X192.465 Y84.086 E52.18801
G1 X192.558 Y84.672 E52.19856
G1 X192.575 Y85.064 E52.20553
G1 X192.575 Y126.564 E52.94324
G1 X192.535 Y127.156 E52.95379
G1 X192.416 Y127.738 E52.96434
G1 X192.22 Y128.298 E52.97489
G1 X191.95 Y128.827 E52.98545
G1 X191.612 Y129.315 E52.996
G1 X191.211 Y129.753 E53.00656
G1 X190.755 Y130.133 E53.01711
G1 X190.252 Y130.449 E53.02767
G1 X189.712 Y130.694 E53.03821
G1 X189.143 Y130.864 E53.04877
G1 X188.557 Y130.957 E53.05931
G1 X188.165 Y130.974 E53.06629
G1 X18.165 Y130.974 E56.0882
G1 X17.573 Y130.934 E56.09875
G1 X16.991 Y130.815 E56.10931
G1 X16.431 Y130.619 E56.11986
G1 X15.902 Y130.349 E56.13041
G1 X15.414 Y130.011 E56.14097
G1 X14.976 Y129.61 E56.15152
G1 X14.596 Y129.154 E56.16207
G1 X14.28 Y128.651 E56.17263
G1 X14.035 Y128.111 E56.18317
G1 X13.865 Y127.542 E56.19373
G1 X13.772 Y126.956 E56.20428
G1 X13.755 Y126.564 E56.21125
G1 X13.755 Y85.064 E56.94896
G1 X13.795 Y84.472 E56.9595
G1 X13.914 Y83.89 E56.97006
G1 X14.11 Y83.33 E56.98061
G1 X14.38 Y82.801 E56.99117
G1 X14.718 Y82.313 E57.00172
G1 X15.119 Y81.875 E57.01227
G1 X15.575 Y81.495 E57.02283
G1 X16.078 Y81.179 E57.03339
G1 X16.618 Y80.934 E57.04393
G1 X17.187 Y80.764 E57.05448
G1 X17.773 Y80.671 E57.06503
M204 S625
M205 X6 Y6
G0 F4285.7 X18.165 Y81.074
M204 S500
M205 X5 Y5
G1 F1200 X188.165 Y81.074 E60.08695
G1 X188.728 Y81.114 E60.09698
G1 X189.28 Y81.233 E60.10702
G1 X189.81 Y81.429 E60.11706
G1 X190.306 Y81.697 E60.12708
G1 X190.76 Y82.033 E60.13712
G1 X191.162 Y82.43 E60.14717
G1 X191.504 Y82.879 E60.1572
G1 X191.779 Y83.373 E60.16725
G1 X191.981 Y83.9 E60.17728
G1 X192.107 Y84.45 E60.18731
G1 X192.155 Y85.064 E60.19826
G1 X192.155 Y126.564 E60.93596
G1 X192.115 Y127.127 E60.946
G1 X191.996 Y127.679 E60.95603
G1 X191.8 Y128.209 E60.96608
G1 X191.532 Y128.705 E60.9761
G1 X191.196 Y129.159 E60.98614
G1 X190.799 Y129.561 E60.99618
G1 X190.35 Y129.903 E61.00622
G1 X189.856 Y130.178 E61.01627
G1 X189.329 Y130.38 E61.0263
G1 X188.779 Y130.506 E61.03633
G1 X188.165 Y130.554 E61.04728
G1 X18.165 Y130.554 E64.06919
G1 X17.602 Y130.514 E64.07923
G1 X17.05 Y130.395 E64.08926
G1 X16.52 Y130.199 E64.09931
G1 X16.024 Y129.931 E64.10933
G1 X15.57 Y129.595 E64.11937
G1 X15.168 Y129.198 E64.12941
G1 X14.826 Y128.749 E64.13945
G1 X14.551 Y128.255 E64.1495
G1 X14.349 Y127.728 E64.15953
G1 X14.223 Y127.178 E64.16956
G1 X14.175 Y126.564 E64.18051
G1 X14.175 Y85.064 E64.91821
G1 X14.215 Y84.501 E64.92824
G1 X14.334 Y83.949 E64.93828
G1 X14.53 Y83.419 E64.94833
G1 X14.798 Y82.923 E64.95835
G1 X15.134 Y82.469 E64.96839
G1 X15.531 Y82.067 E64.97843
G1 X15.98 Y81.725 E64.98846
G1 X16.474 Y81.45 E64.99851
G1 X17.001 Y81.248 E65.00855
G1 X17.551 Y81.122 E65.01858
G1 X18.165 Y81.074 E65.02952
M204 S625
M205 X6 Y6
G0 F4285.7 X18.165 Y81.494
M204 S500
M205 X5 Y5
G1 F1200 X188.165 Y81.494 E68.05144
G1 X188.698 Y81.534 E68.06094
G1 X189.218 Y81.653 E68.07042
G1 X189.715 Y81.848 E68.07991
G1 X190.178 Y82.115 E68.08942
G1 X190.595 Y82.449 E68.09891
G1 X190.958 Y82.84 E68.1084
G1 X191.258 Y83.282 E68.11789
G1 X191.49 Y83.763 E68.12739
G1 X191.646 Y84.274 E68.13688
G1 X191.735 Y85.064 E68.15101
G1 X191.735 Y126.564 E68.88872
G1 X191.695 Y127.097 E68.89822
G1 X191.576 Y127.617 E68.9077
G1 X191.381 Y128.114 E68.91719
G1 X191.114 Y128.577 E68.92669
G1 X190.78 Y128.994 E68.93619
G1 X190.389 Y129.357 E68.94567
G1 X189.947 Y129.657 E68.95517
G1 X189.466 Y129.889 E68.96466
G1 X188.955 Y130.045 E68.97416
G1 X188.165 Y130.134 E68.98829
G1 X18.165 Y130.134 E72.01021
G1 X17.632 Y130.094 E72.01971
G1 X17.112 Y129.975 E72.02919
G1 X16.615 Y129.78 E72.03868
G1 X16.152 Y129.513 E72.04818
G1 X15.735 Y129.179 E72.05768
G1 X15.372 Y128.788 E72.06716
G1 X15.072 Y128.346 E72.07666
G1 X14.84 Y127.865 E72.08615
G1 X14.684 Y127.354 E72.09565
G1 X14.595 Y126.564 E72.10978
G1 X14.595 Y85.064 E72.84748
G1 X14.635 Y84.531 E72.85699
G1 X14.754 Y84.011 E72.86647
G1 X14.949 Y83.514 E72.87596
G1 X15.216 Y83.051 E72.88546
G1 X15.55 Y82.634 E72.89496
G1 X15.941 Y82.271 E72.90444
