;START_OF_HEADER
;HEADER_VERSION:0.1
;FLAVOR:Griffin
;GENERATOR.NAME:Cura_SteamEngine
;GENERATOR.VERSION:4.4.0
;GENERATOR.BUILD_DATE:2019-11-19
;TARGET_MACHINE.NAME:Ultimaker 3
;EXTRUDER_TRAIN.0.INITIAL_TEMPERATURE:205
;EXTRUDER_TRAIN.0.MATERIAL.VOLUME_USED:836
;EXTRUDER_TRAIN.0.MATERIAL.GUID:44a029e6-e31b-4c9e-a12f-9282e29a92ff
;EXTRUDER_TRAIN.0.NOZZLE.DIAMETER:0.4
;EXTRUDER_TRAIN.0.NOZZLE.NAME:AA 0.4
;BUILD_PLATE.TYPE:glass
;BUILD_PLATE.INITIAL_TEMPERATURE:60
;PRINT.TIME:1354
;PRINT.GROUPS:1
;PRINT.SIZE.MIN.X:9
;PRINT.SIZE.MIN.Y:6
;PRINT.SIZE.MIN.Z:0.27
;PRINT.SIZE.MAX.X:124.058
;PRINT.SIZE.MAX.Y:115.059
;PRINT.SIZE.MAX.Z:12.97
;END_OF_HEADER
;Generated with Cura_SteamEngine 4.4.0
T0
M82 ;absolute extrusion mode

G92 E0
M109 S205
G0 F15000 X9 Y6 Z2
G280
G1 F1500 E-6.5
;LAYER_COUNT:128
;LAYER:0
M107
M204 S625
M205 X6 Y6
G1 F600 Z2.27
;MESH:Our omiwheelinsert.stl
G0 F4285.7 X121.329 Y112.249 Z2.27
M204 S500
M205 X5 Y5
;TYPE:WALL-INNER
G1 F600 Z0.27
G1 F1500 E0
G1 F1200 X120.982 Y112.578 E0.00729
G1 X120.606 Y112.887 E0.0147
G1 X120.189 Y113.181 E0.02248
G1 X119.774 Y113.431 E0.02986
G1 X119.362 Y113.639 E0.03689
G1 X118.895 Y113.835 E0.04461
G1 X118.887 Y113.838 E0.04474
G1 X118.714 Y113.897 E0.04752
G1 X118.54 Y113.956 E0.05032
G1 X118.584 Y113.767 E0.0514
G1 X118.619 Y113.62 E0.05298
G1 X118.619 Y113.612 E0.05311
G1 X118.558 Y112.975 E0.06286
G1 X118.237 Y112.273 E0.07462
G1 X117.782 Y111.831 E0.08428
G1 X117.69 Y111.742 E0.08623
G1 X117.51 Y111.657 E0.08927
G1 X117.662 Y111.623 E0.08951
G1 X117.802 Y111.59 E0.0904
G1 X117.921 Y111.541 E0.09198
G1 X118.458 Y111.317 E0.10084
G1 X119.06 Y110.942 E0.11165
G1 X119.585 Y110.482 E0.12228
G1 X120.101 Y109.879 E0.13437
G1 X120.101 Y108.062 E0.16206
G1 X120.101 Y107.533 E0.17012
G1 X120.101 Y107.064 E0.17727
G1 X120.101 Y106.976 E0.17861
G1 X120.102 Y105.243 E0.20501
G1 X119.774 Y104.722 E0.21439
G1 X119.252 Y104.209 E0.22554
G1 X118.672 Y103.798 E0.23637
G1 X118.03 Y103.491 E0.24722
G1 X117.877 Y103.446 E0.24965
G1 X117.508 Y103.34 E0.2555
G1 X117.826 Y103.127 E0.25868
G1 X117.827 Y103.126 E0.2587
G1 X117.996 Y103.012 E0.2618
G1 X118.445 Y102.36 E0.27387
G1 X118.619 Y101.62 E0.28545
G1 X118.588 Y101.302 E0.29032
G1 X118.569 Y101.092 E0.29353
G1 X118.565 Y101.053 E0.29413
G1 X118.664 Y101.082 E0.29488
G1 X118.861 Y101.156 E0.29709
G1 X119.12 Y101.254 E0.30131
G1 X119.56 Y101.457 E0.30869
G1 X119.992 Y101.697 E0.31622
G1 X120.411 Y101.97 E0.32384
G1 X120.78 Y102.25 E0.3309
G1 X121.174 Y102.597 E0.3389
G1 X121.499 Y102.929 E0.34598
G1 X121.821 Y103.307 E0.35354
G1 X122.111 Y103.704 E0.36104
G1 X122.364 Y104.108 E0.3683
G1 X122.589 Y104.53 E0.37559
G1 X122.796 Y105.002 E0.38344
G1 X122.859 Y105.177 E0.38627
G1 X122.86 Y105.178 E0.38629
G1 X122.955 Y105.448 E0.39065
G1 X122.67 Y105.417 E0.39317
G1 X122.669 Y105.416 E0.3932
G1 X122.37 Y105.381 E0.39778
G1 X121.737 Y105.519 E0.40765
G1 X121.105 Y105.9 E0.4189
G1 X120.686 Y106.396 E0.42879
G1 X120.458 Y106.982 E0.43837
G1 X120.427 Y107.064 E0.43965
G1 X120.384 Y107.533 E0.44574
G1 X120.459 Y108.056 E0.45294
G1 X120.469 Y108.122 E0.45395
G1 X120.816 Y108.8 E0.46556
G1 X121.393 Y109.311 E0.4773
G1 X121.99 Y109.561 E0.48716
G1 X122.05 Y109.564 E0.48808
G1 X122.61 Y109.602 E0.49663
G1 X122.668 Y109.605 E0.49751
G1 X122.728 Y109.61 E0.49843
G1 X122.83 Y109.583 E0.50004
G1 X122.952 Y109.55 E0.50197
G1 X122.915 Y109.668 E0.50245
G1 X122.882 Y109.773 E0.50325
G1 X122.861 Y109.827 E0.50414
G1 X122.704 Y110.218 E0.51056
G1 X122.486 Y110.669 E0.51819
G1 X122.234 Y111.106 E0.52587
G1 X121.969 Y111.499 E0.5331
G1 X121.674 Y111.872 E0.54034
G1 X121.329 Y112.249 E0.54813
M204 S625
M205 X6 Y6
G0 F4285.7 X116.393 Y111.858
G0 X115.415 Y112.263
G0 X114.444 Y113.95
M204 S500
M205 X5 Y5
G1 F1200 X114.113 Y113.838 E0.55345
G1 X114.075 Y113.822 E0.55408
G1 X113.638 Y113.639 E0.5613
G1 X113.226 Y113.431 E0.56833
G1 X112.811 Y113.181 E0.57571
G1 X112.394 Y112.887 E0.58349
G1 X112.018 Y112.578 E0.5909
G1 X111.671 Y112.249 E0.59819
G1 X111.326 Y111.872 E0.60597
G1 X111.031 Y111.499 E0.61322
G1 X110.766 Y111.106 E0.62044
G1 X110.514 Y110.669 E0.62813
G1 X110.296 Y110.218 E0.63576
G1 X110.163 Y109.887 E0.6412
G1 X110.118 Y109.773 E0.64306
G1 X110.053 Y109.565 E0.64638
G1 X110.131 Y109.57
G1 X110.253 Y109.578 E0.6479
G1 X110.728 Y109.61 E0.65516
G1 X111.356 Y109.443 E0.66506
G1 X111.996 Y109.012 E0.67682
G1 X112.129 Y108.819 E0.68039
G1 X112.337 Y108.516 E0.68599
G1 X112.447 Y108.867 E0.68907
G1 X112.526 Y109.116 E0.69305
G1 X112.846 Y109.75 E0.70387
G1 X113.268 Y110.324 E0.71472
G1 X113.779 Y110.818 E0.72555
G1 X114.364 Y111.22 E0.73637
G1 X115.008 Y111.523 E0.74721
G1 X115.179 Y111.571 E0.74992
G1 X115.195 Y111.575 E0.75017
G1 X115.502 Y111.661 E0.75503
G1 X115.105 Y111.9 E0.75918
G1 X115.095 Y111.912 E0.75941
G1 X114.686 Y112.396 E0.76906
G1 X114.427 Y113.064 E0.77998
G1 X114.384 Y113.533 E0.78715
G1 X114.416 Y113.752 E0.79053
G1 X114.421 Y113.793
G1 X114.444 Y113.95 E0.79102
M204 S625
M205 X6 Y6
G0 F4285.7 X112.773 Y108.335
G0 X112.706 Y107.073
G0 X113.05 Y105.866
G0 X113.693 Y104.923
G0 X115.476 Y103.346
M204 S500
M205 X5 Y5
G1 F1200 X115.405 Y103.361 E0.79212
G1 X115.235 Y103.399 E0.79478
G1 X115.094 Y103.455 E0.79709
G1 X114.577 Y103.664 E0.80559
G1 X113.972 Y104.034 E0.81639
G1 X113.433 Y104.498 E0.82723
G1 X112.979 Y105.048 E0.83809
G1 X112.624 Y105.661 E0.84889
G1 X112.43 Y106.174 E0.85724
G1 X112.373 Y106.326 E0.85972
G1 X112.34 Y106.497 E0.86237
G1 X112.281 Y106.369 E0.86254
G1 X112.237 Y106.273 E0.86362
G1 X112.12 Y106.16 E0.86548
G1 X111.69 Y105.742 E0.87462
G1 X111.105 Y105.465 E0.88448
G1 X110.416 Y105.386 E0.89505
G1 X110.37 Y105.381 E0.89575
G1 X110.043 Y105.452 E0.90085
G1 X110.102 Y105.286 E0.90145
G1 X110.117 Y105.242 E0.9021
G1 X110.204 Y105.002 E0.90599
G1 X110.411 Y104.53 E0.91384
G1 X110.636 Y104.108 E0.92113
G1 X110.889 Y103.704 E0.92839
G1 X111.179 Y103.307 E0.93589
G1 X111.501 Y102.929 E0.94345
G1 X111.826 Y102.597 E0.95053
G1 X112.22 Y102.25 E0.95853
G1 X112.595 Y101.965 E0.96571
G1 X113.005 Y101.698 E0.97316
G1 X113.44 Y101.457 E0.98074
G1 X113.88 Y101.254 E0.98812
G1 X114.135 Y101.157 E0.99228
G1 X114.336 Y101.082 E0.99555
G1 X114.431 Y101.054 E0.99706
G1 X114.427 Y101.064
G1 X114.425 Y101.09
G1 X114.406 Y101.304 E0.99929
G1 X114.384 Y101.533 E1.00279
G1 X114.469 Y102.122 E1.01186
G1 X114.816 Y102.8 E1.02346
G1 X115.235 Y103.171 E1.03199
G1 X115.348 Y103.271 E1.03347
G1 X115.393 Y103.311
G1 X115.476 Y103.346 E1.03374
M204 S625
M205 X6 Y6
G0 F4285.7 X113.769 Y104.83
G0 X113.05 Y105.866
G0 X112.706 Y107.073
G0 X112.773 Y108.335
G0 X113.248 Y109.501
G0 X114.079 Y110.451
G0 X117.406 Y112.145
G0 X118.096 Y113.098
G0 X117.921 Y114.487
M204 S500
M205 X5 Y5
G1 F1200 X117.97 Y114.415 E1.03507
G1 X118.11 Y114.212 E1.03883
G1 X118.134 Y114.107 E1.04047
G1 X118.255 Y113.595 E1.04848
G1 X118.205 Y113.069 E1.05653
G1 X117.938 Y112.484 E1.06633
G1 X117.482 Y112.042 E1.07601
G1 X117.005 Y111.816 E1.08405
G1 X116.628 Y111.772 E1.08983
G1 X116.388 Y111.745 E1.09351
G1 X116.263 Y111.772 E1.09546
G1 X115.872 Y111.858 E1.10156
G1 X115.342 Y112.178 E1.111
G1 X115 Y112.582 E1.11906
G1 X114.781 Y113.147 E1.12829
G1 X114.746 Y113.524 E1.13406
G1 X114.817 Y114.011 E1.14156
G1 X114.889 Y114.153 E1.14399
G1 X115.029 Y114.427 E1.14867
G1 X115.058 Y114.483 E1.14964
G1 X114.958 Y114.464 E1.15017
G1 X114.66 Y114.388 E1.15319
G1 X114.473 Y114.34 E1.15614
G1 X113.985 Y114.175 E1.16399
G1 X113.492 Y113.968 E1.17213
G1 X113.045 Y113.742 E1.17976
G1 X112.614 Y113.483 E1.18743
G1 X112.174 Y113.172 E1.19564
G1 X111.782 Y112.851 E1.20336
G1 X111.411 Y112.499 E1.21115
G1 X111.06 Y112.115 E1.21907
G1 X110.741 Y111.712 E1.22691
G1 X110.455 Y111.288 E1.2347
G1 X110.197 Y110.84 E1.24257
G1 X109.967 Y110.365 E1.25062
G1 X109.78 Y109.897 E1.25829
G1 X109.626 Y109.407 E1.26612
G1 X109.533 Y109.015 E1.27226
G1 X109.514 Y108.937 E1.27348
G1 X109.587 Y109.002 E1.27377
G1 X109.764 Y109.076 E1.27494
G1 X110.074 Y109.206 E1.28006
G1 X110.693 Y109.247 E1.28952
G1 X111.205 Y109.111 E1.29759
G1 X111.738 Y108.752 E1.30738
G1 X112.041 Y108.313 E1.31551
G1 X112.11 Y108.212 E1.31737
G1 X112.233 Y107.688 E1.32557
G1 X112.245 Y107.637 E1.32637
G1 X112.255 Y107.595 E1.32703
G1 X112.23 Y107.324 E1.33117
G1 X112.205 Y107.069 E1.33508
G1 X111.938 Y106.484 E1.34487
G1 X111.482 Y106.042 E1.35455
G1 X111.005 Y105.816 E1.36259
G1 X110.388 Y105.745 E1.37206
G1 X109.916 Y105.849 E1.37942
G1 X109.872 Y105.858 E1.3801
G1 X109.654 Y105.989 E1.38398
G1 X109.515 Y106.074 E1.38646
G1 X109.562 Y105.838 E1.388
G1 X109.579 Y105.777 E1.38819
G1 X109.591 Y105.733 E1.38884
G1 X109.699 Y105.346 E1.39496
G1 X109.874 Y104.857 E1.40287
G1 X110.085 Y104.377 E1.41086
G1 X110.322 Y103.931 E1.41856
G1 X110.592 Y103.5 E1.4263
G1 X110.893 Y103.088 E1.43408
G1 X111.238 Y102.683 E1.44219
G1 X111.578 Y102.336 E1.44959
G1 X111.997 Y101.967 E1.45809
G1 X112.377 Y101.678 E1.46537
G1 X112.826 Y101.385 E1.47354
G1 X113.275 Y101.136 E1.48136
G1 X113.74 Y100.922 E1.48916
G1 X114.22 Y100.741 E1.49698
G1 X114.621 Y100.621 E1.50335
G1 X114.715 Y100.593 E1.50485
G1 X114.989 Y100.533 E1.50912
G1 X115.054 Y100.518 E1.51014
G1 X115 Y100.582
G1 X114.96 Y100.687 E1.51032
G1 X114.925 Y100.779 E1.51164
G1 X114.781 Y101.147 E1.51766
G1 X114.746 Y101.524 E1.52343
G1 X114.817 Y102.011 E1.53093
G1 X115.106 Y102.576 E1.5406
G1 X115.587 Y103.002 E1.55039
G1 X116.074 Y103.206 E1.55843
G1 X116.388 Y103.227 E1.56323
G1 X116.65 Y103.244 E1.56723
G1 X116.693 Y103.247 E1.56788
G1 X116.763 Y103.229 E1.56898
G1 X117.205 Y103.111 E1.57595
G1 X117.307 Y103.043 E1.57782
G1 X117.738 Y102.752 E1.58575
G1 X118.11 Y102.212 E1.59574
G1 X118.255 Y101.595 E1.60539
G1 X118.205 Y101.069 E1.61344
G1 X118.079 Y100.795 E1.61804
G1 X118.039 Y100.706 E1.61953
G1 X117.954 Y100.52 E1.62264
G1 X118.285 Y100.593 E1.62547
G1 X118.379 Y100.621 E1.6268
G1 X118.78 Y100.741 E1.63318
G1 X119.26 Y100.922 E1.64099
G1 X119.725 Y101.136 E1.64879
G1 X120.174 Y101.386 E1.65662
G1 X120.623 Y101.678 E1.66478
G1 X121.003 Y101.967 E1.67206
G1 X121.422 Y102.336 E1.68056
G1 X121.762 Y102.683 E1.68797
G1 X122.107 Y103.088 E1.69607
G1 X122.408 Y103.5 E1.70385
G1 X122.678 Y103.931 E1.71159
G1 X122.915 Y104.377 E1.71929
G1 X123.126 Y104.857 E1.72728
G1 X123.301 Y105.346 E1.73519
G1 X123.382 Y105.634 E1.73975
G1 X123.438 Y105.838 E1.74297
G1 X123.478 Y106.04 E1.74611
G1 X123.368 Y105.988 E1.74623
G1 X123.177 Y105.898 E1.74866
G1 X123.005 Y105.816 E1.75156
G1 X122.388 Y105.745 E1.76103
G1 X121.872 Y105.858 E1.76907
G1 X121.342 Y106.178 E1.77851
G1 X121 Y106.582 E1.78657
G1 X120.781 Y107.147 E1.7958
G1 X120.746 Y107.524 E1.80157
G1 X120.817 Y108.011 E1.80907
G1 X121.106 Y108.576 E1.81874
G1 X121.587 Y109.002 E1.82853
G1 X122.074 Y109.206 E1.83658
G1 X122.693 Y109.247 E1.84603
G1 X123.189 Y109.115 E1.85385
G1 X123.205 Y109.111 E1.8541
G1 X123.491 Y108.918 E1.85936
G1 X123.432 Y109.165 E1.86034
G1 X123.374 Y109.407 E1.86375
G1 X123.369 Y109.423 E1.864
G1 X123.22 Y109.897 E1.87157
G1 X123.033 Y110.365 E1.87925
G1 X122.803 Y110.84 E1.88729
G1 X122.545 Y111.288 E1.89517
G1 X122.259 Y111.712 E1.90296
G1 X121.94 Y112.115 E1.91079
G1 X121.589 Y112.499 E1.91872
G1 X121.218 Y112.851 E1.92651
G1 X120.826 Y113.172 E1.93423
G1 X120.386 Y113.483 E1.94244
G1 X119.955 Y113.742 E1.9501
G1 X119.508 Y113.968 E1.95774
G1 X119.015 Y114.175 E1.96588
G1 X118.527 Y114.34 E1.97373
G1 X118.271 Y114.406 E1.97776
G1 X118.167 Y114.432 E1.97862
G1 X118.042 Y114.464 E1.97907
G1 X117.921 Y114.487 E1.97965
M204 S625
M205 X6 Y6
G0 F4285.7 X117.459 Y114.47
M204 S500
M205 X5 Y5
;TYPE:WALL-OUTER
G1 F1200 X117.747 Y114.051 E1.98869
G1 X117.861 Y113.568 E1.99751
G1 X117.823 Y113.171 E2.0046
G1 X117.614 Y112.713 E2.01355
G1 X117.257 Y112.367 E2.02238
G1 X116.896 Y112.196 E2.02948
G1 X116.408 Y112.14 E2.03822
G1 X116.018 Y112.225 E2.04531
G1 X115.598 Y112.479 E2.05404
G1 X115.34 Y112.784 E2.06114
G1 X115.164 Y113.237 E2.06978
G1 X115.139 Y113.513 E2.0747
G1 X115.194 Y113.891 E2.08149
G1 X115.42 Y114.333 E2.09032
G1 X115.677 Y114.561 E2.09643
G1 X115.797 Y114.667 E2.09927
G1 X116.054 Y114.774 E2.10422
G1 X116.165 Y114.821 E2.10636
G1 X116.512 Y114.844 E2.11254
G1 X116.655 Y114.854 E2.11509
G1 X116.977 Y114.768 E2.12102
G1 X117.041 Y114.751 E2.12219
G1 X117.324 Y114.561 E2.12825
G1 X117.459 Y114.47 E2.13115
M204 S625
M205 X6 Y6
G0 F4285.7 X117.572 Y114.306
G0 X117.398 Y114.631
G0 X118.067 Y114.192
G0 X119.679 Y109.723
G0 X119.688 Y105.362
G0 X117.647 Y102.752
G0 X117.459 Y102.47
M204 S500
M205 X5 Y5
G1 F1200 X117.747 Y102.051 E2.14019
G1 X117.861 Y101.568 E2.14901
G1 X117.823 Y101.171 E2.1561
G1 X117.614 Y100.713 E2.16505
G1 X117.333 Y100.44 E2.17201
G1 X117.257 Y100.367 E2.17388
G1 X117.163 Y100.323 E2.17573
G1 X116.896 Y100.196 E2.18098
G1 X116.756 Y100.18 E2.18349
G1 X116.408 Y100.14 E2.18971
G1 X116.264 Y100.171 E2.19233
G1 X116.018 Y100.225 E2.19681
G1 X115.872 Y100.313 E2.19984
G1 X115.711 Y100.411 E2.20319
G1 X115.598 Y100.479 E2.20554
G1 X115.34 Y100.784 E2.21264
G1 X115.164 Y101.237 E2.22128
G1 X115.139 Y101.513 E2.2262
G1 X115.194 Y101.891 E2.23299
G1 X115.42 Y102.333 E2.24182
G1 X115.797 Y102.667 E2.25077
G1 X116.165 Y102.821 E2.25786
G1 X116.655 Y102.854 E2.26659
G1 X117.041 Y102.751 E2.27369
G1 X117.459 Y102.47 E2.28265
M204 S625
M205 X6 Y6
G0 F4285.7 X117.572 Y102.306
G0 X117.952 Y102.567
G0 X123.456 Y106.08
G0 X123.861 Y107.161
G0 X123.627 Y108.401
G0 X123.459 Y108.47
M204 S500
M205 X5 Y5
G1 F1200 X123.612 Y108.248 E2.28744
G1 X123.63 Y108.221 E2.28802
G1 X123.747 Y108.051 E2.29168
G1 X123.792 Y107.858 E2.29521
G1 X123.861 Y107.568 E2.30051
G1 X123.844 Y107.389 E2.3037
G1 X123.823 Y107.171 E2.30759
G1 X123.718 Y106.94 E2.31211
G1 X123.614 Y106.713 E2.31654
G1 X123.556 Y106.657 E2.31798
G1 X123.257 Y106.367 E2.32538
G1 X122.896 Y106.196 E2.33248
G1 X122.408 Y106.14 E2.34121
G1 X122.018 Y106.225 E2.34831
G1 X121.598 Y106.479 E2.35703
G1 X121.34 Y106.784 E2.36414
G1 X121.164 Y107.237 E2.37277
G1 X121.139 Y107.513 E2.3777
G1 X121.194 Y107.891 E2.38449
G1 X121.42 Y108.333 E2.39331
G1 X121.797 Y108.667 E2.40227
G1 X122.165 Y108.821 E2.40936
G1 X122.655 Y108.854 E2.41809
G1 X123.041 Y108.751 E2.42519
G1 X123.459 Y108.47 E2.43414
M204 S625
M205 X6 Y6
G0 F4285.7 X123.572 Y108.305
G0 X123.654 Y108.362
G0 X123.291 Y109.004
G0 X119.741 Y109.746
M204 S500
M205 X5 Y5
;TYPE:WALL-INNER
G1 F1200 X119.742 Y105.347 E2.50117
G1 X119.492 Y104.949 E2.50833
G1 X119.02 Y104.486 E2.51841
G1 X118.489 Y104.11 E2.52832
G1 X117.901 Y103.829 E2.53825
G1 X117.276 Y103.648 E2.54816
G1 X116.727 Y103.584 E2.55658
G1 X116.655 Y103.576 E2.55765
G1 X116.629 Y103.573 E2.558
G1 X116.366 Y103.585 E2.56185
G1 X115.979 Y103.604 E2.56775
G1 X115.342 Y103.744 E2.57769
G1 X114.739 Y103.987 E2.58759
G1 X114.185 Y104.326 E2.59749
G1 X113.691 Y104.751 E2.60742
G1 X113.276 Y105.254 E2.61735
G1 X112.95 Y105.816 E2.62725
G1 X112.721 Y106.425 E2.63717
G1 X112.596 Y107.063 E2.64707
G1 X112.588 Y107.331 E2.65116
G1 X112.58 Y107.604 E2.65512
G1 X112.576 Y107.714 E2.65671
G1 X112.583 Y107.766 E2.65749
G1 X112.665 Y108.36 E2.66663
G1 X112.861 Y108.98 E2.67653
G1 X113.154 Y109.561 E2.68645
G1 X113.54 Y110.086 E2.69638
G1 X114.008 Y110.538 E2.70629
G1 X114.544 Y110.907 E2.7162
G1 X115.134 Y111.184 E2.72614
G1 X115.759 Y111.358 E2.73602
G1 X116.279 Y111.415 E2.74399
G1 X116.406 Y111.428 E2.74582
G1 X116.647 Y111.414 E2.74929
G1 X117.057 Y111.39 E2.75554
G1 X117.692 Y111.246 E2.76546
G1 X118.293 Y110.996 E2.77538
G1 X118.845 Y110.652 E2.78529
G1 X119.328 Y110.228 E2.79509
G1 X119.741 Y109.746 E2.80476
M204 S625
M205 X6 Y6
G0 F4285.7 X119.351 Y109.602
M204 S500
M205 X5 Y5
;TYPE:WALL-OUTER
G1 F1200 X119.352 Y105.459 E2.8784
G1 X119.186 Y105.195 E2.88395
G1 X118.769 Y104.786 E2.89433
G1 X118.291 Y104.448 E2.90474
G1 X117.762 Y104.195 E2.91516
G1 X117.199 Y104.032 E2.92558
G1 X116.616 Y103.964 E2.93601
G1 X116.031 Y103.992 E2.94642
G1 X115.458 Y104.118 E2.95685
G1 X114.915 Y104.337 E2.96726
G1 X114.415 Y104.642 E2.97767
G1 X113.971 Y105.025 E2.98809
G1 X113.597 Y105.477 E2.99852
G1 X113.304 Y105.984 E3.00893
G1 X113.097 Y106.532 E3.01934
G1 X112.985 Y107.107 E3.02976
