;START_OF_HEADER
;HEADER_VERSION:0.1
;FLAVOR:Griffin
;GENERATOR.NAME:Cura_SteamEngine
;GENERATOR.VERSION:4.1.0
;GENERATOR.BUILD_DATE:2019-05-28
;TARGET_MACHINE.NAME:Ultimaker 3
;EXTRUDER_TRAIN.0.INITIAL_TEMPERATURE:217
;EXTRUDER_TRAIN.0.MATERIAL.VOLUME_USED:958
;EXTRUDER_TRAIN.0.MATERIAL.GUID:44a029e6-e31b-4c9e-a12f-9282e29a92ff
;EXTRUDER_TRAIN.0.NOZZLE.DIAMETER:0.4
;EXTRUDER_TRAIN.0.NOZZLE.NAME:AA 0.4
;BUILD_PLATE.TYPE:glass
;BUILD_PLATE.INITIAL_TEMPERATURE:60
;BUILD_VOLUME.TEMPERATURE:35
;PRINT.TIME:1328
;PRINT.GROUPS:1
;PRINT.SIZE.MIN.X:9
;PRINT.SIZE.MIN.Y:6
;PRINT.SIZE.MIN.Z:0.27
;PRINT.SIZE.MAX.X:131.162
;PRINT.SIZE.MAX.Y:122.159
;PRINT.SIZE.MAX.Z:11.27
;END_OF_HEADER
;Generated with Cura_SteamEngine 4.1.0
T0
M82 ;absolute extrusion mode

G92 E0
M109 S217
G0 F15000 X9 Y6 Z2
G280
G1 F1500 E-6.5
;LAYER_COUNT:111
;LAYER:0
M107
M204 S625
M205 X6 Y6
G0 F4285.7 X105.72 Y97.568 Z0.27
M204 S500
M205 X5 Y5
;TYPE:SKIRT
G1 F1500 E0
G1 F1200 X106.399 Y96.877 E0.01722
G1 X106.893 Y96.42 E0.02918
G1 X107.28 Y96.096 E0.03816
G1 X107.803 Y95.7 E0.04982
G1 X108.6 Y95.152 E0.06701
G1 X109.17 Y94.799 E0.07893
G1 X109.609 Y94.556 E0.08785
G1 X110.187 Y94.27 E0.09931
G1 X111.076 Y93.881 E0.11656
G1 X111.712 Y93.639 E0.12866
G1 X112.189 Y93.484 E0.13757
G1 X112.805 Y93.315 E0.14893
G1 X113.753 Y93.101 E0.1662
G1 X114.409 Y92.986 E0.17804
G1 X114.907 Y92.923 E0.18696
G1 X115.562 Y92.871 E0.19864
G1 X116.53 Y92.841 E0.21586
G1 X117.188 Y92.852 E0.22756
G1 X117.688 Y92.884 E0.23646
G1 X118.343 Y92.957 E0.24818
G1 X119.303 Y93.111 E0.26546
G1 X119.954 Y93.248 E0.27729
G1 X120.437 Y93.374 E0.28616
G1 X121.067 Y93.571 E0.29789
G1 X121.981 Y93.905 E0.31519
G1 X122.579 Y94.156 E0.32672
G1 X123.031 Y94.371 E0.33562
G1 X123.611 Y94.682 E0.34732
G1 X124.442 Y95.179 E0.36453
G1 X124.999 Y95.549 E0.37642
G1 X125.403 Y95.847 E0.38534
G1 X125.922 Y96.27 E0.39724
G1 X126.644 Y96.919 E0.4145
G1 X127.107 Y97.377 E0.42608
G1 X127.448 Y97.747 E0.43502
G1 X127.866 Y98.245 E0.44658
G1 X128.453 Y99.016 E0.4638
G1 X128.83 Y99.564 E0.47563
G1 X129.094 Y99.99 E0.48454
G1 X129.414 Y100.567 E0.49626
G1 X129.844 Y101.436 E0.5135
G1 X130.111 Y102.047 E0.52535
G1 X130.29 Y102.518 E0.53431
G1 X130.491 Y103.133 E0.54581
G1 X130.749 Y104.066 E0.56302
G1 X130.895 Y104.711 E0.57477
G1 X130.982 Y105.205 E0.58369
G1 X131.066 Y105.864 E0.5955
G1 X131.142 Y106.831 E0.61274
G1 X131.162 Y107.484 E0.62435
G1 X131.154 Y107.986 E0.63328
G1 X131.112 Y108.648 E0.64507
G1 X131.004 Y109.612 E0.66231
G1 X130.895 Y110.284 E0.67441
G1 X130.79 Y110.777 E0.68338
G1 X130.632 Y111.382 E0.69449
G1 X130.346 Y112.306 E0.71168
G1 X130.11 Y112.954 E0.72394
G1 X129.914 Y113.418 E0.7329
G1 X129.637 Y113.996 E0.74429
G1 X129.179 Y114.85 E0.76152
G1 X128.832 Y115.429 E0.77352
G1 X128.553 Y115.846 E0.78243
G1 X128.174 Y116.359 E0.79377
G1 X127.562 Y117.113 E0.81103
G1 X127.123 Y117.605 E0.82276
G1 X126.772 Y117.962 E0.83166
G1 X126.28 Y118.416 E0.84356
G1 X125.535 Y119.04 E0.86083
G1 X125.018 Y119.433 E0.87237
G1 X124.606 Y119.717 E0.88127
G1 X124.038 Y120.069 E0.89315
G1 X123.19 Y120.54 E0.91039
G1 X122.593 Y120.835 E0.92223
G1 X122.134 Y121.035 E0.93113
G1 X121.517 Y121.27 E0.94286
G1 X120.592 Y121.572 E0.96016
G1 X119.991 Y121.738 E0.97124
G1 X119.503 Y121.85 E0.98014
G1 X118.817 Y121.972 E0.99253
G1 X117.854 Y122.093 E1.00978
G1 X117.197 Y122.144 E1.0215
G1 X116.696 Y122.159 E1.03041
G1 X116.046 Y122.148 E1.04196
G1 X115.079 Y122.086 E1.05919
G1 X114.436 Y122.014 E1.07069
G1 X113.938 Y121.935 E1.07965
G1 X113.269 Y121.795 E1.0918
G1 X112.333 Y121.55 E1.109
G1 X111.712 Y121.356 E1.12057
G1 X111.238 Y121.183 E1.12954
G1 X110.636 Y120.93 E1.14114
G1 X109.762 Y120.514 E1.15835
G1 X109.179 Y120.202 E1.1701
G1 X108.75 Y119.945 E1.17899
G1 X108.203 Y119.581 E1.19067
G1 X107.419 Y119.004 E1.20798
G1 X106.883 Y118.566 E1.22028
G1 X106.512 Y118.231 E1.22917
G1 X106.064 Y117.788 E1.24037
G1 X105.405 Y117.074 E1.25764
G1 X104.98 Y116.567 E1.2694
G1 X104.676 Y116.167 E1.27833
G1 X104.304 Y115.626 E1.29
G1 X103.793 Y114.802 E1.30724
G1 X103.462 Y114.205 E1.31937
G1 X103.241 Y113.755 E1.32828
G1 X102.987 Y113.172 E1.33959
G1 X102.641 Y112.266 E1.35682
G1 X102.434 Y111.634 E1.36865
G1 X102.301 Y111.151 E1.37755
G1 X102.158 Y110.517 E1.38911
G1 X101.989 Y109.561 E1.40636
G1 X101.904 Y108.895 E1.4183
G1 X101.865 Y108.396 E1.42719
G1 X101.845 Y107.742 E1.43883
G1 X101.861 Y106.772 E1.45607
G1 X101.903 Y106.113 E1.46781
G1 X101.959 Y105.614 E1.47673
G1 X102.064 Y104.961 E1.48849
G1 X102.264 Y104.01 E1.50577
G1 X102.427 Y103.382 E1.5173
G1 X102.575 Y102.905 E1.52618
G1 X102.805 Y102.275 E1.5381
G1 X103.181 Y101.38 E1.55536
G1 X103.471 Y100.773 E1.56731
G1 X103.709 Y100.332 E1.57622
G1 X104.036 Y99.787 E1.58752
G1 X104.573 Y98.979 E1.60477
G1 X104.974 Y98.436 E1.61676
G1 X105.292 Y98.046 E1.62571
G1 X105.72 Y97.568 E1.63711
M204 S625
M205 X6 Y6
G0 F4285.7 X106.02 Y97.862
M204 S500
M205 X5 Y5
G1 F1200 X106.699 Y97.171 E1.65434
G1 X107.163 Y96.742 E1.66557
G1 X107.55 Y96.418 E1.67454
G1 X108.041 Y96.046 E1.68549
G1 X108.838 Y95.498 E1.70268
G1 X109.373 Y95.166 E1.71388
G1 X109.812 Y94.923 E1.7228
G1 X110.355 Y94.655 E1.73356
G1 X111.244 Y94.266 E1.75081
G1 X111.842 Y94.039 E1.76218
G1 X112.319 Y93.884 E1.7711
G1 X112.898 Y93.725 E1.78177
G1 X113.846 Y93.511 E1.79904
G1 X114.462 Y93.402 E1.81016
G1 X114.96 Y93.339 E1.81909
G1 X115.575 Y93.291 E1.83005
G1 X116.543 Y93.261 E1.84727
G1 X117.161 Y93.271 E1.85826
G1 X117.661 Y93.303 E1.86716
G1 X118.276 Y93.372 E1.87816
G1 X119.236 Y93.526 E1.89545
G1 X119.848 Y93.655 E1.90656
G1 X120.331 Y93.781 E1.91544
G1 X120.922 Y93.965 E1.92644
G1 X121.836 Y94.299 E1.94374
G1 X122.398 Y94.535 E1.95457
G1 X122.85 Y94.75 E1.96347
G1 X123.395 Y95.042 E1.97446
G1 X124.226 Y95.539 E1.99167
G1 X124.749 Y95.887 E2.00284
G1 X125.153 Y96.185 E2.01176
G1 X125.641 Y96.582 E2.02295
G1 X126.363 Y97.231 E2.0402
G1 X126.798 Y97.661 E2.05108
G1 X127.139 Y98.031 E2.06002
G1 X127.532 Y98.499 E2.07088
G1 X128.119 Y99.27 E2.08811
G1 X128.473 Y99.785 E2.09922
G1 X128.737 Y100.211 E2.10813
G1 X129.038 Y100.753 E2.11915
G1 X129.468 Y101.622 E2.13638
G1 X129.718 Y102.196 E2.14751
G1 X129.897 Y102.667 E2.15647
G1 X130.087 Y103.245 E2.16728
G1 X130.345 Y104.178 E2.18449
G1 X130.481 Y104.784 E2.19553
G1 X130.568 Y105.278 E2.20445
G1 X130.647 Y105.897 E2.21554
G1 X130.723 Y106.864 E2.23278
G1 X130.742 Y107.478 E2.2437
G1 X130.734 Y107.98 E2.25263
G1 X130.695 Y108.601 E2.26369
G1 X130.587 Y109.565 E2.28093
G1 X130.484 Y110.196 E2.2923
G1 X130.379 Y110.689 E2.30126
G1 X130.231 Y111.258 E2.31171
G1 X129.945 Y112.182 E2.3289
G1 X129.723 Y112.79 E2.34041
G1 X129.527 Y113.254 E2.34936
G1 X129.267 Y113.798 E2.36008
G1 X128.809 Y114.652 E2.3773
G1 X128.483 Y115.195 E2.38856
G1 X128.204 Y115.612 E2.39748
G1 X127.848 Y116.095 E2.40815
G1 X127.236 Y116.849 E2.42541
G1 X126.823 Y117.31 E2.43641
G1 X126.472 Y117.667 E2.44531
G1 X126.01 Y118.094 E2.45649
G1 X125.265 Y118.718 E2.47377
G1 X124.78 Y119.087 E2.4846
G1 X124.368 Y119.371 E2.4935
G1 X123.834 Y119.702 E2.50467
G1 X122.986 Y120.173 E2.52191
G1 X122.425 Y120.45 E2.53303
G1 X121.966 Y120.65 E2.54193
G1 X121.386 Y120.871 E2.55296
G1 X120.461 Y121.173 E2.57026
G1 X119.897 Y121.329 E2.58066
G1 X119.409 Y121.441 E2.58956
G1 X118.765 Y121.555 E2.60119
G1 X117.802 Y121.676 E2.61844
G1 X117.185 Y121.724 E2.62944
G1 X116.684 Y121.739 E2.63835
G1 X116.072 Y121.729 E2.64923
G1 X115.105 Y121.667 E2.66646
G1 X114.502 Y121.6 E2.67724
G1 X114.004 Y121.521 E2.68621
G1 X113.376 Y121.389 E2.69761
G1 X112.44 Y121.144 E2.71481
G1 X111.856 Y120.961 E2.72569
G1 X111.382 Y120.788 E2.73466
G1 X110.816 Y120.551 E2.74557
G1 X109.942 Y120.135 E2.76277
G1 X109.394 Y119.842 E2.77382
G1 X108.965 Y119.585 E2.78271
G1 X108.452 Y119.243 E2.79367
G1 X107.668 Y118.666 E2.81097
G1 X107.164 Y118.255 E2.82253
G1 X106.793 Y117.92 E2.83142
G1 X106.372 Y117.503 E2.84195
G1 X105.713 Y116.789 E2.85922
G1 X105.314 Y116.313 E2.87026
G1 X105.01 Y115.913 E2.8792
G1 X104.66 Y115.405 E2.89016
G1 X104.149 Y114.581 E2.9074
G1 X103.839 Y114.02 E2.91879
G1 X103.618 Y113.57 E2.9277
G1 X103.379 Y113.023 E2.93831
G1 X103.033 Y112.117 E2.95555
G1 X102.839 Y111.522 E2.96668
G1 X102.706 Y111.039 E2.97558
G1 X102.571 Y110.444 E2.98643
G1 X102.402 Y109.488 E3.00369
G1 X102.323 Y108.862 E3.0149
G1 X102.284 Y108.363 E3.0238
G1 X102.265 Y107.749 E3.03472
G1 X102.281 Y106.779 E3.05196
G1 X102.321 Y106.16 E3.06299
G1 X102.377 Y105.661 E3.07192
G1 X102.475 Y105.047 E3.08297
G1 X102.675 Y104.096 E3.10024
G1 X102.828 Y103.507 E3.11106
G1 X102.976 Y103.03 E3.11994
G1 X103.192 Y102.438 E3.13114
G1 X103.568 Y101.543 E3.1484
G1 X103.841 Y100.972 E3.15965
G1 X104.079 Y100.531 E3.16856
G1 X104.386 Y100.02 E3.17915
G1 X104.923 Y99.212 E3.1964
G1 X105.3 Y98.701 E3.20769
G1 X105.618 Y98.311 E3.21663
G1 X106.02 Y97.862 E3.22734
M204 S625
M205 X6 Y6
G0 F4285.7 X106.319 Y98.157
M204 S500
M205 X5 Y5
G1 F1200 X106.998 Y97.466 E3.24457
G1 X107.433 Y97.064 E3.25509
G1 X107.82 Y96.74 E3.26407
G1 X108.279 Y96.392 E3.27431
G1 X109.076 Y95.844 E3.2915
G1 X109.577 Y95.534 E3.30197
G1 X110.016 Y95.291 E3.31089
G1 X110.524 Y95.04 E3.32096
G1 X111.413 Y94.651 E3.33821
G1 X111.972 Y94.438 E3.34885
G1 X112.449 Y94.283 E3.35776
G1 X112.99 Y94.134 E3.36774
G1 X113.938 Y93.92 E3.38501
G1 X114.515 Y93.819 E3.39542
G1 X115.013 Y93.756 E3.40435
G1 X115.588 Y93.711 E3.4146
G1 X116.556 Y93.681 E3.43182
G1 X117.134 Y93.69 E3.44209
G1 X117.634 Y93.722 E3.451
G1 X118.21 Y93.787 E3.4613
G1 X119.17 Y93.941 E3.47858
G1 X119.742 Y94.061 E3.48897
G1 X120.225 Y94.187 E3.49785
G1 X120.778 Y94.36 E3.50815
G1 X121.692 Y94.694 E3.52545
G1 X122.218 Y94.914 E3.53558
G1 X122.67 Y95.129 E3.54448
G1 X123.18 Y95.402 E3.55476
G1 X124.011 Y95.899 E3.57197
G1 X124.5 Y96.225 E3.58242
G1 X124.904 Y96.523 E3.59134
G1 X125.36 Y96.895 E3.6018
G1 X126.082 Y97.544 E3.61906
G1 X126.489 Y97.946 E3.62923
G1 X126.83 Y98.316 E3.63817
G1 X127.197 Y98.754 E3.64833
G1 X127.784 Y99.525 E3.66556
G1 X128.116 Y100.006 E3.67595
G1 X128.38 Y100.432 E3.68486
G1 X128.661 Y100.939 E3.69516
G1 X129.091 Y101.808 E3.7124
G1 X129.326 Y102.346 E3.72283
G1 X129.505 Y102.817 E3.73179
G1 X129.682 Y103.357 E3.74189
G1 X129.94 Y104.29 E3.7591
G1 X130.068 Y104.857 E3.76943
G1 X130.155 Y105.351 E3.77835
G1 X130.228 Y105.93 E3.78872
G1 X130.304 Y106.897 E3.80596
G1 X130.322 Y107.471 E3.81617
G1 X130.314 Y107.973 E3.8251
G1 X130.277 Y108.554 E3.83544
G1 X130.169 Y109.518 E3.85269
G1 X130.073 Y110.109 E3.86333
G1 X129.968 Y110.602 E3.87229
G1 X129.83 Y111.134 E3.88206
G1 X129.544 Y112.058 E3.89925
G1 X129.336 Y112.627 E3.91002
G1 X129.14 Y113.091 E3.91898
G1 X128.897 Y113.599 E3.92899
G1 X128.439 Y114.453 E3.94621
G1 X128.134 Y114.962 E3.95676
G1 X127.855 Y115.379 E3.96568
G1 X127.521 Y115.83 E3.97566
G1 X126.909 Y116.584 E3.99292
G1 X126.524 Y117.016 E4.0032
G1 X126.173 Y117.373 E4.0121
G1 X125.74 Y117.772 E4.02257
G1 X124.995 Y118.396 E4.03985
G1 X124.541 Y118.741 E4.04998
G1 X124.129 Y119.025 E4.05888
G1 X123.63 Y119.335 E4.06932
G1 X122.782 Y119.806 E4.08656
G1 X122.258 Y120.065 E4.09695
G1 X121.799 Y120.265 E4.10585
G1 X121.256 Y120.471 E4.11618
G1 X120.331 Y120.773 E4.13347
G1 X119.803 Y120.92 E4.14322
G1 X119.315 Y121.032 E4.15212
G1 X118.712 Y121.138 E4.163
G1 X117.749 Y121.259 E4.18025
G1 X117.172 Y121.304 E4.19054
G1 X116.671 Y121.319 E4.19945
G1 X116.099 Y121.31 E4.20962
G1 X115.132 Y121.248 E4.22684
G1 X114.568 Y121.185 E4.23693
G1 X114.07 Y121.106 E4.24589
G1 X113.482 Y120.983 E4.25657
G1 X112.546 Y120.738 E4.27377
G1 X112 Y120.567 E4.28394
G1 X111.526 Y120.394 E4.29291
G1 X110.997 Y120.172 E4.30311
G1 X110.123 Y119.756 E4.32032
G1 X109.61 Y119.481 E4.33066
G1 X109.181 Y119.224 E4.33955
G1 X108.701 Y118.905 E4.3498
G1 X107.917 Y118.328 E4.3671
G1 X107.446 Y117.943 E4.37792
G1 X107.075 Y117.608 E4.3868
G1 X106.681 Y117.218 E4.39666
G1 X106.022 Y116.504 E4.41393
G1 X105.648 Y116.059 E4.42426
G1 X105.344 Y115.659 E4.43319
G1 X105.017 Y115.184 E4.44344
G1 X104.506 Y114.36 E4.46068
G1 X104.216 Y113.835 E4.47134
G1 X103.995 Y113.385 E4.48025
G1 X103.772 Y112.873 E4.49018
G1 X103.426 Y111.967 E4.50742
G1 X103.244 Y111.411 E4.51782
G1 X103.111 Y110.928 E4.52672
G1 X102.985 Y110.371 E4.53687
G1 X102.816 Y109.415 E4.55413
G1 X102.742 Y108.83 E4.56461
G1 X102.703 Y108.331 E4.57351
G1 X102.685 Y107.756 E4.58374
G1 X102.701 Y106.786 E4.60098
G1 X102.738 Y106.207 E4.61129
G1 X102.794 Y105.708 E4.62022
G1 X102.886 Y105.134 E4.63055
G1 X103.086 Y104.183 E4.64783
G1 X103.23 Y103.631 E4.65797
G1 X103.378 Y103.154 E4.66685
G1 X103.579 Y102.6 E4.67732
G1 X103.955 Y101.705 E4.69458
G1 X104.211 Y101.172 E4.70509
G1 X104.449 Y100.731 E4.714
G1 X104.736 Y100.252 E4.72392
G1 X105.273 Y99.444 E4.74117
G1 X105.625 Y98.966 E4.75172
G1 X105.943 Y98.576 E4.76067
G1 X106.319 Y98.157 E4.77068
M204 S625
M205 X6 Y6
G0 F4285.7 X106.619 Y98.451
M204 S500
M205 X5 Y5
G1 F1200 X107.298 Y97.76 E4.7879
G1 X107.702 Y97.386 E4.79768
G1 X108.089 Y97.062 E4.80665
G1 X108.517 Y96.738 E4.8162
G1 X109.314 Y96.19 E4.83339
G1 X109.78 Y95.901 E4.84314
G1 X110.219 Y95.658 E4.85206
G1 X110.692 Y95.425 E4.86143
G1 X111.581 Y95.036 E4.87868
G1 X112.102 Y94.838 E4.88859
G1 X112.579 Y94.683 E4.8975
G1 X113.082 Y94.544 E4.90678
G1 X114.03 Y94.33 E4.92405
G1 X114.567 Y94.236 E4.93374
G1 X115.065 Y94.173 E4.94267
G1 X115.601 Y94.131 E4.95222
G1 X116.569 Y94.101 E4.96944
G1 X117.107 Y94.11 E4.97901
G1 X117.607 Y94.142 E4.98791
G1 X118.143 Y94.202 E4.9975
G1 X119.103 Y94.356 E5.01478
G1 X119.636 Y94.468 E5.02446
G1 X120.119 Y94.594 E5.03334
G1 X120.634 Y94.754 E5.04292
G1 X121.548 Y95.088 E5.06022
G1 X122.038 Y95.294 E5.06967
G1 X122.49 Y95.509 E5.07857
G1 X122.964 Y95.763 E5.08813
G1 X123.795 Y96.26 E5.10534
G1 X124.251 Y96.563 E5.11507
G1 X124.655 Y96.861 E5.12399
G1 X125.079 Y97.207 E5.13372
G1 X125.801 Y97.856 E5.15098
G1 X126.18 Y98.23 E5.16044
G1 X126.521 Y98.6 E5.16939
G1 X126.863 Y99.008 E5.17885
G1 X127.45 Y99.779 E5.19608
G1 X127.759 Y100.227 E5.20575
G1 X128.023 Y100.653 E5.21466
G1 X128.285 Y101.125 E5.22426
G1 X128.715 Y101.994 E5.24149
G1 X128.933 Y102.495 E5.2512
G1 X129.112 Y102.966 E5.26016
G1 X129.277 Y103.469 E5.26957
G1 X129.535 Y104.402 E5.28678
G1 X129.654 Y104.93 E5.2964
G1 X129.741 Y105.424 E5.30532
G1 X129.81 Y105.963 E5.31498
G1 X129.886 Y106.93 E5.33222
G1 X129.902 Y107.464 E5.34171
G1 X129.894 Y107.966 E5.35064
G1 X129.86 Y108.507 E5.36028
G1 X129.752 Y109.471 E5.37752
G1 X129.663 Y110.021 E5.38742
G1 X129.558 Y110.514 E5.39638
G1 X129.428 Y111.01 E5.4055
G1 X129.142 Y111.934 E5.42269
G1 X128.949 Y112.463 E5.4327
G1 X128.753 Y112.927 E5.44165
G1 X128.527 Y113.401 E5.45099
G1 X128.069 Y114.255 E5.46822
G1 X127.785 Y114.728 E5.47802
G1 X127.506 Y115.145 E5.48694
G1 X127.195 Y115.565 E5.49623
G1 X126.583 Y116.319 E5.51349
G1 X126.224 Y116.721 E5.52307
G1 X125.873 Y117.078 E5.53197
G1 X125.471 Y117.45 E5.54171
G1 X124.726 Y118.074 E5.55898
G1 X124.303 Y118.395 E5.56842
G1 X123.891 Y118.679 E5.57732
G1 X123.426 Y118.968 E5.58705
G1 X122.578 Y119.439 E5.60429
G1 X122.09 Y119.68 E5.61397
G1 X121.631 Y119.88 E5.62287
G1 X121.126 Y120.072 E5.63247
G1 X120.201 Y120.374 E5.64977
G1 X119.709 Y120.51 E5.65884
G1 X119.221 Y120.622 E5.66774
G1 X118.66 Y120.722 E5.67787
G1 X117.697 Y120.843 E5.69513
G1 X117.16 Y120.884 E5.7047
G1 X116.659 Y120.899 E5.71361
G1 X116.126 Y120.89 E5.72309
G1 X115.159 Y120.828 E5.74031
G1 X114.634 Y120.77 E5.7497
G1 X114.136 Y120.691 E5.75866
G1 X113.588 Y120.576 E5.76862
G1 X112.652 Y120.331 E5.78581
G1 X112.144 Y120.172 E5.79528
G1 X111.67 Y119.999 E5.80425
G1 X111.177 Y119.793 E5.81374
G1 X110.303 Y119.377 E5.83095
G1 X109.826 Y119.121 E5.84057
G1 X109.397 Y118.864 E5.84946
G1 X108.95 Y118.567 E5.859
G1 X108.166 Y117.99 E5.87631
G1 X107.727 Y117.631 E5.88639
G1 X107.356 Y117.296 E5.89527
G1 X106.989 Y116.934 E5.90444
G1 X106.33 Y116.22 E5.92171
G1 X105.983 Y115.805 E5.93132
G1 X105.679 Y115.405 E5.94026
G1 X105.374 Y114.962 E5.94982
G1 X104.863 Y114.138 E5.96705
G1 X104.593 Y113.649 E5.97698
G1 X104.372 Y113.199 E5.98589
G1 X104.164 Y112.723 E5.99513
G1 X103.818 Y111.817 E6.01237
