;START_OF_HEADER
;HEADER_VERSION:0.1
;FLAVOR:Griffin
;GENERATOR.NAME:Cura_SteamEngine
;GENERATOR.VERSION:3.6.0
;GENERATOR.BUILD_DATE:2018-11-12
;TARGET_MACHINE.NAME:Ultimaker 3
;EXTRUDER_TRAIN.0.INITIAL_TEMPERATURE:205
;EXTRUDER_TRAIN.0.MATERIAL.VOLUME_USED:956
;EXTRUDER_TRAIN.0.MATERIAL.GUID:506c9f0d-e3aa-4bd4-b2d2-23e2425b1aa9
;EXTRUDER_TRAIN.0.NOZZLE.DIAMETER:0.4
;EXTRUDER_TRAIN.0.NOZZLE.NAME:AA 0.4
;BUILD_PLATE.TYPE:glass
;BUILD_PLATE.INITIAL_TEMPERATURE:60
;PRINT.TIME:1190
;PRINT.SIZE.MIN.X:9
;PRINT.SIZE.MIN.Y:6
;PRINT.SIZE.MIN.Z:0.27
;PRINT.SIZE.MAX.X:126.981
;PRINT.SIZE.MAX.Y:130.94
;PRINT.SIZE.MAX.Z:4.87
;END_OF_HEADER
;Generated with Cura_SteamEngine 3.6.0
T0
M82 ;absolute extrusion mode

G92 E0
M109 S205
G0 F15000 X9 Y6 Z2
G280
G1 F1500 E-6.5
;LAYER_COUNT:36
;LAYER:0
M107
M204 S625
M205 X6 Y6
G0 F4285.7 X107.41 Y86.948 Z0.27
M204 S500
M205 X5 Y5
;TYPE:SKIRT
G1 F1500 E0
G1 F1200 X108.049 Y86.213 E0.01731
G1 X108.172 Y86.09 E0.0204
G1 X108.726 Y85.592 E0.03365
G1 X109.33 Y85.157 E0.04688
G1 X109.977 Y84.79 E0.0601
G1 X110.659 Y84.493 E0.07332
G1 X111.37 Y84.272 E0.08656
G1 X112.1 Y84.128 E0.09979
G1 X113.072 Y84.06 E0.11711
G1 X119.927 Y84.06 E0.23896
G1 X120.67 Y84.1 E0.25219
G1 X121.405 Y84.219 E0.26542
G1 X122.123 Y84.417 E0.27866
G1 X122.815 Y84.69 E0.29189
G1 X123.474 Y85.036 E0.30512
G1 X124.092 Y85.451 E0.31835
G1 X124.827 Y86.09 E0.33566
G1 X124.95 Y86.213 E0.33875
G1 X125.448 Y86.767 E0.352
G1 X125.883 Y87.371 E0.36523
G1 X126.25 Y88.018 E0.37845
G1 X126.547 Y88.7 E0.39167
G1 X126.768 Y89.411 E0.40491
G1 X126.912 Y90.141 E0.41813
G1 X126.98 Y91.113 E0.43545
G1 X126.981 Y123.887 E1.01804
G1 X126.941 Y124.63 E1.03127
G1 X126.822 Y125.365 E1.04451
G1 X126.624 Y126.082 E1.05773
G1 X126.351 Y126.775 E1.07097
G1 X126.005 Y127.434 E1.0842
G1 X125.59 Y128.052 E1.09743
G1 X124.951 Y128.787 E1.11474
G1 X124.828 Y128.91 E1.11784
G1 X124.274 Y129.408 E1.13108
G1 X123.67 Y129.843 E1.14431
G1 X123.023 Y130.21 E1.15753
G1 X122.341 Y130.507 E1.17076
G1 X121.63 Y130.728 E1.18399
G1 X120.9 Y130.872 E1.19722
G1 X119.928 Y130.94 E1.21454
G1 X113.073 Y130.94 E1.33639
G1 X112.33 Y130.9 E1.34962
G1 X111.595 Y130.781 E1.36285
G1 X110.877 Y130.583 E1.37609
G1 X110.185 Y130.31 E1.38932
G1 X109.526 Y129.964 E1.40255
G1 X108.908 Y129.549 E1.41578
G1 X108.173 Y128.91 E1.43309
G1 X108.05 Y128.787 E1.43619
G1 X107.552 Y128.233 E1.44943
G1 X107.117 Y127.629 E1.46266
G1 X106.75 Y126.982 E1.47588
G1 X106.453 Y126.3 E1.4891
G1 X106.232 Y125.589 E1.50234
G1 X106.088 Y124.859 E1.51557
G1 X106.02 Y123.887 E1.53289
G1 X106.019 Y91.113 E2.11548
G1 X106.059 Y90.37 E2.1287
G1 X106.178 Y89.635 E2.14194
G1 X106.376 Y88.918 E2.15516
G1 X106.649 Y88.225 E2.1684
G1 X106.995 Y87.566 E2.18163
G1 X107.41 Y86.948 E2.19486
M204 S625
M205 X6 Y6
G0 F4285.7 X107.827 Y87.095
M204 S500
M205 X5 Y5
G1 F1200 X108.346 Y86.51 E2.20877
G1 X108.469 Y86.387 E2.21186
G1 X109.006 Y85.906 E2.22467
G1 X109.594 Y85.487 E2.23751
G1 X110.224 Y85.136 E2.25033
G1 X110.889 Y84.857 E2.26315
G1 X111.581 Y84.653 E2.27597
G1 X112.291 Y84.527 E2.28879
G1 X113.072 Y84.48 E2.3027
G1 X119.927 Y84.48 E2.42455
G1 X120.647 Y84.52 E2.43737
G1 X121.359 Y84.639 E2.4502
G1 X122.053 Y84.837 E2.46303
G1 X122.72 Y85.11 E2.47584
G1 X123.354 Y85.455 E2.48867
G1 X123.945 Y85.868 E2.50149
G1 X124.53 Y86.387 E2.51539
G1 X124.653 Y86.51 E2.51848
G1 X125.134 Y87.047 E2.5313
G1 X125.553 Y87.635 E2.54413
G1 X125.904 Y88.265 E2.55695
G1 X126.183 Y88.93 E2.56977
G1 X126.387 Y89.622 E2.5826
G1 X126.513 Y90.332 E2.59541
G1 X126.56 Y91.113 E2.60932
G1 X126.561 Y123.887 E3.19191
G1 X126.521 Y124.607 E3.20473
G1 X126.402 Y125.319 E3.21756
G1 X126.204 Y126.012 E3.23037
G1 X125.931 Y126.68 E3.2432
G1 X125.586 Y127.314 E3.25603
G1 X125.173 Y127.905 E3.26885
G1 X124.654 Y128.49 E3.28275
G1 X124.531 Y128.613 E3.28584
G1 X123.994 Y129.094 E3.29866
G1 X123.406 Y129.513 E3.31149
G1 X122.776 Y129.864 E3.32431
G1 X122.111 Y130.143 E3.33713
G1 X121.419 Y130.347 E3.34996
G1 X120.709 Y130.473 E3.36277
G1 X119.928 Y130.52 E3.37668
G1 X113.073 Y130.52 E3.49854
G1 X112.353 Y130.48 E3.51135
G1 X111.641 Y130.361 E3.52419
G1 X110.947 Y130.163 E3.53702
G1 X110.28 Y129.89 E3.54983
G1 X109.646 Y129.545 E3.56266
G1 X109.055 Y129.132 E3.57547
G1 X108.47 Y128.613 E3.58938
G1 X108.347 Y128.49 E3.59247
G1 X107.866 Y127.953 E3.60528
G1 X107.447 Y127.365 E3.61812
G1 X107.096 Y126.735 E3.63094
G1 X106.817 Y126.07 E3.64376
G1 X106.613 Y125.378 E3.65658
G1 X106.487 Y124.668 E3.6694
G1 X106.44 Y123.887 E3.68331
G1 X106.439 Y91.113 E4.2659
G1 X106.479 Y90.393 E4.27871
G1 X106.598 Y89.681 E4.29155
G1 X106.796 Y88.988 E4.30436
G1 X107.069 Y88.32 E4.31719
G1 X107.414 Y87.686 E4.33002
G1 X107.827 Y87.095 E4.34283
M204 S625
M205 X6 Y6
G0 F4285.7 X108.243 Y87.247
M204 S500
M205 X5 Y5
G1 F1200 X108.643 Y86.807 E4.3534
G1 X108.766 Y86.684 E4.3565
G1 X109.287 Y86.219 E4.36891
G1 X109.857 Y85.818 E4.3813
G1 X110.47 Y85.484 E4.39371
G1 X111.117 Y85.222 E4.40612
G1 X111.789 Y85.037 E4.4185
G1 X112.478 Y84.929 E4.4309
G1 X113.072 Y84.9 E4.44147
G1 X119.927 Y84.9 E4.56333
G1 X120.624 Y84.94 E4.57574
G1 X121.311 Y85.059 E4.58813
G1 X121.98 Y85.257 E4.60053
G1 X122.623 Y85.529 E4.61294
G1 X123.229 Y85.873 E4.62533
G1 X123.793 Y86.285 E4.63775
G1 X124.233 Y86.684 E4.64831
G1 X124.356 Y86.807 E4.6514
G1 X124.821 Y87.328 E4.66381
G1 X125.222 Y87.898 E4.6762
G1 X125.556 Y88.511 E4.68861
G1 X125.818 Y89.158 E4.70102
G1 X126.003 Y89.83 E4.71341
G1 X126.111 Y90.519 E4.7258
G1 X126.14 Y91.113 E4.73638
G1 X126.141 Y123.887 E5.31897
G1 X126.101 Y124.583 E5.33136
G1 X125.982 Y125.271 E5.34377
G1 X125.784 Y125.94 E5.35617
G1 X125.512 Y126.582 E5.36857
G1 X125.168 Y127.189 E5.38097
G1 X124.757 Y127.753 E5.39337
G1 X124.357 Y128.193 E5.40394
G1 X124.234 Y128.316 E5.40704
G1 X123.713 Y128.781 E5.41945
G1 X123.143 Y129.182 E5.43184
G1 X122.53 Y129.516 E5.44425
G1 X121.883 Y129.778 E5.45666
G1 X121.211 Y129.963 E5.46905
G1 X120.522 Y130.071 E5.48144
G1 X119.928 Y130.1 E5.49201
G1 X113.073 Y130.1 E5.61387
G1 X112.376 Y130.06 E5.62628
G1 X111.689 Y129.941 E5.63867
G1 X111.02 Y129.743 E5.65107
G1 X110.377 Y129.471 E5.66348
G1 X109.771 Y129.127 E5.67587
G1 X109.207 Y128.715 E5.68829
G1 X108.767 Y128.316 E5.69885
G1 X108.644 Y128.193 E5.70194
G1 X108.179 Y127.672 E5.71435
G1 X107.778 Y127.102 E5.72674
G1 X107.444 Y126.489 E5.73915
G1 X107.182 Y125.842 E5.75156
G1 X106.997 Y125.17 E5.76395
G1 X106.889 Y124.481 E5.77634
G1 X106.86 Y123.887 E5.78692
G1 X106.859 Y91.113 E6.36951
G1 X106.899 Y90.417 E6.3819
G1 X107.018 Y89.729 E6.39431
G1 X107.216 Y89.06 E6.40671
G1 X107.488 Y88.418 E6.41911
G1 X107.832 Y87.811 E6.43151
G1 X108.243 Y87.247 E6.44391
M204 S625
M205 X6 Y6
G0 F4285.7 X108.25 Y87.94
M204 S500
M205 X5 Y5
G1 F1200 X108.659 Y87.405 E6.45588
G1 X108.94 Y87.104 E6.4632
G1 X109.063 Y86.981 E6.4663
G1 X109.566 Y86.534 E6.47826
G1 X110.119 Y86.15 E6.49023
G1 X110.714 Y85.834 E6.5022
G1 X111.341 Y85.591 E6.51415
G1 X111.993 Y85.424 E6.52612
G1 X112.661 Y85.335 E6.5381
G1 X113.072 Y85.32 E6.54541
G1 X119.927 Y85.32 E6.66726
G1 X120.599 Y85.36 E6.67923
G1 X121.262 Y85.479 E6.6912
G1 X121.905 Y85.676 E6.70316
G1 X122.521 Y85.948 E6.71513
G1 X123.1 Y86.291 E6.72709
G1 X123.635 Y86.7 E6.73906
G1 X123.936 Y86.981 E6.74638
G1 X124.059 Y87.104 E6.74947
G1 X124.506 Y87.607 E6.76144
G1 X124.89 Y88.16 E6.7734
G1 X125.206 Y88.755 E6.78538
G1 X125.449 Y89.382 E6.79733
G1 X125.616 Y90.034 E6.8093
G1 X125.705 Y90.702 E6.82128
G1 X125.72 Y91.113 E6.82859
G1 X125.721 Y123.887 E7.41118
G1 X125.681 Y124.559 E7.42314
G1 X125.562 Y125.221 E7.4351
G1 X125.365 Y125.865 E7.44707
G1 X125.093 Y126.481 E7.45904
G1 X124.75 Y127.06 E7.471
G1 X124.341 Y127.595 E7.48297
G1 X124.06 Y127.896 E7.49029
G1 X123.937 Y128.019 E7.49339
G1 X123.434 Y128.466 E7.50535
G1 X122.881 Y128.85 E7.51732
G1 X122.286 Y129.166 E7.52929
G1 X121.659 Y129.409 E7.54124
G1 X121.007 Y129.576 E7.55321
G1 X120.339 Y129.665 E7.56519
G1 X119.928 Y129.68 E7.5725
G1 X113.073 Y129.68 E7.69435
G1 X112.401 Y129.64 E7.70632
G1 X111.738 Y129.521 E7.71829
G1 X111.095 Y129.324 E7.73025
G1 X110.479 Y129.052 E7.74222
G1 X109.9 Y128.709 E7.75418
G1 X109.365 Y128.3 E7.76615
G1 X109.064 Y128.019 E7.77347
G1 X108.941 Y127.896 E7.77656
G1 X108.494 Y127.393 E7.78852
G1 X108.11 Y126.84 E7.80049
G1 X107.794 Y126.245 E7.81247
G1 X107.551 Y125.618 E7.82442
G1 X107.384 Y124.966 E7.83639
G1 X107.295 Y124.298 E7.84836
G1 X107.28 Y123.887 E7.85568
G1 X107.279 Y91.113 E8.43827
G1 X107.319 Y90.441 E8.45023
G1 X107.438 Y89.779 E8.46219
G1 X107.635 Y89.135 E8.47416
G1 X107.907 Y88.519 E8.48613
G1 X108.25 Y87.94 E8.49809
M204 S625
M205 X6 Y6
G0 F4285.7 X108.668 Y88.074
M204 S500
M205 X5 Y5
G1 F1200 X109.237 Y87.401 E8.51376
G1 X109.36 Y87.278 E8.51685
G1 X109.845 Y86.849 E8.52836
G1 X110.38 Y86.483 E8.53988
G1 X110.955 Y86.186 E8.55139
G1 X111.563 Y85.962 E8.56291
G1 X112.194 Y85.814 E8.57443
G1 X113.072 Y85.74 E8.59009
G1 X119.927 Y85.74 E8.71194
G1 X120.574 Y85.78 E8.72347
G1 X121.21 Y85.899 E8.73497
G1 X121.827 Y86.096 E8.74648
G1 X122.416 Y86.367 E8.75801
G1 X122.966 Y86.709 E8.76952
G1 X123.639 Y87.278 E8.78519
G1 X123.762 Y87.401 E8.78828
G1 X124.191 Y87.886 E8.79979
G1 X124.557 Y88.421 E8.81131
G1 X124.854 Y88.996 E8.82281
G1 X125.078 Y89.604 E8.83433
G1 X125.226 Y90.235 E8.84585
G1 X125.3 Y91.113 E8.86152
G1 X125.301 Y123.887 E9.44411
G1 X125.261 Y124.533 E9.45561
G1 X125.142 Y125.17 E9.46713
G1 X124.945 Y125.787 E9.47864
G1 X124.674 Y126.375 E9.49015
G1 X124.332 Y126.926 E9.50168
G1 X123.763 Y127.599 E9.51735
G1 X123.64 Y127.722 E9.52044
G1 X123.155 Y128.151 E9.53195
G1 X122.62 Y128.517 E9.54347
G1 X122.045 Y128.814 E9.55498
G1 X121.437 Y129.038 E9.56649
G1 X120.806 Y129.186 E9.57801
G1 X119.928 Y129.26 E9.59368
G1 X113.073 Y129.26 E9.71553
G1 X112.426 Y129.22 E9.72705
G1 X111.79 Y129.101 E9.73856
G1 X111.173 Y128.904 E9.75007
G1 X110.584 Y128.633 E9.76159
G1 X110.034 Y128.291 E9.77311
G1 X109.361 Y127.722 E9.78877
G1 X109.238 Y127.599 E9.79186
G1 X108.809 Y127.114 E9.80338
G1 X108.443 Y126.579 E9.8149
G1 X108.146 Y126.004 E9.8264
G1 X107.922 Y125.396 E9.83792
G1 X107.774 Y124.765 E9.84944
G1 X107.7 Y123.887 E9.8651
G1 X107.699 Y91.113 E10.44769
G1 X107.739 Y90.467 E10.4592
G1 X107.858 Y89.83 E10.47072
G1 X108.055 Y89.213 E10.48223
G1 X108.326 Y88.625 E10.49374
G1 X108.668 Y88.074 E10.50527
M204 S625
M205 X6 Y6
G0 F4285.7 X109.085 Y88.215
M204 S500
M205 X5 Y5
G1 F1200 X109.534 Y87.698 E10.51744
G1 X109.657 Y87.575 E10.52053
G1 X110.123 Y87.165 E10.53157
G1 X110.639 Y86.818 E10.54262
G1 X111.195 Y86.54 E10.55367
G1 X111.781 Y86.336 E10.5647
G1 X112.389 Y86.208 E10.57574
G1 X113.072 Y86.16 E10.58791
G1 X119.927 Y86.16 E10.70977
G1 X120.547 Y86.2 E10.72081
G1 X121.157 Y86.319 E10.73186
G1 X121.746 Y86.516 E10.7429
G1 X122.305 Y86.786 E10.75394
G1 X122.825 Y87.126 E10.76498
G1 X123.342 Y87.575 E10.77715
G1 X123.465 Y87.698 E10.78024
G1 X123.875 Y88.164 E10.79128
G1 X124.222 Y88.68 E10.80233
G1 X124.5 Y89.236 E10.81338
G1 X124.704 Y89.822 E10.82441
G1 X124.832 Y90.43 E10.83546
G1 X124.88 Y91.113 E10.84763
G1 X124.881 Y123.887 E11.43022
G1 X124.841 Y124.507 E11.44126
G1 X124.722 Y125.117 E11.45231
G1 X124.525 Y125.706 E11.46335
G1 X124.255 Y126.265 E11.47438
G1 X123.915 Y126.785 E11.48543
G1 X123.466 Y127.302 E11.4976
G1 X123.343 Y127.425 E11.50069
G1 X122.877 Y127.835 E11.51173
G1 X122.361 Y128.182 E11.52278
G1 X121.805 Y128.46 E11.53383
G1 X121.219 Y128.664 E11.54486
G1 X120.611 Y128.792 E11.5559
G1 X119.928 Y128.84 E11.56807
G1 X113.073 Y128.84 E11.68993
G1 X112.453 Y128.8 E11.70097
G1 X111.843 Y128.681 E11.71202
G1 X111.254 Y128.484 E11.72306
G1 X110.695 Y128.214 E11.7341
G1 X110.175 Y127.874 E11.74514
G1 X109.658 Y127.425 E11.75731
G1 X109.535 Y127.302 E11.7604
G1 X109.125 Y126.836 E11.77144
G1 X108.778 Y126.32 E11.78249
G1 X108.5 Y125.764 E11.79354
G1 X108.296 Y125.178 E11.80457
G1 X108.168 Y124.57 E11.81562
G1 X108.12 Y123.887 E11.82779
G1 X108.119 Y91.113 E12.41038
G1 X108.159 Y90.493 E12.42142
G1 X108.278 Y89.883 E12.43247
G1 X108.475 Y89.294 E12.44351
G1 X108.745 Y88.735 E12.45454
G1 X109.085 Y88.215 E12.46559
M204 S625
M205 X6 Y6
G0 F4285.7 X109.502 Y88.362
M204 S500
M205 X5 Y5
G1 F1200 X109.831 Y87.995 E12.47435
G1 X109.954 Y87.872 E12.47744
G1 X110.401 Y87.481 E12.488
G1 X110.896 Y87.154 E12.49854
G1 X111.431 Y86.897 E12.50909
G1 X111.996 Y86.713 E12.51966
G1 X112.58 Y86.608 E12.5302
G1 X113.072 Y86.58 E12.53896
G1 X119.927 Y86.58 E12.66082
G1 X120.519 Y86.62 E12.67137
G1 X121.101 Y86.739 E12.68193
G1 X121.661 Y86.935 E12.69247
G1 X122.19 Y87.205 E12.70303
G1 X122.678 Y87.543 E12.71358
G1 X123.045 Y87.872 E12.72234
G1 X123.168 Y87.995 E12.72544
G1 X123.559 Y88.442 E12.73599
G1 X123.886 Y88.937 E12.74654
G1 X124.143 Y89.472 E12.75709
G1 X124.327 Y90.037 E12.76765
G1 X124.432 Y90.621 E12.7782
G1 X124.46 Y91.113 E12.78696
G1 X124.461 Y123.887 E13.36955
G1 X124.421 Y124.479 E13.3801
G1 X124.302 Y125.061 E13.39066
G1 X124.106 Y125.621 E13.4012
G1 X123.836 Y126.15 E13.41176
G1 X123.498 Y126.638 E13.42231
G1 X123.169 Y127.005 E13.43107
G1 X123.046 Y127.128 E13.43417
G1 X122.599 Y127.519 E13.44472
G1 X122.104 Y127.846 E13.45527
G1 X121.569 Y128.103 E13.46582
G1 X121.004 Y128.287 E13.47638
G1 X120.42 Y128.392 E13.48693
G1 X119.928 Y128.42 E13.49569
G1 X113.073 Y128.42 E13.61754
G1 X112.481 Y128.38 E13.62809
G1 X111.899 Y128.261 E13.63865
G1 X111.339 Y128.065 E13.6492
G1 X110.81 Y127.795 E13.65975
G1 X110.322 Y127.457 E13.67031
G1 X109.955 Y127.128 E13.67907
G1 X109.832 Y127.005 E13.68216
G1 X109.441 Y126.558 E13.69272
G1 X109.114 Y126.063 E13.70326
G1 X108.857 Y125.528 E13.71381
G1 X108.673 Y124.963 E13.72438
G1 X108.568 Y124.379 E13.73492
G1 X108.54 Y123.887 E13.74368
G1 X108.539 Y91.113 E14.32627
G1 X108.579 Y90.521 E14.33682
G1 X108.698 Y89.939 E14.34738
G1 X108.894 Y89.379 E14.35793
G1 X109.164 Y88.85 E14.36848
G1 X109.502 Y88.362 E14.37904
M204 S625
M205 X6 Y6
G0 F4285.7 X109.918 Y88.518
M204 S500
M205 X5 Y5
G1 F1200 X110.128 Y88.292 E14.38452
G1 X110.251 Y88.169 E14.38761
G1 X110.677 Y87.799 E14.39764
G1 X111.152 Y87.493 E14.40769
G1 X111.665 Y87.256 E14.41773
G1 X112.206 Y87.095 E14.42777
G1 X112.764 Y87.012 E14.43779
G1 X113.072 Y87 E14.44327
G1 X119.927 Y87 E14.56513
G1 X120.49 Y87.04 E14.57516
G1 X121.042 Y87.159 E14.5852
G1 X121.572 Y87.355 E14.59524
G1 X122.068 Y87.623 E14.60526
G1 X122.522 Y87.959 E14.6153
G1 X122.748 Y88.169 E14.62079
G1 X122.871 Y88.292 E14.62388
G1 X123.241 Y88.718 E14.63391
G1 X123.547 Y89.193 E14.64395
G1 X123.784 Y89.706 E14.654
G1 X123.945 Y90.247 E14.66403
G1 X124.028 Y90.805 E14.67406
G1 X124.04 Y91.113 E14.67954
G1 X124.041 Y123.887 E15.26213
G1 X124.001 Y124.45 E15.27216
G1 X123.882 Y125.002 E15.2822
G1 X123.686 Y125.532 E15.29225
G1 X123.418 Y126.028 E15.30227
G1 X123.082 Y126.482 E15.31231
G1 X122.872 Y126.708 E15.31779
G1 X122.749 Y126.831 E15.32088
G1 X122.323 Y127.201 E15.33091
G1 X121.848 Y127.507 E15.34096
G1 X121.335 Y127.744 E15.351
G1 X120.794 Y127.905 E15.36104
G1 X120.236 Y127.988 E15.37106
G1 X119.928 Y128 E15.37654
G1 X113.073 Y128 E15.4984
G1 X112.51 Y127.96 E15.50843
G1 X111.958 Y127.841 E15.51847
G1 X111.428 Y127.645 E15.52851
G1 X110.932 Y127.377 E15.53854
G1 X110.478 Y127.041 E15.54858
G1 X110.252 Y126.831 E15.55406
G1 X110.129 Y126.708 E15.55715
G1 X109.759 Y126.282 E15.56718
G1 X109.453 Y125.807 E15.57723
G1 X109.216 Y125.294 E15.58727
G1 X109.055 Y124.753 E15.5973
G1 X108.972 Y124.195 E15.60733
G1 X108.96 Y123.887 E15.61281
G1 X108.959 Y91.113 E16.1954
G1 X108.999 Y90.55 E16.20543
G1 X109.118 Y89.998 E16.21547
G1 X109.314 Y89.468 E16.22552
G1 X109.582 Y88.972 E16.23554
G1 X109.918 Y88.518 E16.24558
M204 S625
M205 X6 Y6
G0 F4285.7 X110 Y89.1
M204 S500
M205 X5 Y5
G1 F1200 X110.425 Y88.589 E16.25739
G1 X110.548 Y88.466 E16.26049
G1 X110.952 Y88.117 E16.26998
G1 X111.405 Y87.833 E16.27948
G1 X111.894 Y87.62 E16.28896
G1 X112.41 Y87.482 E16.29846
G1 X113.072 Y87.42 E16.31028
G1 X119.927 Y87.42 E16.43213
G1 X120.46 Y87.46 E16.44163
G1 X120.98 Y87.579 E16.45111
G1 X121.477 Y87.774 E16.4606
G1 X121.94 Y88.041 E16.4701
G1 X122.451 Y88.466 E16.48192
G1 X122.574 Y88.589 E16.48501
