;START_OF_HEADER
;HEADER_VERSION:0.1
;FLAVOR:Griffin
;GENERATOR.NAME:Cura_SteamEngine
;GENERATOR.VERSION:3.6.0
;GENERATOR.BUILD_DATE:2018-11-12
;TARGET_MACHINE.NAME:Ultimaker 3
;EXTRUDER_TRAIN.0.INITIAL_TEMPERATURE:217
;EXTRUDER_TRAIN.0.MATERIAL.VOLUME_USED:3343
;EXTRUDER_TRAIN.0.MATERIAL.GUID:44a029e6-e31b-4c9e-a12f-9282e29a92ff
;EXTRUDER_TRAIN.0.NOZZLE.DIAMETER:0.4
;EXTRUDER_TRAIN.0.NOZZLE.NAME:AA 0.4
;BUILD_PLATE.TYPE:glass
;BUILD_PLATE.INITIAL_TEMPERATURE:60
;PRINT.TIME:3978
;PRINT.SIZE.MIN.X:9
;PRINT.SIZE.MIN.Y:6
;PRINT.SIZE.MIN.Z:0.27
;PRINT.SIZE.MAX.X:131.05
;PRINT.SIZE.MAX.Y:125.722
;PRINT.SIZE.MAX.Z:7.87
;END_OF_HEADER
;Generated with Cura_SteamEngine 3.6.0
T0
M82 ;absolute extrusion mode

G92 E0
M109 S217
G0 F15000 X9 Y6 Z2
G280
G1 F1500 E-6.5
;LAYER_COUNT:78
;LAYER:0
M107
M204 S625
M205 X6 Y6
G0 F4285.7 X68.961 Y50.779 Z0.27
M204 S500
M205 X5 Y5
;TYPE:SKIRT
G1 F1500 E0
G1 F1200 X69.6 Y50.044 E0.01731
G1 X69.723 Y49.921 E0.0204
G1 X70.277 Y49.423 E0.03365
G1 X70.881 Y48.988 E0.04688
G1 X71.528 Y48.621 E0.0601
G1 X72.21 Y48.324 E0.07332
G1 X72.921 Y48.103 E0.08656
G1 X73.651 Y47.959 E0.09979
G1 X74.623 Y47.891 E0.11711
G1 X114.377 Y47.891 E0.82377
G1 X115.12 Y47.931 E0.837
G1 X115.855 Y48.05 E0.85023
G1 X116.573 Y48.248 E0.86347
G1 X117.265 Y48.521 E0.8767
G1 X117.924 Y48.867 E0.88993
G1 X118.542 Y49.282 E0.90316
G1 X119.277 Y49.921 E0.92047
G1 X119.4 Y50.044 E0.92357
G1 X119.898 Y50.598 E0.93681
G1 X120.333 Y51.202 E0.95004
G1 X120.7 Y51.849 E0.96326
G1 X120.997 Y52.531 E0.97648
G1 X121.218 Y53.242 E0.98972
G1 X121.362 Y53.972 E1.00295
G1 X121.43 Y54.944 E1.02027
G1 X121.43 Y59.778 E1.1062
G1 X121.39 Y60.521 E1.11942
G1 X121.271 Y61.256 E1.13266
G1 X121.073 Y61.974 E1.1459
G1 X120.8 Y62.666 E1.15912
G1 X120.454 Y63.325 E1.17235
G1 X120.039 Y63.943 E1.18558
G1 X119.4 Y64.678 E1.2029
G1 X119.277 Y64.801 E1.20599
G1 X118.723 Y65.299 E1.21923
G1 X118.119 Y65.734 E1.23246
G1 X117.472 Y66.101 E1.24568
G1 X116.79 Y66.398 E1.25891
G1 X116.079 Y66.619 E1.27214
G1 X115.349 Y66.763 E1.28537
G1 X114.377 Y66.831 E1.30269
G1 X111.674 Y66.831 E1.35074
G1 X110.785 Y70.129 E1.41146
G1 X110.451 Y71.085 E1.42946
G1 X109.85 Y72.469 E1.45628
G1 X109.365 Y73.389 E1.47477
G1 X108.551 Y74.688 E1.50202
G1 X107.933 Y75.527 E1.52054
G1 X106.944 Y76.677 E1.5475
G1 X106.214 Y77.408 E1.56586
G1 X105.057 Y78.405 E1.59301
G1 X104.218 Y79.024 E1.61155
G1 X102.928 Y79.834 E1.63862
G1 X102.016 Y80.316 E1.65696
G1 X100.637 Y80.918 E1.68371
G1 X99.66 Y81.26 E1.70211
G1 X98.184 Y81.656 E1.72927
G1 X97.423 Y81.815 E1.74309
G1 X96.662 Y81.93 E1.75677
G1 X95.883 Y82.003 E1.77068
G1 X94.367 Y82.059 E1.79765
G1 X93.326 Y82.019 E1.81617
G1 X91.818 Y81.847 E1.84315
G1 X90.801 Y81.654 E1.86155
G1 X89.327 Y81.257 E1.88868
G1 X88.353 Y80.914 E1.90704
G1 X86.974 Y80.311 E1.93379
G1 X86.06 Y79.828 E1.95217
G1 X84.771 Y79.017 E1.97924
G1 X83.932 Y78.397 E1.99779
G1 X82.776 Y77.399 E2.02493
G1 X82.045 Y76.664 E2.04336
G1 X81.057 Y75.512 E2.07034
G1 X80.445 Y74.681 E2.08868
G1 X79.631 Y73.382 E2.11593
G1 X79.144 Y72.457 E2.13452
G1 X78.544 Y71.072 E2.16135
G1 X78.212 Y70.12 E2.17927
G1 X77.326 Y66.831 E2.23982
G1 X74.623 Y66.831 E2.28787
G1 X73.88 Y66.791 E2.30109
G1 X73.145 Y66.672 E2.31433
G1 X72.427 Y66.474 E2.32757
G1 X71.735 Y66.201 E2.34079
G1 X71.076 Y65.855 E2.35402
G1 X70.458 Y65.44 E2.36726
G1 X69.723 Y64.801 E2.38457
G1 X69.6 Y64.678 E2.38766
G1 X69.102 Y64.124 E2.4009
G1 X68.667 Y63.52 E2.41413
G1 X68.3 Y62.873 E2.42736
G1 X68.003 Y62.191 E2.44058
G1 X67.782 Y61.48 E2.45381
G1 X67.638 Y60.75 E2.46704
G1 X67.57 Y59.778 E2.48436
G1 X67.57 Y54.944 E2.57029
G1 X67.61 Y54.201 E2.58352
G1 X67.729 Y53.466 E2.59675
G1 X67.927 Y52.748 E2.60999
G1 X68.2 Y52.056 E2.62322
G1 X68.546 Y51.397 E2.63645
G1 X68.961 Y50.779 E2.64968
M204 S625
M205 X6 Y6
G0 F4285.7 X69.378 Y50.926
M204 S500
M205 X5 Y5
G1 F1200 X69.897 Y50.341 E2.66358
G1 X70.02 Y50.218 E2.66667
G1 X70.557 Y49.737 E2.67949
G1 X71.145 Y49.318 E2.69232
G1 X71.775 Y48.967 E2.70514
G1 X72.44 Y48.688 E2.71796
G1 X73.132 Y48.484 E2.73079
G1 X73.842 Y48.358 E2.7436
G1 X74.623 Y48.311 E2.75751
G1 X114.377 Y48.311 E3.46418
G1 X115.097 Y48.351 E3.477
G1 X115.809 Y48.47 E3.48983
G1 X116.503 Y48.668 E3.50266
G1 X117.17 Y48.941 E3.51547
G1 X117.804 Y49.286 E3.5283
G1 X118.395 Y49.699 E3.54112
G1 X118.98 Y50.218 E3.55502
G1 X119.103 Y50.341 E3.55811
G1 X119.584 Y50.878 E3.57092
G1 X120.003 Y51.466 E3.58376
G1 X120.354 Y52.096 E3.59658
G1 X120.633 Y52.761 E3.6094
G1 X120.837 Y53.453 E3.62222
G1 X120.963 Y54.163 E3.63504
G1 X121.01 Y54.944 E3.64895
G1 X121.01 Y59.778 E3.73488
G1 X120.97 Y60.498 E3.7477
G1 X120.851 Y61.21 E3.76053
G1 X120.653 Y61.904 E3.77336
G1 X120.38 Y62.571 E3.78617
G1 X120.035 Y63.205 E3.799
G1 X119.622 Y63.796 E3.81182
G1 X119.103 Y64.381 E3.82572
G1 X118.98 Y64.504 E3.82881
G1 X118.443 Y64.985 E3.84162
G1 X117.855 Y65.404 E3.85446
G1 X117.225 Y65.755 E3.86728
G1 X116.56 Y66.034 E3.8801
G1 X115.868 Y66.238 E3.89292
G1 X115.158 Y66.364 E3.90574
G1 X114.377 Y66.411 E3.91965
G1 X111.353 Y66.411 E3.9734
G1 X110.38 Y70.02 E4.03985
G1 X110.065 Y70.918 E4.05676
G1 X109.464 Y72.302 E4.08359
G1 X109.009 Y73.166 E4.10094
G1 X108.195 Y74.465 E4.12819
G1 X107.615 Y75.253 E4.14559
G1 X106.626 Y76.403 E4.17255
G1 X105.94 Y77.09 E4.18981
G1 X104.783 Y78.087 E4.21696
G1 X103.995 Y78.668 E4.23436
G1 X102.705 Y79.478 E4.26144
G1 X101.848 Y79.931 E4.27867
G1 X100.469 Y80.533 E4.30541
G1 X99.551 Y80.855 E4.32271
G1 X98.075 Y81.251 E4.34987
G1 X97.361 Y81.4 E4.36284
G1 X96.6 Y81.515 E4.37652
G1 X95.867 Y81.584 E4.38961
G1 X94.351 Y81.64 E4.41657
G1 X93.373 Y81.602 E4.43397
G1 X91.865 Y81.43 E4.46095
G1 X90.91 Y81.248 E4.47823
G1 X89.436 Y80.851 E4.50537
G1 X88.521 Y80.53 E4.5226
G1 X87.142 Y79.927 E4.54936
G1 X86.283 Y79.472 E4.56664
G1 X84.994 Y78.661 E4.59371
G1 X84.207 Y78.079 E4.61111
G1 X83.051 Y77.081 E4.63826
G1 X82.363 Y76.391 E4.65558
G1 X81.375 Y75.239 E4.68255
G1 X80.801 Y74.458 E4.69978
G1 X79.987 Y73.159 E4.72703
G1 X79.529 Y72.29 E4.7445
G1 X78.929 Y70.905 E4.77133
G1 X78.617 Y70.011 E4.78816
G1 X77.647 Y66.411 E4.85443
G1 X74.623 Y66.411 E4.90819
G1 X73.903 Y66.371 E4.92101
G1 X73.191 Y66.252 E4.93384
G1 X72.497 Y66.054 E4.94667
G1 X71.83 Y65.781 E4.95948
G1 X71.196 Y65.436 E4.97231
G1 X70.605 Y65.023 E4.98513
G1 X70.02 Y64.504 E4.99903
G1 X69.897 Y64.381 E5.00212
G1 X69.416 Y63.844 E5.01493
G1 X68.997 Y63.256 E5.02777
G1 X68.646 Y62.626 E5.04059
G1 X68.367 Y61.961 E5.05341
G1 X68.163 Y61.269 E5.06623
G1 X68.037 Y60.559 E5.07905
G1 X67.99 Y59.778 E5.09296
G1 X67.99 Y54.944 E5.17889
G1 X68.03 Y54.224 E5.19171
G1 X68.149 Y53.512 E5.20454
G1 X68.347 Y52.818 E5.21737
G1 X68.62 Y52.151 E5.23018
G1 X68.965 Y51.517 E5.24301
G1 X69.378 Y50.926 E5.25583
M204 S625
M205 X6 Y6
G0 F4285.7 X69.795 Y51.078
M204 S500
M205 X5 Y5
G1 F1200 X70.194 Y50.638 E5.26638
G1 X70.317 Y50.515 E5.26948
G1 X70.838 Y50.05 E5.28189
G1 X71.408 Y49.649 E5.29428
G1 X72.021 Y49.315 E5.30669
G1 X72.668 Y49.053 E5.3191
G1 X73.34 Y48.868 E5.33149
G1 X74.029 Y48.76 E5.34388
G1 X74.623 Y48.731 E5.35445
G1 X114.377 Y48.731 E6.06112
G1 X115.074 Y48.771 E6.07353
G1 X115.761 Y48.89 E6.08592
G1 X116.43 Y49.088 E6.09833
G1 X117.073 Y49.36 E6.11074
G1 X117.679 Y49.704 E6.12312
G1 X118.243 Y50.116 E6.13554
G1 X118.683 Y50.515 E6.1461
G1 X118.806 Y50.638 E6.14919
G1 X119.271 Y51.159 E6.1616
G1 X119.672 Y51.729 E6.17399
G1 X120.006 Y52.342 E6.1864
G1 X120.268 Y52.989 E6.19881
G1 X120.453 Y53.661 E6.2112
G1 X120.561 Y54.35 E6.2236
G1 X120.59 Y54.944 E6.23417
G1 X120.59 Y59.778 E6.3201
G1 X120.55 Y60.475 E6.33251
G1 X120.431 Y61.162 E6.3449
G1 X120.233 Y61.831 E6.3573
G1 X119.961 Y62.474 E6.36971
G1 X119.617 Y63.08 E6.3821
G1 X119.205 Y63.644 E6.39452
G1 X118.806 Y64.084 E6.40507
G1 X118.683 Y64.207 E6.40817
G1 X118.162 Y64.672 E6.42058
G1 X117.592 Y65.073 E6.43297
G1 X116.979 Y65.407 E6.44538
G1 X116.332 Y65.669 E6.45779
G1 X115.66 Y65.854 E6.47018
G1 X114.971 Y65.962 E6.48257
G1 X114.377 Y65.991 E6.49314
G1 X111.031 Y65.991 E6.55262
G1 X109.974 Y69.91 E6.62478
G1 X109.68 Y70.751 E6.64061
G1 X109.079 Y72.135 E6.66743
G1 X108.654 Y72.943 E6.68366
G1 X107.84 Y74.242 E6.71091
G1 X107.296 Y74.979 E6.7272
G1 X106.307 Y76.129 E6.75416
G1 X105.665 Y76.771 E6.7703
G1 X104.508 Y77.768 E6.79745
G1 X103.771 Y78.313 E6.81374
G1 X102.481 Y79.123 E6.84082
G1 X101.68 Y79.546 E6.85692
G1 X100.301 Y80.148 E6.88367
G1 X99.442 Y80.449 E6.89985
G1 X97.966 Y80.845 E6.92701
G1 X97.298 Y80.985 E6.93914
G1 X96.537 Y81.1 E6.95283
G1 X95.852 Y81.164 E6.96506
G1 X94.336 Y81.22 E6.99202
G1 X93.421 Y81.185 E7.0083
G1 X91.913 Y81.013 E7.03528
G1 X91.019 Y80.842 E7.05146
G1 X89.545 Y80.445 E7.07859
G1 X88.689 Y80.145 E7.09472
G1 X87.31 Y79.542 E7.12147
G1 X86.507 Y79.117 E7.13762
G1 X85.218 Y78.306 E7.16469
G1 X84.481 Y77.761 E7.18099
G1 X83.325 Y76.763 E7.20813
G1 X82.682 Y76.118 E7.22432
G1 X81.694 Y74.966 E7.2513
G1 X81.156 Y74.235 E7.26744
G1 X80.342 Y72.936 E7.29469
G1 X79.915 Y72.123 E7.31101
G1 X79.315 Y70.738 E7.33784
G1 X79.023 Y69.902 E7.35358
G1 X77.969 Y65.991 E7.42558
G1 X74.623 Y65.991 E7.48506
G1 X73.926 Y65.951 E7.49747
G1 X73.239 Y65.832 E7.50987
G1 X72.57 Y65.634 E7.52227
G1 X71.927 Y65.362 E7.53468
G1 X71.321 Y65.018 E7.54707
G1 X70.757 Y64.606 E7.55948
G1 X70.317 Y64.207 E7.57004
G1 X70.194 Y64.084 E7.57313
G1 X69.729 Y63.563 E7.58555
G1 X69.328 Y62.993 E7.59793
G1 X68.994 Y62.38 E7.61034
G1 X68.732 Y61.733 E7.62275
G1 X68.547 Y61.061 E7.63514
G1 X68.439 Y60.372 E7.64754
G1 X68.41 Y59.778 E7.65811
G1 X68.41 Y54.944 E7.74404
G1 X68.45 Y54.247 E7.75645
G1 X68.569 Y53.56 E7.76884
G1 X68.767 Y52.891 E7.78125
G1 X69.039 Y52.248 E7.79366
G1 X69.383 Y51.642 E7.80604
G1 X69.795 Y51.078 E7.81846
M204 S625
M205 X6 Y6
G0 F4285.7 X69.801 Y51.771
M204 S500
M205 X5 Y5
G1 F1200 X70.21 Y51.236 E7.83043
G1 X70.491 Y50.935 E7.83775
G1 X70.614 Y50.812 E7.84084
G1 X71.117 Y50.365 E7.8528
G1 X71.67 Y49.981 E7.86477
G1 X72.265 Y49.665 E7.87675
G1 X72.892 Y49.422 E7.8887
G1 X73.544 Y49.255 E7.90066
G1 X74.212 Y49.166 E7.91264
G1 X74.623 Y49.151 E7.91995
G1 X114.377 Y49.151 E8.62662
G1 X115.049 Y49.191 E8.63859
G1 X115.712 Y49.31 E8.65056
G1 X116.355 Y49.507 E8.66251
G1 X116.971 Y49.779 E8.67448
G1 X117.55 Y50.122 E8.68645
G1 X118.085 Y50.531 E8.69842
G1 X118.386 Y50.812 E8.70574
G1 X118.509 Y50.935 E8.70883
G1 X118.956 Y51.438 E8.72079
G1 X119.34 Y51.991 E8.73276
G1 X119.656 Y52.586 E8.74474
G1 X119.899 Y53.213 E8.75669
G1 X120.066 Y53.865 E8.76865
G1 X120.155 Y54.533 E8.78063
G1 X120.17 Y54.944 E8.78794
G1 X120.17 Y59.778 E8.87387
G1 X120.13 Y60.45 E8.88584
G1 X120.011 Y61.113 E8.89781
G1 X119.814 Y61.756 E8.90977
G1 X119.542 Y62.372 E8.92174
G1 X119.199 Y62.951 E8.9337
G1 X118.79 Y63.486 E8.94567
G1 X118.509 Y63.787 E8.95299
G1 X118.386 Y63.91 E8.95608
G1 X117.883 Y64.357 E8.96804
G1 X117.33 Y64.741 E8.98001
G1 X116.735 Y65.057 E8.99199
G1 X116.108 Y65.3 E9.00394
G1 X115.456 Y65.467 E9.0159
G1 X114.788 Y65.556 E9.02788
G1 X114.377 Y65.571 E9.03519
G1 X110.709 Y65.571 E9.1004
G1 X109.569 Y69.801 E9.17827
G1 X109.295 Y70.583 E9.193
G1 X108.694 Y71.967 E9.21982
G1 X108.298 Y72.72 E9.23495
G1 X107.484 Y74.019 E9.2622
G1 X106.978 Y74.705 E9.27735
G1 X105.989 Y75.855 E9.30431
G1 X105.391 Y76.453 E9.31934
G1 X104.234 Y77.45 E9.34649
G1 X103.548 Y77.957 E9.36166
G1 X102.258 Y78.767 E9.38873
G1 X101.511 Y79.161 E9.40375
G1 X100.132 Y79.763 E9.43049
G1 X99.333 Y80.043 E9.44554
G1 X97.857 Y80.439 E9.47271
G1 X97.235 Y80.569 E9.484
G1 X96.474 Y80.684 E9.49769
G1 X95.836 Y80.744 E9.50908
G1 X94.32 Y80.8 E9.53604
G1 X93.468 Y80.767 E9.5512
G1 X91.96 Y80.595 E9.57818
G1 X91.128 Y80.437 E9.59323
G1 X89.654 Y80.04 E9.62037
G1 X88.857 Y79.76 E9.63539
G1 X87.478 Y79.157 E9.66214
G1 X86.731 Y78.761 E9.67717
G1 X85.442 Y77.95 E9.70424
G1 X84.756 Y77.443 E9.7194
G1 X83.6 Y76.445 E9.74655
G1 X83.001 Y75.844 E9.76163
G1 X82.013 Y74.692 E9.78861
G1 X81.512 Y74.012 E9.80363
G1 X80.698 Y72.713 E9.83088
G1 X80.3 Y71.956 E9.84608
G1 X79.7 Y70.571 E9.87291
G1 X79.428 Y69.792 E9.88758
G1 X78.29 Y65.571 E9.96529
G1 X74.623 Y65.571 E10.03047
G1 X73.951 Y65.531 E10.04244
G1 X73.288 Y65.412 E10.05441
G1 X72.645 Y65.215 E10.06637
G1 X72.029 Y64.943 E10.07834
G1 X71.45 Y64.6 E10.0903
G1 X70.915 Y64.191 E10.10227
G1 X70.614 Y63.91 E10.10959
G1 X70.491 Y63.787 E10.11268
G1 X70.044 Y63.284 E10.12464
G1 X69.66 Y62.731 E10.13661
G1 X69.344 Y62.136 E10.14859
G1 X69.101 Y61.509 E10.16054
G1 X68.934 Y60.857 E10.17251
G1 X68.845 Y60.189 E10.18449
G1 X68.83 Y59.778 E10.1918
G1 X68.83 Y54.944 E10.27772
G1 X68.87 Y54.272 E10.28969
G1 X68.989 Y53.609 E10.30167
G1 X69.186 Y52.966 E10.31362
G1 X69.458 Y52.35 E10.32559
G1 X69.801 Y51.771 E10.33755
M204 S625
M205 X6 Y6
G0 F4285.7 X70.219 Y51.905
M204 S500
M205 X5 Y5
G1 F1200 X70.788 Y51.232 E10.35322
G1 X70.911 Y51.109 E10.35631
G1 X71.396 Y50.68 E10.36782
G1 X71.931 Y50.314 E10.37934
G1 X72.506 Y50.017 E10.39085
G1 X73.114 Y49.793 E10.40237
G1 X73.745 Y49.645 E10.41389
G1 X74.623 Y49.571 E10.42955
G1 X114.377 Y49.571 E11.13622
G1 X115.024 Y49.611 E11.14774
G1 X115.66 Y49.73 E11.15924
G1 X116.277 Y49.927 E11.17075
G1 X116.866 Y50.198 E11.18228
G1 X117.416 Y50.54 E11.19379
G1 X118.089 Y51.109 E11.20946
G1 X118.212 Y51.232 E11.21255
G1 X118.641 Y51.717 E11.22406
G1 X119.007 Y52.252 E11.23558
G1 X119.304 Y52.827 E11.24709
G1 X119.528 Y53.435 E11.2586
G1 X119.676 Y54.066 E11.27012
G1 X119.75 Y54.944 E11.28579
G1 X119.75 Y59.778 E11.37172
G1 X119.71 Y60.425 E11.38324
G1 X119.591 Y61.061 E11.39474
G1 X119.394 Y61.678 E11.40625
G1 X119.123 Y62.267 E11.41778
G1 X118.781 Y62.817 E11.42929
G1 X118.212 Y63.49 E11.44496
G1 X118.089 Y63.613 E11.44805
G1 X117.604 Y64.042 E11.45956
G1 X117.069 Y64.408 E11.47108
G1 X116.494 Y64.705 E11.48259
G1 X115.886 Y64.929 E11.49411
G1 X115.255 Y65.077 E11.50563
G1 X114.377 Y65.151 E11.52129
G1 X110.387 Y65.151 E11.59222
G1 X109.163 Y69.692 E11.67582
G1 X108.91 Y70.416 E11.68945
G1 X108.309 Y71.8 E11.71627
G1 X107.942 Y72.497 E11.73027
G1 X107.128 Y73.796 E11.75752
G1 X106.659 Y74.431 E11.77156
G1 X105.67 Y75.581 E11.79852
G1 X105.117 Y76.135 E11.81243
G1 X103.96 Y77.132 E11.83958
G1 X103.325 Y77.601 E11.85362
G1 X102.035 Y78.411 E11.88069
G1 X101.343 Y78.777 E11.89461
G1 X99.964 Y79.379 E11.92135
G1 X99.224 Y79.638 E11.93529
G1 X97.748 Y80.034 E11.96246
G1 X97.172 Y80.154 E11.97292
G1 X96.411 Y80.269 E11.9866
G1 X95.821 Y80.324 E11.99713
G1 X94.305 Y80.38 E12.0241
G1 X93.516 Y80.35 E12.03813
G1 X92.008 Y80.178 E12.06511
G1 X91.238 Y80.031 E12.07905
G1 X89.764 Y79.634 E12.10618
G1 X89.026 Y79.375 E12.12009
G1 X87.647 Y78.772 E12.14684
G1 X86.954 Y78.406 E12.16077
G1 X85.665 Y77.595 E12.18784
G1 X85.03 Y77.125 E12.20188
G1 X83.874 Y76.127 E12.22903
G1 X83.32 Y75.571 E12.24298
G1 X82.332 Y74.419 E12.26996
G1 X81.868 Y73.789 E12.28387
G1 X81.054 Y72.49 E12.31112
G1 X80.686 Y71.789 E12.32519
G1 X80.086 Y70.404 E12.35203
G1 X79.834 Y69.683 E12.3656
G1 X78.613 Y65.151 E12.44904
G1 X74.623 Y65.151 E12.51996
G1 X73.976 Y65.111 E12.53148
G1 X73.34 Y64.992 E12.54299
G1 X72.723 Y64.795 E12.5545
G1 X72.134 Y64.524 E12.56602
G1 X71.584 Y64.182 E12.57754
G1 X70.911 Y63.613 E12.5932
G1 X70.788 Y63.49 E12.5963
G1 X70.359 Y63.005 E12.60781
G1 X69.993 Y62.47 E12.61933
G1 X69.696 Y61.895 E12.63083
G1 X69.472 Y61.287 E12.64235
G1 X69.324 Y60.656 E12.65387
G1 X69.25 Y59.778 E12.66953
G1 X69.25 Y54.944 E12.75546
G1 X69.29 Y54.297 E12.76699
G1 X69.409 Y53.661 E12.77849
G1 X69.606 Y53.044 E12.79
G1 X69.877 Y52.455 E12.80153
G1 X70.219 Y51.905 E12.81304
M204 S625
M205 X6 Y6
G0 F4285.7 X70.636 Y52.046
M204 S500
M205 X5 Y5
G1 F1200 X71.085 Y51.529 E12.82521
G1 X71.208 Y51.406 E12.8283
G1 X71.674 Y50.996 E12.83934
G1 X72.19 Y50.649 E12.85039
G1 X72.746 Y50.371 E12.86144
G1 X73.332 Y50.167 E12.87247
G1 X73.94 Y50.039 E12.88351
G1 X74.623 Y49.991 E12.89569
G1 X114.377 Y49.991 E13.60235
G1 X114.997 Y50.031 E13.6134
G1 X115.607 Y50.15 E13.62444
G1 X116.196 Y50.347 E13.63548
G1 X116.755 Y50.617 E13.64652
G1 X117.275 Y50.957 E13.65756
G1 X117.792 Y51.406 E13.66973
G1 X117.915 Y51.529 E13.67283
G1 X118.325 Y51.995 E13.68386
G1 X118.672 Y52.511 E13.69491
