;START_OF_HEADER
;HEADER_VERSION:0.1
;FLAVOR:Griffin
;GENERATOR.NAME:Cura_SteamEngine
;GENERATOR.VERSION:3.6.0
;GENERATOR.BUILD_DATE:2018-11-12
;TARGET_MACHINE.NAME:Ultimaker 3
;EXTRUDER_TRAIN.0.INITIAL_TEMPERATURE:205
;EXTRUDER_TRAIN.0.MATERIAL.VOLUME_USED:22769
;EXTRUDER_TRAIN.0.MATERIAL.GUID:506c9f0d-e3aa-4bd4-b2d2-23e2425b1aa9
;EXTRUDER_TRAIN.0.NOZZLE.DIAMETER:0.4
;EXTRUDER_TRAIN.0.NOZZLE.NAME:AA 0.4
;BUILD_PLATE.TYPE:glass
;BUILD_PLATE.INITIAL_TEMPERATURE:60
;PRINT.TIME:20025
;PRINT.SIZE.MIN.X:9
;PRINT.SIZE.MIN.Y:6
;PRINT.SIZE.MIN.Z:0.27
;PRINT.SIZE.MAX.X:169.43
;PRINT.SIZE.MAX.Y:158.181
;PRINT.SIZE.MAX.Z:13.77
;END_OF_HEADER
;Generated with Cura_SteamEngine 3.6.0
T0
M82 ;absolute extrusion mode

G92 E0
M109 S205
G0 F15000 X9 Y6 Z2
G280
G1 F1500 E-6.5
;LAYER_COUNT:137
;LAYER:0
M107
M204 S625
M205 X6 Y6
G0 F4285.7 X65.44 Y59.014 Z0.27
M204 S500
M205 X5 Y5
;TYPE:SKIRT
G1 F1500 E0
G1 F1200 X65.977 Y58.499 E0.01323
G1 X66.566 Y58.044 E0.02646
G1 X67.2 Y57.655 E0.03968
G1 X67.873 Y57.336 E0.05292
G1 X68.576 Y57.091 E0.06615
G1 X69.301 Y56.923 E0.07938
G1 X70.04 Y56.834 E0.09261
G1 X70.502 Y56.819 E0.10083
G1 X73.648 Y56.82 E0.15675
G1 X74.391 Y56.86 E0.16998
G1 X75.126 Y56.98 E0.18322
G1 X75.844 Y57.178 E0.19646
G1 X76.511 Y57.441 E0.2092
G1 X76.814 Y57.302 E0.21513
G1 X77.52 Y57.067 E0.22835
G1 X78.247 Y56.909 E0.24158
G1 X79.354 Y56.82 E0.26132
G1 X105.645 Y56.819 E0.72867
G1 X106.388 Y56.859 E0.7419
G1 X107.123 Y56.978 E0.75513
G1 X107.84 Y57.176 E0.76835
G1 X108.511 Y57.441 E0.78118
G1 X108.814 Y57.302 E0.7871
G1 X109.52 Y57.067 E0.80033
G1 X110.247 Y56.909 E0.81355
G1 X111.354 Y56.82 E0.8333
G1 X153.645 Y56.819 E1.58506
G1 X154.388 Y56.859 E1.59829
G1 X155.123 Y56.978 E1.61152
G1 X155.84 Y57.176 E1.62474
G1 X156.511 Y57.441 E1.63757
G1 X156.814 Y57.302 E1.64349
G1 X157.52 Y57.067 E1.65672
G1 X158.247 Y56.909 E1.66995
G1 X159.352 Y56.82 E1.68965
G1 X162.498 Y56.819 E1.74558
G1 X163.241 Y56.859 E1.7588
G1 X163.976 Y56.978 E1.77204
G1 X164.693 Y57.175 E1.78526
G1 X165.386 Y57.448 E1.7985
G1 X166.045 Y57.794 E1.81173
G1 X166.663 Y58.209 E1.82496
G1 X167.233 Y58.687 E1.83818
G1 X167.749 Y59.224 E1.85142
G1 X168.204 Y59.813 E1.86465
G1 X168.593 Y60.448 E1.87789
G1 X168.912 Y61.12 E1.89111
G1 X169.157 Y61.823 E1.90435
G1 X169.325 Y62.548 E1.91757
G1 X169.415 Y63.287 E1.93081
G1 X169.43 Y63.749 E1.93902
G1 X169.43 Y74.035 E2.12187
G1 X169.387 Y74.808 E2.13563
G1 X169.308 Y75.512 E2.14822
G1 X169.185 Y76.246 E2.16145
G1 X168.965 Y77.021 E2.17577
G1 X168.73 Y77.695 E2.18846
G1 X168.447 Y78.383 E2.20169
G1 X168.052 Y79.103 E2.21628
G1 X167.672 Y79.707 E2.22897
G1 X167.242 Y80.315 E2.24221
G1 X166.711 Y80.912 E2.25641
G1 X166.212 Y81.412 E2.26897
G1 X165.659 Y81.91 E2.28219
G1 X164.99 Y82.387 E2.2968
G1 X164.386 Y82.766 E2.30948
G1 X163.736 Y83.127 E2.32269
G1 X162.991 Y83.438 E2.33704
G1 X162.319 Y83.673 E2.3497
G1 X161.604 Y83.88 E2.36293
G1 X160.81 Y84.017 E2.37725
G1 X160.103 Y84.097 E2.3899
G1 X159.324 Y84.141 E2.40377
G1 X120.18 Y84.141 E3.09959
G1 X120.18 Y93.141 E3.25958
G1 X159.324 Y93.141 E3.9554
G1 X160.094 Y93.184 E3.96911
G1 X160.801 Y93.263 E3.98175
G1 X161.535 Y93.385 E3.99498
G1 X162.319 Y93.608 E4.00947
G1 X162.991 Y93.843 E4.02212
G1 X163.679 Y94.127 E4.03535
G1 X164.386 Y94.515 E4.04969
G1 X164.99 Y94.894 E4.06237
G1 X165.599 Y95.323 E4.07561
G1 X166.212 Y95.869 E4.0902
G1 X166.711 Y96.369 E4.10276
G1 X167.208 Y96.923 E4.11599
G1 X167.672 Y97.574 E4.1302
G1 X168.052 Y98.178 E4.14288
G1 X168.414 Y98.828 E4.15611
G1 X168.73 Y99.586 E4.17071
G1 X168.965 Y100.26 E4.18339
G1 X169.172 Y100.975 E4.19663
G1 X169.308 Y101.768 E4.21093
G1 X169.387 Y102.471 E4.2235
G1 X169.43 Y103.245 E4.23728
G1 X169.43 Y151.251 E5.09064
G1 X169.39 Y151.994 E5.10386
G1 X169.271 Y152.729 E5.1171
G1 X169.073 Y153.447 E5.13034
G1 X168.8 Y154.139 E5.14356
G1 X168.454 Y154.798 E5.15679
G1 X168.039 Y155.416 E5.17003
G1 X167.56 Y155.986 E5.18326
G1 X167.023 Y156.501 E5.19649
G1 X166.434 Y156.956 E5.20972
G1 X165.8 Y157.345 E5.22294
G1 X165.127 Y157.664 E5.23618
G1 X164.424 Y157.909 E5.24941
G1 X163.699 Y158.077 E5.26264
G1 X162.96 Y158.166 E5.27587
G1 X162.498 Y158.181 E5.28409
G1 X159.065 Y158.18 E5.34511
G1 X158.322 Y158.14 E5.35834
G1 X157.587 Y158.02 E5.37158
G1 X156.87 Y157.822 E5.3848
G1 X156.512 Y157.681 E5.39164
G1 X156.473 Y157.699 E5.3924
G1 X155.766 Y157.934 E5.40565
G1 X155.039 Y158.092 E5.41887
G1 X153.933 Y158.181 E5.4386
G1 X135.067 Y158.18 E5.77396
G1 X134.323 Y158.14 E5.7872
G1 X133.589 Y158.02 E5.80042
G1 X132.871 Y157.823 E5.81366
G1 X132.512 Y157.681 E5.82052
G1 X132.473 Y157.699 E5.82129
G1 X131.766 Y157.934 E5.83453
G1 X131.039 Y158.092 E5.84775
G1 X129.933 Y158.181 E5.86748
G1 X103.067 Y158.18 E6.34505
G1 X102.324 Y158.14 E6.35827
G1 X101.589 Y158.021 E6.37151
G1 X100.871 Y157.823 E6.38475
G1 X100.512 Y157.681 E6.39161
G1 X100.473 Y157.699 E6.39237
G1 X99.766 Y157.934 E6.40562
G1 X99.039 Y158.092 E6.41884
G1 X97.933 Y158.181 E6.43857
G1 X79.067 Y158.18 E6.77393
G1 X78.323 Y158.14 E6.78717
G1 X77.589 Y158.02 E6.80039
G1 X76.871 Y157.823 E6.81363
G1 X76.512 Y157.681 E6.82049
G1 X76.473 Y157.699 E6.82125
G1 X75.766 Y157.934 E6.8345
G1 X75.039 Y158.092 E6.84772
G1 X73.933 Y158.181 E6.86745
G1 X70.5 Y158.181 E6.92847
G1 X69.757 Y158.141 E6.9417
G1 X69.022 Y158.022 E6.95493
G1 X68.304 Y157.824 E6.96817
G1 X67.612 Y157.551 E6.9814
G1 X66.953 Y157.205 E6.99463
G1 X66.335 Y156.79 E7.00786
G1 X65.765 Y156.311 E7.0211
G1 X65.25 Y155.774 E7.03432
G1 X64.795 Y155.185 E7.04755
G1 X64.406 Y154.551 E7.06077
G1 X64.087 Y153.878 E7.07401
G1 X63.842 Y153.175 E7.08725
G1 X63.674 Y152.45 E7.10048
G1 X63.585 Y151.711 E7.11371
G1 X63.57 Y151.251 E7.12189
G1 X63.57 Y90.802 E8.19643
G1 X63.61 Y90.059 E8.20966
G1 X63.729 Y89.324 E8.22289
G1 X63.927 Y88.606 E8.23613
G1 X64.2 Y87.914 E8.24935
G1 X64.546 Y87.255 E8.26258
G1 X64.961 Y86.637 E8.27582
G1 X65.44 Y86.067 E8.28905
G1 X65.977 Y85.552 E8.30228
G1 X66.566 Y85.097 E8.31551
G1 X67.2 Y84.708 E8.32873
G1 X67.873 Y84.389 E8.34197
G1 X68.576 Y84.144 E8.3552
G1 X69.301 Y83.976 E8.36843
G1 X70.04 Y83.887 E8.38166
G1 X70.5 Y83.872 E8.38985
G1 X97.283 Y83.872 E8.86594
G1 X97.303 Y83.495 E8.87265
G1 X97.338 Y83.281 E8.8765
G1 X97.337 Y83.278 E8.87656
G1 X97.285 Y82.567 E8.88923
G1 X70.5 Y82.567 E9.36536
G1 X69.757 Y82.527 E9.37859
G1 X69.022 Y82.408 E9.39183
G1 X68.304 Y82.21 E9.40506
G1 X67.612 Y81.937 E9.41829
G1 X66.953 Y81.591 E9.43152
G1 X66.335 Y81.176 E9.44475
G1 X65.765 Y80.697 E9.45799
G1 X65.25 Y80.16 E9.47121
G1 X64.795 Y79.571 E9.48444
G1 X64.406 Y78.937 E9.49767
G1 X64.087 Y78.264 E9.5109
G1 X63.842 Y77.561 E9.52414
G1 X63.674 Y76.836 E9.53737
G1 X63.585 Y76.097 E9.5506
G1 X63.57 Y75.637 E9.55878
G1 X63.57 Y63.749 E9.7701
G1 X63.61 Y63.006 E9.78333
G1 X63.729 Y62.271 E9.79656
G1 X63.927 Y61.553 E9.8098
G1 X64.2 Y60.861 E9.82303
G1 X64.546 Y60.202 E9.83626
G1 X64.961 Y59.584 E9.84949
G1 X65.44 Y59.014 E9.86272
M204 S625
M205 X6 Y6
G0 F4285.7 X65.854 Y59.189
M204 S500
M205 X5 Y5
G1 F1200 X66.387 Y58.703 E9.87555
G1 X66.971 Y58.279 E9.88837
G1 X67.598 Y57.922 E9.9012
G1 X68.26 Y57.636 E9.91402
G1 X68.95 Y57.426 E9.92684
G1 X69.659 Y57.294 E9.93966
G1 X70.502 Y57.239 E9.95468
G1 X73.648 Y57.24 E10.0106
G1 X74.368 Y57.28 E10.02342
G1 X75.08 Y57.4 E10.03625
G1 X75.774 Y57.597 E10.04908
G1 X76.441 Y57.871 E10.0619
G1 X76.503 Y57.905 E10.06315
G1 X76.631 Y57.837 E10.06573
G1 X77.302 Y57.572 E10.07855
G1 X77.998 Y57.383 E10.09137
G1 X78.711 Y57.272 E10.1042
G1 X79.354 Y57.24 E10.11564
G1 X105.645 Y57.239 E10.58299
G1 X106.365 Y57.279 E10.59581
G1 X107.076 Y57.398 E10.60863
G1 X107.77 Y57.596 E10.62145
G1 X108.438 Y57.869 E10.63428
G1 X108.503 Y57.905 E10.6356
G1 X108.631 Y57.837 E10.63818
G1 X109.302 Y57.572 E10.651
G1 X109.998 Y57.383 E10.66382
G1 X110.711 Y57.272 E10.67665
G1 X111.354 Y57.24 E10.68809
G1 X153.645 Y57.239 E11.43986
G1 X154.365 Y57.279 E11.45268
G1 X155.077 Y57.398 E11.46551
G1 X155.77 Y57.596 E11.47832
G1 X156.438 Y57.869 E11.49115
G1 X156.503 Y57.905 E11.49247
G1 X156.631 Y57.837 E11.49505
G1 X157.302 Y57.572 E11.50787
G1 X157.998 Y57.383 E11.52069
G1 X158.711 Y57.272 E11.53352
G1 X159.352 Y57.24 E11.54493
G1 X162.498 Y57.239 E11.60085
G1 X163.218 Y57.279 E11.61367
G1 X163.93 Y57.398 E11.6265
G1 X164.624 Y57.595 E11.63932
G1 X165.291 Y57.868 E11.65213
G1 X165.925 Y58.213 E11.66496
G1 X166.517 Y58.626 E11.6778
G1 X167.059 Y59.102 E11.69062
G1 X167.545 Y59.635 E11.70344
G1 X167.969 Y60.218 E11.71626
G1 X168.326 Y60.845 E11.72908
G1 X168.612 Y61.507 E11.7419
G1 X168.822 Y62.197 E11.75472
G1 X168.955 Y62.906 E11.76754
G1 X169.01 Y63.749 E11.78256
G1 X169.01 Y74.035 E11.9654
G1 X168.969 Y74.761 E11.97833
G1 X168.89 Y75.465 E11.99092
G1 X168.77 Y76.176 E12.00374
G1 X168.568 Y76.882 E12.01679
G1 X168.333 Y77.556 E12.02948
G1 X168.058 Y78.223 E12.04231
G1 X167.696 Y78.88 E12.05564
G1 X167.316 Y79.484 E12.06833
G1 X166.899 Y80.072 E12.08114
G1 X166.414 Y80.616 E12.0941
G1 X165.915 Y81.116 E12.10665
G1 X165.378 Y81.597 E12.11947
G1 X164.767 Y82.031 E12.13279
G1 X164.163 Y82.41 E12.14546
G1 X163.532 Y82.759 E12.15828
G1 X162.852 Y83.041 E12.17137
G1 X162.18 Y83.276 E12.18402
G1 X161.487 Y83.476 E12.19685
G1 X160.763 Y83.6 E12.2099
G1 X160.056 Y83.68 E12.22255
G1 X159.324 Y83.721 E12.23558
G1 X119.76 Y83.721 E12.93887
G1 X119.76 Y93.561 E13.11379
G1 X159.324 Y93.561 E13.81708
G1 X160.047 Y93.601 E13.82995
G1 X160.754 Y93.68 E13.84259
G1 X161.465 Y93.8 E13.85541
G1 X162.18 Y94.005 E13.86863
G1 X162.852 Y94.24 E13.88129
G1 X163.519 Y94.515 E13.89411
G1 X164.163 Y94.871 E13.90719
G1 X164.767 Y95.25 E13.91987
G1 X165.356 Y95.666 E13.93269
G1 X165.915 Y96.165 E13.94601
G1 X166.414 Y96.665 E13.95856
G1 X166.894 Y97.203 E13.97138
G1 X167.316 Y97.797 E13.98433
G1 X167.696 Y98.401 E13.99702
G1 X168.046 Y99.032 E14.00984
G1 X168.333 Y99.725 E14.02318
G1 X168.568 Y100.399 E14.03586
G1 X168.767 Y101.092 E14.04868
G1 X168.89 Y101.815 E14.06172
G1 X168.969 Y102.518 E14.07429
G1 X169.01 Y103.245 E14.08724
G1 X169.01 Y151.251 E14.94059
G1 X168.97 Y151.971 E14.95341
G1 X168.851 Y152.683 E14.96624
G1 X168.653 Y153.377 E14.97907
G1 X168.38 Y154.044 E14.99188
G1 X168.035 Y154.678 E15.00471
G1 X167.622 Y155.269 E15.01753
G1 X167.146 Y155.811 E15.03035
G1 X166.613 Y156.297 E15.04317
G1 X166.029 Y156.721 E15.056
G1 X165.402 Y157.078 E15.06883
G1 X164.74 Y157.364 E15.08165
G1 X164.05 Y157.574 E15.09447
G1 X163.341 Y157.706 E15.10729
G1 X162.498 Y157.761 E15.1223
G1 X159.065 Y157.76 E15.18333
G1 X158.345 Y157.72 E15.19615
G1 X157.633 Y157.6 E15.20898
G1 X156.94 Y157.403 E15.22179
G1 X156.504 Y157.224 E15.23017
G1 X155.985 Y157.429 E15.24009
G1 X155.288 Y157.618 E15.25292
G1 X154.576 Y157.729 E15.26573
G1 X153.933 Y157.761 E15.27718
G1 X135.067 Y157.76 E15.61254
G1 X134.346 Y157.72 E15.62537
G1 X133.635 Y157.601 E15.63819
G1 X132.941 Y157.403 E15.65102
G1 X132.504 Y157.224 E15.65941
G1 X131.985 Y157.429 E15.66933
G1 X131.288 Y157.618 E15.68217
G1 X130.576 Y157.729 E15.69498
G1 X129.933 Y157.761 E15.70642
G1 X103.067 Y157.76 E16.18399
G1 X102.346 Y157.72 E16.19683
G1 X101.635 Y157.601 E16.20964
G1 X100.941 Y157.403 E16.22247
G1 X100.504 Y157.224 E16.23087
G1 X99.985 Y157.429 E16.24079
G1 X99.288 Y157.618 E16.25362
G1 X98.576 Y157.729 E16.26643
G1 X97.933 Y157.761 E16.27788
G1 X79.067 Y157.76 E16.61324
G1 X78.346 Y157.72 E16.62607
G1 X77.635 Y157.601 E16.63889
G1 X76.941 Y157.403 E16.65172
G1 X76.504 Y157.224 E16.66011
G1 X75.985 Y157.429 E16.67003
G1 X75.288 Y157.618 E16.68287
G1 X74.576 Y157.729 E16.69568
G1 X73.933 Y157.761 E16.70712
G1 X70.5 Y157.761 E16.76815
G1 X69.78 Y157.721 E16.78096
G1 X69.068 Y157.602 E16.7938
G1 X68.374 Y157.404 E16.80663
G1 X67.707 Y157.131 E16.81944
G1 X67.073 Y156.786 E16.83227
G1 X66.482 Y156.373 E16.84508
G1 X65.94 Y155.897 E16.85791
G1 X65.454 Y155.364 E16.87073
G1 X65.03 Y154.78 E16.88356
G1 X64.673 Y154.153 E16.89638
G1 X64.387 Y153.491 E16.9092
G1 X64.177 Y152.801 E16.92202
G1 X64.045 Y152.092 E16.93484
G1 X63.99 Y151.251 E16.94982
G1 X63.99 Y90.802 E18.02436
G1 X64.03 Y90.082 E18.03718
G1 X64.149 Y89.37 E18.05001
G1 X64.347 Y88.676 E18.06284
G1 X64.62 Y88.009 E18.07565
G1 X64.965 Y87.375 E18.08849
G1 X65.378 Y86.784 E18.1013
G1 X65.854 Y86.242 E18.11412
G1 X66.387 Y85.756 E18.12695
G1 X66.971 Y85.332 E18.13977
G1 X67.598 Y84.975 E18.1526
G1 X68.26 Y84.689 E18.16542
G1 X68.95 Y84.479 E18.17824
G1 X69.659 Y84.347 E18.19106
G1 X70.5 Y84.292 E18.20604
G1 X97.683 Y84.292 E18.68925
G1 X97.683 Y84.238 E18.69021
G1 X97.723 Y83.518 E18.70302
G1 X97.766 Y83.259 E18.70769
G1 X97.698 Y82.709 E18.71754
G1 X97.683 Y82.265 E18.72544
G1 X97.683 Y82.147 E18.72754
G1 X70.5 Y82.147 E19.21074
G1 X69.78 Y82.107 E19.22356
G1 X69.068 Y81.988 E19.23639
G1 X68.374 Y81.79 E19.24922
G1 X67.707 Y81.517 E19.26203
G1 X67.073 Y81.172 E19.27486
G1 X66.482 Y80.759 E19.28768
G1 X65.94 Y80.283 E19.3005
G1 X65.454 Y79.75 E19.31332
G1 X65.03 Y79.166 E19.32615
G1 X64.673 Y78.539 E19.33898
G1 X64.387 Y77.877 E19.3518
G1 X64.177 Y77.187 E19.36462
G1 X64.045 Y76.478 E19.37744
G1 X63.99 Y75.637 E19.39242
G1 X63.99 Y63.749 E19.60374
G1 X64.03 Y63.029 E19.61656
G1 X64.149 Y62.317 E19.62939
G1 X64.347 Y61.623 E19.64222
G1 X64.62 Y60.956 E19.65503
G1 X64.965 Y60.322 E19.66786
G1 X65.378 Y59.731 E19.68068
G1 X65.854 Y59.189 E19.6935
M204 S625
M205 X6 Y6
G0 F4285.7 X66.268 Y59.37
M204 S500
M205 X5 Y5
G1 F1200 X66.796 Y58.915 E19.70589
G1 X67.373 Y58.523 E19.71829
G1 X67.992 Y58.2 E19.7307
G1 X68.643 Y57.949 E19.7431
G1 X69.319 Y57.775 E19.75551
G1 X70.01 Y57.679 E19.76791
G1 X70.502 Y57.659 E19.77667
G1 X73.648 Y57.66 E19.83259
G1 X74.344 Y57.7 E19.84498
G1 X75.032 Y57.82 E19.8574
G1 X75.701 Y58.017 E19.86979
G1 X76.343 Y58.29 E19.88219
G1 X76.492 Y58.375 E19.88524
G1 X77.122 Y58.084 E19.89758
G1 X77.785 Y57.866 E19.90999
G1 X78.468 Y57.725 E19.92238
G1 X79.354 Y57.66 E19.93817
G1 X105.645 Y57.659 E20.40552
G1 X106.341 Y57.699 E20.41792
G1 X107.029 Y57.818 E20.43033
G1 X107.698 Y58.015 E20.44272
G1 X108.34 Y58.288 E20.45512
G1 X108.492 Y58.374 E20.45823
G1 X109.122 Y58.084 E20.47056
G1 X109.785 Y57.866 E20.48296
G1 X110.468 Y57.725 E20.49536
G1 X111.354 Y57.66 E20.51115
G1 X153.645 Y57.659 E21.26292
G1 X154.341 Y57.699 E21.27531
G1 X155.029 Y57.818 E21.28772
G1 X155.698 Y58.016 E21.30012
G1 X156.34 Y58.288 E21.31252
G1 X156.492 Y58.374 E21.31562
G1 X157.122 Y58.084 E21.32795
G1 X157.785 Y57.866 E21.34036
G1 X158.468 Y57.725 E21.35275
G1 X159.352 Y57.66 E21.36851
G1 X162.498 Y57.659 E21.42443
G1 X163.195 Y57.699 E21.43684
G1 X163.882 Y57.818 E21.44924
G1 X164.551 Y58.015 E21.46163
G1 X165.194 Y58.287 E21.47404
G1 X165.801 Y58.631 E21.48645
G1 X166.365 Y59.042 E21.49885
G1 X166.878 Y59.515 E21.51126
G1 X167.333 Y60.044 E21.52366
G1 X167.725 Y60.621 E21.53606
G1 X168.049 Y61.239 E21.54846
G1 X168.299 Y61.89 E21.56086
G1 X168.474 Y62.566 E21.57327
G1 X168.57 Y63.257 E21.58567
G1 X168.59 Y63.749 E21.59443
G1 X168.59 Y74.035 E21.77727
G1 X168.552 Y74.714 E21.78936
G1 X168.473 Y75.418 E21.80195
G1 X168.356 Y76.106 E21.81436
G1 X168.171 Y76.744 E21.82616
G1 X167.936 Y77.418 E21.83885
G1 X167.669 Y78.063 E21.85126
G1 X167.341 Y78.656 E21.86331
G1 X166.961 Y79.26 E21.87599
G1 X166.556 Y79.828 E21.88839
G1 X166.117 Y80.319 E21.9001
G1 X165.618 Y80.819 E21.91266
G1 X165.097 Y81.284 E21.92507
G1 X164.544 Y81.676 E21.93712
G1 X163.94 Y82.055 E21.9498
G1 X163.329 Y82.391 E21.96219
G1 X162.713 Y82.645 E21.97404
G1 X162.041 Y82.88 E21.98669
G1 X161.371 Y83.072 E21.99908
G1 X160.716 Y83.182 E22.01089
G1 X160.009 Y83.262 E22.02353
G1 X159.324 Y83.301 E22.03573
G1 X119.332 Y83.301 E22.74663
G1 X119.34 Y83.471 E22.74965
G1 X119.34 Y93.981 E22.93648
G1 X159.324 Y93.981 E23.64723
G1 X160 Y94.019 E23.65927
G1 X160.707 Y94.098 E23.67191
G1 X161.395 Y94.215 E23.68432
G1 X162.041 Y94.401 E23.69627
G1 X162.713 Y94.636 E23.70892
G1 X163.358 Y94.904 E23.72134
G1 X163.94 Y95.226 E23.73316
G1 X164.544 Y95.605 E23.74584
G1 X165.113 Y96.01 E23.75825
G1 X165.618 Y96.462 E23.7703
G1 X166.117 Y96.962 E23.78286
G1 X166.58 Y97.483 E23.79525
G1 X166.961 Y98.021 E23.80697
G1 X167.341 Y98.625 E23.81965
G1 X167.678 Y99.236 E23.83206
