;START_OF_HEADER
;HEADER_VERSION:0.1
;FLAVOR:Griffin
;GENERATOR.NAME:Cura_SteamEngine
;GENERATOR.VERSION:3.6.0
;GENERATOR.BUILD_DATE:2018-11-12
;TARGET_MACHINE.NAME:Ultimaker 3
;EXTRUDER_TRAIN.0.INITIAL_TEMPERATURE:205
;EXTRUDER_TRAIN.0.MATERIAL.VOLUME_USED:13743
;EXTRUDER_TRAIN.0.MATERIAL.GUID:506c9f0d-e3aa-4bd4-b2d2-23e2425b1aa9
;EXTRUDER_TRAIN.0.NOZZLE.DIAMETER:0.4
;EXTRUDER_TRAIN.0.NOZZLE.NAME:AA 0.4
;BUILD_PLATE.TYPE:glass
;BUILD_PLATE.INITIAL_TEMPERATURE:60
;PRINT.TIME:12481
;PRINT.SIZE.MIN.X:9
;PRINT.SIZE.MIN.Y:6
;PRINT.SIZE.MIN.Z:0.27
;PRINT.SIZE.MAX.X:140.067
;PRINT.SIZE.MAX.Y:144.91
;PRINT.SIZE.MAX.Z:33.77
;END_OF_HEADER
;Generated with Cura_SteamEngine 3.6.0
T0
M82 ;absolute extrusion mode

G92 E0
M109 S205
G0 F15000 X9 Y6 Z2
G280
G1 F1500 E-6.5
;LAYER_COUNT:337
;LAYER:0
M107
M204 S625
M205 X6 Y6
G0 F4500 X94.324 Y72.855 Z0.27
M204 S500
M205 X5 Y5
;TYPE:SKIRT
G1 F1500 E0
G1 F1080 X94.803 Y72.285 E0.01323
G1 X95.34 Y71.77 E0.02646
G1 X95.929 Y71.315 E0.03969
G1 X96.563 Y70.926 E0.05291
G1 X97.236 Y70.607 E0.06615
G1 X97.939 Y70.362 E0.07939
G1 X98.664 Y70.194 E0.09262
G1 X99.403 Y70.105 E0.10585
G1 X99.863 Y70.09 E0.11403
G1 X116.373 Y70.09 E0.40751
G1 X117.116 Y70.13 E0.42074
G1 X117.851 Y70.249 E0.43397
G1 X118.569 Y70.447 E0.44721
G1 X119.261 Y70.72 E0.46043
G1 X119.92 Y71.066 E0.47367
G1 X120.538 Y71.481 E0.4869
G1 X121.108 Y71.96 E0.50013
G1 X121.623 Y72.497 E0.51336
G1 X122.078 Y73.086 E0.52659
G1 X122.467 Y73.72 E0.53981
G1 X122.786 Y74.393 E0.55305
G1 X123.031 Y75.096 E0.56628
G1 X123.199 Y75.821 E0.57951
G1 X123.288 Y76.56 E0.59274
G1 X123.303 Y77.02 E0.60093
G1 X123.303 Y113.235 E1.24468
G1 X133.161 Y113.27 E1.41992
G1 X133.905 Y113.313 E1.43317
G1 X134.639 Y113.435 E1.44639
G1 X135.356 Y113.635 E1.45963
G1 X136.047 Y113.911 E1.47285
G1 X136.705 Y114.259 E1.48608
G1 X137.321 Y114.676 E1.49931
G1 X137.89 Y115.157 E1.51255
G1 X138.403 Y115.695 E1.52577
G1 X138.856 Y116.286 E1.539
G1 X139.243 Y116.922 E1.55224
G1 X139.559 Y117.596 E1.56547
G1 X139.801 Y118.3 E1.5787
G1 X139.967 Y119.025 E1.59192
G1 X140.053 Y119.765 E1.60517
G1 X140.067 Y120.2 E1.6129
G1 X140.067 Y137.98 E1.92896
G1 X140.027 Y138.723 E1.94219
G1 X139.908 Y139.458 E1.95542
G1 X139.71 Y140.176 E1.96866
G1 X139.437 Y140.868 E1.98188
G1 X139.091 Y141.527 E1.99512
G1 X138.676 Y142.145 E2.00835
G1 X138.197 Y142.715 E2.02158
G1 X137.66 Y143.23 E2.03481
G1 X137.071 Y143.685 E2.04804
G1 X136.437 Y144.074 E2.06126
G1 X135.764 Y144.393 E2.0745
G1 X135.061 Y144.638 E2.08773
G1 X134.336 Y144.806 E2.10096
G1 X133.597 Y144.895 E2.11419
G1 X133.137 Y144.91 E2.12238
G1 X99.863 Y144.91 E2.71385
G1 X99.12 Y144.87 E2.72708
G1 X98.385 Y144.751 E2.74032
G1 X97.667 Y144.553 E2.75356
G1 X96.975 Y144.28 E2.76678
G1 X96.316 Y143.934 E2.78001
G1 X95.698 Y143.519 E2.79324
G1 X95.128 Y143.04 E2.80648
G1 X94.613 Y142.503 E2.8197
G1 X94.158 Y141.914 E2.83293
G1 X93.769 Y141.28 E2.84616
G1 X93.45 Y140.607 E2.85939
G1 X93.205 Y139.904 E2.87263
G1 X93.037 Y139.179 E2.88586
G1 X92.948 Y138.44 E2.89909
G1 X92.933 Y137.98 E2.90727
G1 X92.933 Y77.02 E3.99089
G1 X92.973 Y76.277 E4.00412
G1 X93.092 Y75.542 E4.01736
G1 X93.29 Y74.824 E4.0306
G1 X93.563 Y74.132 E4.04382
G1 X93.909 Y73.473 E4.05705
G1 X94.324 Y72.855 E4.07028
M204 S625
M205 X6 Y6
G0 F4500 X94.741 Y73.002
M204 S500
M205 X5 Y5
G1 F1080 X95.217 Y72.46 E4.08311
G1 X95.75 Y71.974 E4.09593
G1 X96.334 Y71.55 E4.10876
G1 X96.961 Y71.193 E4.12158
G1 X97.623 Y70.907 E4.1344
G1 X98.313 Y70.697 E4.14722
G1 X99.022 Y70.565 E4.16004
G1 X99.863 Y70.51 E4.17502
G1 X116.373 Y70.51 E4.4685
G1 X117.093 Y70.55 E4.48132
G1 X117.805 Y70.669 E4.49415
G1 X118.499 Y70.867 E4.50698
G1 X119.166 Y71.14 E4.51979
G1 X119.8 Y71.485 E4.53262
G1 X120.391 Y71.898 E4.54544
G1 X120.933 Y72.374 E4.55826
G1 X121.419 Y72.907 E4.57109
G1 X121.843 Y73.491 E4.58391
G1 X122.2 Y74.118 E4.59674
G1 X122.486 Y74.78 E4.60956
G1 X122.696 Y75.47 E4.62238
G1 X122.828 Y76.179 E4.6352
G1 X122.883 Y77.02 E4.65018
G1 X122.883 Y113.654 E5.30139
G1 X133.16 Y113.69 E5.48407
G1 X133.88 Y113.733 E5.49689
G1 X134.591 Y113.854 E5.50971
G1 X135.284 Y114.054 E5.52253
G1 X135.951 Y114.33 E5.53537
G1 X136.583 Y114.677 E5.54818
G1 X137.173 Y115.092 E5.56101
G1 X137.714 Y115.57 E5.57384
G1 X138.198 Y116.105 E5.58666
G1 X138.62 Y116.69 E5.59948
G1 X138.974 Y117.318 E5.6123
G1 X139.257 Y117.982 E5.62513
G1 X139.465 Y118.673 E5.63796
G1 X139.595 Y119.382 E5.65077
G1 X139.647 Y120.2 E5.66534
G1 X139.647 Y137.98 E5.9814
G1 X139.607 Y138.7 E5.99422
G1 X139.488 Y139.412 E6.00705
G1 X139.29 Y140.106 E6.01988
G1 X139.017 Y140.773 E6.03269
G1 X138.672 Y141.407 E6.04552
G1 X138.259 Y141.998 E6.05834
G1 X137.783 Y142.54 E6.07116
G1 X137.25 Y143.026 E6.08398
G1 X136.666 Y143.45 E6.09681
G1 X136.039 Y143.807 E6.10963
G1 X135.377 Y144.093 E6.12245
G1 X134.687 Y144.303 E6.13527
G1 X133.978 Y144.435 E6.14809
G1 X133.137 Y144.49 E6.16308
G1 X99.863 Y144.49 E6.75455
G1 X99.143 Y144.45 E6.76737
G1 X98.431 Y144.331 E6.7802
G1 X97.737 Y144.133 E6.79303
G1 X97.07 Y143.86 E6.80584
G1 X96.436 Y143.515 E6.81867
G1 X95.845 Y143.102 E6.83149
G1 X95.303 Y142.626 E6.84431
G1 X94.817 Y142.093 E6.85714
G1 X94.393 Y141.509 E6.86996
G1 X94.036 Y140.882 E6.88279
G1 X93.75 Y140.22 E6.89561
G1 X93.54 Y139.53 E6.90843
G1 X93.408 Y138.821 E6.92125
G1 X93.353 Y137.98 E6.93623
G1 X93.353 Y77.02 E8.01985
G1 X93.393 Y76.3 E8.03267
G1 X93.512 Y75.588 E8.0455
G1 X93.71 Y74.894 E8.05833
G1 X93.983 Y74.227 E8.07114
G1 X94.328 Y73.593 E8.08398
G1 X94.741 Y73.002 E8.09679
M204 S625
M205 X6 Y6
G0 F4500 X95.158 Y73.154
M204 S500
M205 X5 Y5
G1 F1080 X95.631 Y72.641 E8.1092
G1 X96.159 Y72.186 E8.12159
G1 X96.736 Y71.794 E8.13399
G1 X97.355 Y71.471 E8.1464
G1 X98.006 Y71.22 E8.1588
G1 X98.682 Y71.046 E8.17121
G1 X99.373 Y70.95 E8.18361
G1 X99.863 Y70.93 E8.19233
G1 X116.373 Y70.93 E8.48581
G1 X117.07 Y70.97 E8.49822
G1 X117.757 Y71.089 E8.51061
G1 X118.426 Y71.287 E8.52301
G1 X119.069 Y71.559 E8.53542
G1 X119.675 Y71.903 E8.54781
G1 X120.239 Y72.315 E8.56023
G1 X120.752 Y72.788 E8.57263
G1 X121.207 Y73.316 E8.58502
G1 X121.599 Y73.893 E8.59742
G1 X121.922 Y74.512 E8.60983
G1 X122.173 Y75.163 E8.62223
G1 X122.347 Y75.839 E8.63464
G1 X122.443 Y76.53 E8.64704
G1 X122.463 Y77.02 E8.65576
G1 X122.463 Y114.072 E9.3144
G1 X133.159 Y114.11 E9.50453
G1 X133.855 Y114.152 E9.51692
G1 X134.542 Y114.274 E9.52933
G1 X135.21 Y114.474 E9.54172
G1 X135.852 Y114.749 E9.55414
G1 X136.458 Y115.095 E9.56654
G1 X137.02 Y115.508 E9.57894
G1 X137.531 Y115.983 E9.59134
G1 X137.984 Y116.513 E9.60373
G1 X138.374 Y117.092 E9.61614
G1 X138.695 Y117.711 E9.62854
G1 X138.943 Y118.363 E9.64094
G1 X139.115 Y119.04 E9.65336
G1 X139.209 Y119.731 E9.66575
G1 X139.227 Y120.2 E9.6741
G1 X139.227 Y137.98 E9.99015
G1 X139.187 Y138.677 E10.00256
G1 X139.068 Y139.364 E10.01496
G1 X138.87 Y140.033 E10.02736
G1 X138.598 Y140.676 E10.03977
G1 X138.254 Y141.282 E10.05216
G1 X137.842 Y141.846 E10.06457
G1 X137.369 Y142.359 E10.07698
G1 X136.841 Y142.814 E10.08936
G1 X136.264 Y143.206 E10.10176
G1 X135.645 Y143.529 E10.11418
G1 X134.994 Y143.78 E10.12658
G1 X134.318 Y143.954 E10.13899
G1 X133.627 Y144.05 E10.15139
G1 X133.137 Y144.07 E10.16011
G1 X99.863 Y144.07 E10.75158
G1 X99.166 Y144.03 E10.76399
G1 X98.479 Y143.911 E10.77639
G1 X97.81 Y143.713 E10.78879
G1 X97.167 Y143.441 E10.8012
G1 X96.561 Y143.097 E10.81359
G1 X95.997 Y142.685 E10.826
G1 X95.484 Y142.212 E10.83841
G1 X95.029 Y141.684 E10.8508
G1 X94.637 Y141.107 E10.8632
G1 X94.314 Y140.488 E10.87561
G1 X94.063 Y139.837 E10.88801
G1 X93.889 Y139.161 E10.90042
G1 X93.793 Y138.47 E10.91282
G1 X93.773 Y137.98 E10.92154
G1 X93.773 Y77.02 E12.00516
G1 X93.813 Y76.323 E12.01757
G1 X93.932 Y75.636 E12.02996
G1 X94.13 Y74.967 E12.04237
G1 X94.402 Y74.324 E12.05478
G1 X94.746 Y73.718 E12.06716
G1 X95.158 Y73.154 E12.07958
M204 S625
M205 X6 Y6
G0 F4500 X95.164 Y73.847
M204 S500
M205 X5 Y5
G1 F1080 X95.573 Y73.312 E12.09155
G1 X96.043 Y72.83 E12.10352
G1 X96.567 Y72.407 E12.11549
G1 X97.137 Y72.048 E12.12746
G1 X97.745 Y71.76 E12.13942
G1 X98.383 Y71.546 E12.15138
G1 X99.043 Y71.41 E12.16336
G1 X99.863 Y71.35 E12.17798
G1 X116.373 Y71.35 E12.47146
G1 X117.045 Y71.39 E12.48343
G1 X117.708 Y71.509 E12.4954
G1 X118.351 Y71.706 E12.50735
G1 X118.967 Y71.978 E12.51932
G1 X119.546 Y72.321 E12.53129
G1 X120.081 Y72.73 E12.54326
G1 X120.563 Y73.2 E12.55522
G1 X120.986 Y73.724 E12.5672
G1 X121.345 Y74.294 E12.57917
G1 X121.633 Y74.902 E12.59113
G1 X121.847 Y75.54 E12.60309
G1 X121.983 Y76.2 E12.61507
G1 X122.043 Y77.02 E12.62968
G1 X122.043 Y114.491 E13.29577
G1 X133.157 Y114.53 E13.49333
G1 X133.829 Y114.572 E13.5053
G1 X134.491 Y114.694 E13.51727
G1 X135.134 Y114.893 E13.52923
G1 X135.749 Y115.167 E13.5412
G1 X136.327 Y115.512 E13.55317
G1 X136.86 Y115.924 E13.56514
G1 X137.341 Y116.395 E13.57711
G1 X137.762 Y116.92 E13.58907
G1 X138.118 Y117.491 E13.60103
G1 X138.404 Y118.101 E13.61301
G1 X138.616 Y118.74 E13.62497
G1 X138.75 Y119.399 E13.63693
G1 X138.807 Y120.2 E13.6512
G1 X138.807 Y137.98 E13.96726
G1 X138.767 Y138.652 E13.97923
G1 X138.648 Y139.315 E13.9912
G1 X138.451 Y139.958 E14.00315
G1 X138.179 Y140.574 E14.01512
G1 X137.836 Y141.153 E14.02709
G1 X137.427 Y141.688 E14.03906
G1 X136.957 Y142.17 E14.05103
G1 X136.433 Y142.593 E14.063
G1 X135.863 Y142.952 E14.07497
G1 X135.255 Y143.24 E14.08693
G1 X134.617 Y143.454 E14.09889
G1 X133.957 Y143.59 E14.11087
G1 X133.137 Y143.65 E14.12549
G1 X99.863 Y143.65 E14.71696
G1 X99.191 Y143.61 E14.72893
G1 X98.528 Y143.491 E14.7409
G1 X97.885 Y143.294 E14.75286
G1 X97.269 Y143.022 E14.76483
G1 X96.69 Y142.679 E14.77679
G1 X96.155 Y142.27 E14.78876
G1 X95.673 Y141.8 E14.80073
G1 X95.25 Y141.276 E14.8127
G1 X94.891 Y140.706 E14.82467
G1 X94.603 Y140.098 E14.83663
G1 X94.389 Y139.46 E14.8486
G1 X94.253 Y138.8 E14.86057
G1 X94.193 Y137.98 E14.87519
G1 X94.193 Y77.02 E15.95881
G1 X94.233 Y76.348 E15.97078
G1 X94.352 Y75.685 E15.98275
G1 X94.549 Y75.042 E15.99471
G1 X94.821 Y74.426 E16.00668
G1 X95.164 Y73.847 E16.01864
M204 S625
M205 X6 Y6
G0 F4500 X95.582 Y73.981
M204 S500
M205 X5 Y5
G1 F1080 X95.989 Y73.477 E16.03016
G1 X96.455 Y73.027 E16.04167
G1 X96.972 Y72.638 E16.05317
G1 X97.534 Y72.315 E16.06469
G1 X98.131 Y72.064 E16.07621
G1 X98.755 Y71.888 E16.08773
G1 X99.395 Y71.791 E16.09924
G1 X99.863 Y71.77 E16.10757
G1 X116.373 Y71.77 E16.40105
G1 X117.02 Y71.81 E16.41257
G1 X117.656 Y71.929 E16.42407
G1 X118.273 Y72.126 E16.43559
G1 X118.862 Y72.397 E16.44711
G1 X119.412 Y72.739 E16.45862
G1 X119.916 Y73.146 E16.47014
G1 X120.366 Y73.612 E16.48165
G1 X120.755 Y74.129 E16.49316
G1 X121.078 Y74.691 E16.50468
G1 X121.329 Y75.288 E16.51619
G1 X121.505 Y75.912 E16.52771
G1 X121.602 Y76.552 E16.53922
G1 X121.623 Y77.02 E16.54755
G1 X121.623 Y114.909 E17.22106
G1 X133.156 Y114.95 E17.42607
G1 X133.802 Y114.992 E17.43758
G1 X134.438 Y115.114 E17.44909
G1 X135.055 Y115.313 E17.46062
G1 X135.642 Y115.586 E17.47213
G1 X136.191 Y115.93 E17.48364
G1 X136.694 Y116.338 E17.49515
G1 X137.142 Y116.806 E17.50667
G1 X137.53 Y117.325 E17.51819
G1 X137.85 Y117.888 E17.5297
G1 X138.099 Y118.486 E17.54122
G1 X138.273 Y119.11 E17.55273
G1 X138.368 Y119.751 E17.56425
G1 X138.387 Y120.2 E17.57224
G1 X138.387 Y137.98 E17.8883
G1 X138.347 Y138.627 E17.89982
G1 X138.228 Y139.263 E17.91132
G1 X138.031 Y139.88 E17.92283
G1 X137.76 Y140.469 E17.93436
G1 X137.418 Y141.019 E17.94587
G1 X137.011 Y141.523 E17.95739
G1 X136.545 Y141.973 E17.9689
G1 X136.028 Y142.362 E17.9804
G1 X135.466 Y142.685 E17.99193
G1 X134.869 Y142.936 E18.00344
G1 X134.245 Y143.112 E18.01496
G1 X133.605 Y143.209 E18.02647
G1 X133.137 Y143.23 E18.0348
G1 X99.863 Y143.23 E18.62628
G1 X99.216 Y143.19 E18.6378
G1 X98.58 Y143.071 E18.6493
G1 X97.963 Y142.874 E18.66081
G1 X97.374 Y142.603 E18.67234
G1 X96.824 Y142.261 E18.68385
G1 X96.32 Y141.854 E18.69537
G1 X95.87 Y141.388 E18.70688
G1 X95.481 Y140.871 E18.71838
G1 X95.158 Y140.309 E18.72991
G1 X94.907 Y139.712 E18.74142
G1 X94.731 Y139.088 E18.75294
G1 X94.634 Y138.448 E18.76445
G1 X94.613 Y137.98 E18.77278
G1 X94.613 Y77.02 E19.8564
G1 X94.653 Y76.373 E19.86792
G1 X94.772 Y75.737 E19.87943
G1 X94.969 Y75.12 E19.89094
G1 X95.24 Y74.531 E19.90246
G1 X95.582 Y73.981 E19.91398
M204 S625
M205 X6 Y6
G0 F4500 X95.999 Y74.122
M204 S500
M205 X5 Y5
G1 F1080 X96.403 Y73.65 E19.92502
G1 X96.865 Y73.233 E19.93608
G1 X97.375 Y72.88 E19.94711
G1 X97.927 Y72.595 E19.95815
G1 X98.512 Y72.383 E19.96921
G1 X99.118 Y72.248 E19.98025
G1 X99.863 Y72.19 E19.99353
G1 X116.373 Y72.19 E20.28701
G1 X116.993 Y72.23 E20.29806
G1 X117.603 Y72.349 E20.30911
G1 X118.192 Y72.546 E20.32015
G1 X118.751 Y72.816 E20.33118
G1 X119.271 Y73.156 E20.34222
G1 X119.743 Y73.56 E20.35327
G1 X120.16 Y74.022 E20.36433
G1 X120.513 Y74.532 E20.37536
G1 X120.798 Y75.084 E20.3864
G1 X121.01 Y75.669 E20.39746
G1 X121.145 Y76.275 E20.4085
G1 X121.203 Y77.02 E20.42178
G1 X121.203 Y115.328 E21.10274
G1 X133.154 Y115.37 E21.31518
G1 X133.774 Y115.412 E21.32623
G1 X134.383 Y115.534 E21.33727
G1 X134.972 Y115.732 E21.34832
G1 X135.53 Y116.005 E21.35936
G1 X136.049 Y116.347 E21.37041
G1 X136.52 Y116.752 E21.38145
G1 X136.934 Y117.215 E21.39249
G1 X137.286 Y117.727 E21.40354
G1 X137.569 Y118.28 E21.41458
G1 X137.779 Y118.865 E21.42563
G1 X137.912 Y119.472 E21.43667
G1 X137.967 Y120.2 E21.44965
G1 X137.967 Y137.98 E21.76571
G1 X137.927 Y138.6 E21.77675
G1 X137.808 Y139.21 E21.7878
G1 X137.611 Y139.799 E21.79884
G1 X137.341 Y140.358 E21.80987
G1 X137.001 Y140.878 E21.82092
G1 X136.597 Y141.35 E21.83196
G1 X136.135 Y141.767 E21.84303
G1 X135.625 Y142.12 E21.85405
G1 X135.073 Y142.405 E21.86509
G1 X134.488 Y142.617 E21.87616
G1 X133.882 Y142.752 E21.88719
G1 X133.137 Y142.81 E21.90047
G1 X99.863 Y142.81 E22.49195
G1 X99.243 Y142.77 E22.503
G1 X98.633 Y142.651 E22.51404
G1 X98.044 Y142.454 E22.52508
G1 X97.485 Y142.184 E22.53612
G1 X96.965 Y141.844 E22.54716
G1 X96.493 Y141.44 E22.55821
G1 X96.076 Y140.978 E22.56927
G1 X95.723 Y140.468 E22.5803
G1 X95.438 Y139.916 E22.59134
G1 X95.226 Y139.331 E22.6024
G1 X95.091 Y138.725 E22.61344
G1 X95.033 Y137.98 E22.62672
G1 X95.033 Y77.02 E23.71034
G1 X95.073 Y76.4 E23.72139
G1 X95.192 Y75.79 E23.73243
G1 X95.389 Y75.201 E23.74347
G1 X95.659 Y74.642 E23.75451
G1 X95.999 Y74.122 E23.76555
M204 S625
M205 X6 Y6
G0 F4500 X96.416 Y74.269
M204 S500
M205 X5 Y5
G1 F1080 X96.817 Y73.831 E23.77611
G1 X97.273 Y73.451 E23.78666
G1 X97.776 Y73.135 E23.79722
G1 X98.316 Y72.89 E23.80776
G1 X98.885 Y72.72 E23.81832
G1 X99.471 Y72.627 E23.82887
G1 X99.863 Y72.61 E23.83584
G1 X116.373 Y72.61 E24.12932
G1 X116.965 Y72.65 E24.13987
G1 X117.547 Y72.769 E24.15043
G1 X118.107 Y72.965 E24.16097
G1 X118.636 Y73.235 E24.17153
G1 X119.124 Y73.573 E24.18208
G1 X119.562 Y73.974 E24.19264
G1 X119.942 Y74.43 E24.20319
G1 X120.258 Y74.933 E24.21375
G1 X120.503 Y75.473 E24.22429
G1 X120.673 Y76.042 E24.23485
G1 X120.766 Y76.628 E24.2454
G1 X120.783 Y77.02 E24.25237
G1 X120.783 Y115.746 E24.94076
G1 X133.153 Y115.79 E25.16065
G1 X133.745 Y115.832 E25.1712
G1 X134.326 Y115.953 E25.18175
G1 X134.885 Y116.151 E25.19229
G1 X135.413 Y116.423 E25.20285
G1 X135.9 Y116.763 E25.21341
G1 X136.337 Y117.165 E25.22396
G1 X136.715 Y117.622 E25.23451
G1 X137.029 Y118.126 E25.24506
G1 X137.272 Y118.668 E25.25562
G1 X137.441 Y119.237 E25.26617
G1 X137.531 Y119.824 E25.27673
G1 X137.547 Y120.2 E25.28342
G1 X137.547 Y137.98 E25.59948
G1 X137.507 Y138.572 E25.61002
G1 X137.388 Y139.154 E25.62058
G1 X137.192 Y139.714 E25.63113
G1 X136.922 Y140.243 E25.64169
G1 X136.584 Y140.731 E25.65224
G1 X136.183 Y141.169 E25.6628
G1 X135.727 Y141.549 E25.67335
G1 X135.224 Y141.865 E25.68391
G1 X134.684 Y142.11 E25.69445
G1 X134.115 Y142.28 E25.705
G1 X133.529 Y142.373 E25.71555
G1 X133.137 Y142.39 E25.72253
G1 X99.863 Y142.39 E26.314
G1 X99.271 Y142.35 E26.32455
G1 X98.689 Y142.231 E26.33511
G1 X98.129 Y142.035 E26.34566
G1 X97.6 Y141.765 E26.35621
G1 X97.112 Y141.427 E26.36677
G1 X96.674 Y141.026 E26.37732
G1 X96.294 Y140.57 E26.38787
G1 X95.978 Y140.067 E26.39843
G1 X95.733 Y139.527 E26.40897
G1 X95.563 Y138.958 E26.41953
G1 X95.47 Y138.372 E26.43008
