;START_OF_HEADER
;HEADER_VERSION:0.1
;FLAVOR:Griffin
;GENERATOR.NAME:Cura_SteamEngine
;GENERATOR.VERSION:3.6.0
;GENERATOR.BUILD_DATE:2018-11-12
;TARGET_MACHINE.NAME:Ultimaker 3
;EXTRUDER_TRAIN.0.INITIAL_TEMPERATURE:217
;EXTRUDER_TRAIN.0.MATERIAL.VOLUME_USED:2853
;EXTRUDER_TRAIN.0.MATERIAL.GUID:44a029e6-e31b-4c9e-a12f-9282e29a92ff
;EXTRUDER_TRAIN.0.NOZZLE.DIAMETER:0.4
;EXTRUDER_TRAIN.0.NOZZLE.NAME:AA 0.4
;BUILD_PLATE.TYPE:glass
;BUILD_PLATE.INITIAL_TEMPERATURE:60
;PRINT.TIME:3702
;PRINT.SIZE.MIN.X:9
;PRINT.SIZE.MIN.Y:6
;PRINT.SIZE.MIN.Z:0.27
;PRINT.SIZE.MAX.X:129.66
;PRINT.SIZE.MAX.Y:124.59
;PRINT.SIZE.MAX.Z:21.37
;END_OF_HEADER
;Generated with Cura_SteamEngine 3.6.0
T0
M82 ;absolute extrusion mode

G92 E0
M109 S217
G0 F15000 X9 Y6 Z2
G280
G1 F1500 E-6.5
;LAYER_COUNT:213
;LAYER:0
M107
M204 S625
M205 X6 Y6
G0 F4285.7 X101.475 Y92.563 Z0.27
M204 S500
M205 X5 Y5
;TYPE:SKIRT
G1 F1500 E0
G1 F1200 X101.598 Y92.44 E0.00309
G1 X102.152 Y91.942 E0.01633
G1 X102.756 Y91.507 E0.02957
G1 X103.403 Y91.14 E0.04279
G1 X104.085 Y90.843 E0.05601
G1 X104.796 Y90.622 E0.06925
G1 X105.526 Y90.478 E0.08247
G1 X106.498 Y90.41 E0.09979
G1 X119.257 Y90.41 E0.3266
G1 X120 Y90.45 E0.33982
G1 X120.735 Y90.569 E0.35306
G1 X121.453 Y90.767 E0.3663
G1 X122.145 Y91.04 E0.37952
G1 X122.804 Y91.386 E0.39275
G1 X123.422 Y91.801 E0.40599
G1 X124.157 Y92.44 E0.4233
G1 X124.28 Y92.563 E0.42639
G1 X124.778 Y93.117 E0.43963
G1 X125.213 Y93.721 E0.45286
G1 X125.58 Y94.368 E0.46609
G1 X125.877 Y95.05 E0.47931
G1 X126.098 Y95.761 E0.49254
G1 X126.242 Y96.491 E0.50577
G1 X126.31 Y97.463 E0.52309
G1 X126.31 Y117.537 E0.87993
G1 X126.27 Y118.28 E0.89315
G1 X126.151 Y119.015 E0.90639
G1 X125.953 Y119.733 E0.91963
G1 X125.68 Y120.425 E0.93285
G1 X125.334 Y121.084 E0.94608
G1 X124.919 Y121.702 E0.95931
G1 X124.28 Y122.437 E0.97663
G1 X124.157 Y122.56 E0.97972
G1 X123.603 Y123.058 E0.99296
G1 X122.999 Y123.493 E1.00619
G1 X122.352 Y123.86 E1.01942
G1 X121.67 Y124.157 E1.03264
G1 X120.959 Y124.378 E1.04587
G1 X120.229 Y124.522 E1.0591
G1 X119.257 Y124.59 E1.07642
G1 X106.498 Y124.59 E1.30322
G1 X105.755 Y124.55 E1.31645
G1 X105.02 Y124.431 E1.32969
G1 X104.302 Y124.233 E1.34293
G1 X103.61 Y123.96 E1.35615
G1 X102.951 Y123.614 E1.36938
G1 X102.333 Y123.199 E1.38261
G1 X101.598 Y122.56 E1.39993
G1 X101.475 Y122.437 E1.40302
G1 X100.977 Y121.883 E1.41626
G1 X100.542 Y121.279 E1.42949
G1 X100.175 Y120.632 E1.44271
G1 X99.878 Y119.95 E1.45594
G1 X99.657 Y119.239 E1.46917
G1 X99.513 Y118.509 E1.4824
G1 X99.445 Y117.537 E1.49972
G1 X99.445 Y97.463 E1.85655
G1 X99.485 Y96.72 E1.86978
G1 X99.604 Y95.985 E1.88302
G1 X99.802 Y95.267 E1.89625
G1 X100.075 Y94.575 E1.90948
G1 X100.421 Y93.916 E1.92271
G1 X100.836 Y93.298 E1.93594
G1 X101.475 Y92.563 E1.95325
M204 S625
M205 X6 Y6
G0 F4285.7 X101.772 Y92.86
M204 S500
M205 X5 Y5
G1 F1200 X101.895 Y92.737 E1.95635
G1 X102.432 Y92.256 E1.96916
G1 X103.02 Y91.837 E1.982
G1 X103.65 Y91.486 E1.99482
G1 X104.315 Y91.207 E2.00764
G1 X105.007 Y91.003 E2.02046
G1 X105.717 Y90.877 E2.03328
G1 X106.498 Y90.83 E2.04719
G1 X119.257 Y90.83 E2.27399
G1 X119.977 Y90.87 E2.28681
G1 X120.689 Y90.989 E2.29964
G1 X121.383 Y91.187 E2.31247
G1 X122.05 Y91.46 E2.32528
G1 X122.684 Y91.805 E2.33811
G1 X123.275 Y92.218 E2.35093
G1 X123.86 Y92.737 E2.36483
G1 X123.983 Y92.86 E2.36792
G1 X124.464 Y93.397 E2.38074
G1 X124.883 Y93.985 E2.39357
G1 X125.234 Y94.615 E2.40639
G1 X125.513 Y95.28 E2.41921
G1 X125.717 Y95.972 E2.43203
G1 X125.843 Y96.682 E2.44485
G1 X125.89 Y97.463 E2.45876
G1 X125.89 Y117.537 E2.81559
G1 X125.85 Y118.257 E2.82841
G1 X125.731 Y118.969 E2.84125
G1 X125.533 Y119.663 E2.85407
G1 X125.26 Y120.33 E2.86689
G1 X124.915 Y120.964 E2.87972
G1 X124.502 Y121.555 E2.89253
G1 X123.983 Y122.14 E2.90643
G1 X123.86 Y122.263 E2.90953
G1 X123.323 Y122.744 E2.92234
G1 X122.735 Y123.163 E2.93518
G1 X122.105 Y123.514 E2.948
G1 X121.44 Y123.793 E2.96081
G1 X120.748 Y123.997 E2.97364
G1 X120.038 Y124.123 E2.98646
G1 X119.257 Y124.17 E3.00037
G1 X106.498 Y124.17 E3.22717
G1 X105.778 Y124.13 E3.23999
G1 X105.066 Y124.011 E3.25282
G1 X104.372 Y123.813 E3.26565
G1 X103.705 Y123.54 E3.27846
G1 X103.071 Y123.195 E3.29129
G1 X102.48 Y122.782 E3.30411
G1 X101.895 Y122.263 E3.31801
G1 X101.772 Y122.14 E3.3211
G1 X101.291 Y121.603 E3.33392
G1 X100.872 Y121.015 E3.34675
G1 X100.521 Y120.385 E3.35957
G1 X100.242 Y119.72 E3.37239
G1 X100.038 Y119.028 E3.38521
G1 X99.912 Y118.318 E3.39803
G1 X99.865 Y117.537 E3.41194
G1 X99.865 Y97.463 E3.76877
G1 X99.905 Y96.743 E3.78159
G1 X100.024 Y96.031 E3.79442
G1 X100.222 Y95.337 E3.80725
G1 X100.495 Y94.67 E3.82006
G1 X100.84 Y94.036 E3.8329
G1 X101.253 Y93.445 E3.84571
G1 X101.772 Y92.86 E3.85961
M204 S625
M205 X6 Y6
G0 F4285.7 X102.069 Y93.157
M204 S500
M205 X5 Y5
G1 F1200 X102.192 Y93.034 E3.86271
G1 X102.713 Y92.569 E3.87512
G1 X103.283 Y92.168 E3.88751
G1 X103.896 Y91.834 E3.89992
G1 X104.543 Y91.572 E3.91233
G1 X105.215 Y91.387 E3.92471
G1 X105.904 Y91.279 E3.93711
G1 X106.498 Y91.25 E3.94768
G1 X119.257 Y91.25 E4.17449
G1 X119.954 Y91.29 E4.1869
G1 X120.641 Y91.409 E4.19929
G1 X121.31 Y91.607 E4.21169
G1 X121.953 Y91.879 E4.2241
G1 X122.559 Y92.223 E4.23649
G1 X123.123 Y92.635 E4.24891
G1 X123.563 Y93.034 E4.25947
G1 X123.686 Y93.157 E4.26256
G1 X124.151 Y93.678 E4.27497
G1 X124.552 Y94.248 E4.28736
G1 X124.886 Y94.861 E4.29977
G1 X125.148 Y95.508 E4.31218
G1 X125.333 Y96.18 E4.32457
G1 X125.441 Y96.869 E4.33696
G1 X125.47 Y97.463 E4.34754
G1 X125.47 Y117.537 E4.70437
G1 X125.43 Y118.234 E4.71678
G1 X125.311 Y118.921 E4.72917
G1 X125.113 Y119.59 E4.74158
G1 X124.841 Y120.233 E4.75399
G1 X124.497 Y120.839 E4.76637
G1 X124.085 Y121.403 E4.77879
G1 X123.686 Y121.843 E4.78935
G1 X123.563 Y121.966 E4.79244
G1 X123.042 Y122.431 E4.80485
G1 X122.472 Y122.832 E4.81724
G1 X121.859 Y123.166 E4.82965
G1 X121.212 Y123.428 E4.84206
G1 X120.54 Y123.613 E4.85445
G1 X119.851 Y123.721 E4.86685
G1 X119.257 Y123.75 E4.87742
G1 X106.498 Y123.75 E5.10422
G1 X105.801 Y123.71 E5.11663
G1 X105.114 Y123.591 E5.12903
G1 X104.445 Y123.393 E5.14143
G1 X103.802 Y123.121 E5.15384
G1 X103.196 Y122.777 E5.16623
G1 X102.632 Y122.365 E5.17864
G1 X102.192 Y121.966 E5.1892
G1 X102.069 Y121.843 E5.19229
G1 X101.604 Y121.322 E5.2047
G1 X101.203 Y120.752 E5.21709
G1 X100.869 Y120.139 E5.2295
G1 X100.607 Y119.492 E5.24191
G1 X100.422 Y118.82 E5.2543
G1 X100.314 Y118.131 E5.2667
G1 X100.285 Y117.537 E5.27727
G1 X100.285 Y97.463 E5.6341
G1 X100.325 Y96.766 E5.64651
G1 X100.444 Y96.079 E5.65891
G1 X100.642 Y95.41 E5.67131
G1 X100.914 Y94.767 E5.68372
G1 X101.258 Y94.161 E5.69611
G1 X101.67 Y93.597 E5.70852
G1 X102.069 Y93.157 E5.71908
M204 S625
M205 X6 Y6
G0 F4285.7 X102.366 Y93.454
M204 S500
M205 X5 Y5
G1 F1200 X102.489 Y93.331 E5.72217
G1 X102.992 Y92.884 E5.73414
G1 X103.545 Y92.5 E5.7461
G1 X104.14 Y92.184 E5.75808
G1 X104.767 Y91.941 E5.77003
G1 X105.419 Y91.774 E5.782
G1 X106.087 Y91.685 E5.79398
G1 X106.498 Y91.67 E5.80129
G1 X119.257 Y91.67 E6.02809
G1 X119.929 Y91.71 E6.04006
G1 X120.592 Y91.829 E6.05203
G1 X121.235 Y92.026 E6.06399
G1 X121.851 Y92.298 E6.07596
G1 X122.43 Y92.641 E6.08792
G1 X122.965 Y93.05 E6.09989
G1 X123.266 Y93.331 E6.10721
G1 X123.389 Y93.454 E6.1103
G1 X123.836 Y93.957 E6.12226
G1 X124.22 Y94.51 E6.13423
G1 X124.536 Y95.105 E6.14621
G1 X124.779 Y95.732 E6.15816
G1 X124.946 Y96.384 E6.17012
G1 X125.035 Y97.052 E6.1821
G1 X125.05 Y97.463 E6.18941
G1 X125.05 Y117.537 E6.54625
G1 X125.01 Y118.209 E6.55821
G1 X124.891 Y118.872 E6.57019
G1 X124.694 Y119.515 E6.58214
G1 X124.422 Y120.131 E6.59411
G1 X124.079 Y120.71 E6.60608
G1 X123.67 Y121.245 E6.61805
G1 X123.389 Y121.546 E6.62537
G1 X123.266 Y121.669 E6.62846
G1 X122.763 Y122.116 E6.64042
G1 X122.21 Y122.5 E6.65239
G1 X121.615 Y122.816 E6.66436
G1 X120.988 Y123.059 E6.67632
G1 X120.336 Y123.226 E6.68828
G1 X119.668 Y123.315 E6.70026
G1 X119.257 Y123.33 E6.70757
G1 X106.498 Y123.33 E6.93437
G1 X105.826 Y123.29 E6.94634
G1 X105.163 Y123.171 E6.95832
G1 X104.52 Y122.974 E6.97027
G1 X103.904 Y122.702 E6.98224
G1 X103.325 Y122.359 E6.9942
G1 X102.79 Y121.95 E7.00617
G1 X102.489 Y121.669 E7.01349
G1 X102.366 Y121.546 E7.01659
G1 X101.919 Y121.043 E7.02855
G1 X101.535 Y120.49 E7.04051
G1 X101.219 Y119.895 E7.05249
G1 X100.976 Y119.268 E7.06444
G1 X100.809 Y118.616 E7.07641
G1 X100.72 Y117.948 E7.08839
G1 X100.705 Y117.537 E7.0957
G1 X100.705 Y97.463 E7.45253
G1 X100.745 Y96.791 E7.4645
G1 X100.864 Y96.128 E7.47647
G1 X101.061 Y95.485 E7.48843
G1 X101.333 Y94.869 E7.5004
G1 X101.676 Y94.29 E7.51236
G1 X102.085 Y93.755 E7.52433
G1 X102.366 Y93.454 E7.53165
M204 S625
M205 X6 Y6
G0 F4285.7 X102.663 Y93.751
M204 S500
M205 X5 Y5
G1 F1200 X102.786 Y93.628 E7.53474
G1 X103.271 Y93.199 E7.54625
G1 X103.806 Y92.833 E7.55778
G1 X104.381 Y92.536 E7.56928
G1 X104.989 Y92.312 E7.5808
G1 X105.62 Y92.164 E7.59232
G1 X106.498 Y92.09 E7.60798
G1 X119.257 Y92.09 E7.83479
G1 X119.904 Y92.13 E7.84631
G1 X120.54 Y92.249 E7.85781
G1 X121.157 Y92.446 E7.86932
G1 X121.746 Y92.717 E7.88085
G1 X122.296 Y93.059 E7.89236
G1 X122.969 Y93.628 E7.90803
G1 X123.092 Y93.751 E7.91112
G1 X123.521 Y94.236 E7.92263
G1 X123.887 Y94.771 E7.93415
G1 X124.184 Y95.346 E7.94566
G1 X124.408 Y95.954 E7.95717
G1 X124.556 Y96.585 E7.96869
G1 X124.63 Y97.463 E7.98436
G1 X124.63 Y117.537 E8.34119
G1 X124.59 Y118.184 E8.35272
G1 X124.471 Y118.82 E8.36422
G1 X124.274 Y119.437 E8.37573
G1 X124.003 Y120.026 E8.38726
G1 X123.661 Y120.576 E8.39877
G1 X123.092 Y121.249 E8.41443
G1 X122.969 Y121.372 E8.41753
G1 X122.484 Y121.801 E8.42904
G1 X121.949 Y122.167 E8.44056
G1 X121.374 Y122.464 E8.45206
G1 X120.766 Y122.688 E8.46358
G1 X120.135 Y122.836 E8.4751
G1 X119.257 Y122.91 E8.49077
G1 X106.498 Y122.91 E8.71757
G1 X105.851 Y122.87 E8.72909
G1 X105.215 Y122.751 E8.74059
G1 X104.598 Y122.554 E8.75211
G1 X104.009 Y122.283 E8.76363
G1 X103.459 Y121.941 E8.77514
G1 X102.786 Y121.372 E8.79081
G1 X102.663 Y121.249 E8.7939
G1 X102.234 Y120.764 E8.80541
G1 X101.868 Y120.229 E8.81694
G1 X101.571 Y119.654 E8.82844
G1 X101.347 Y119.046 E8.83996
G1 X101.199 Y118.415 E8.85148
G1 X101.125 Y117.537 E8.86714
G1 X101.125 Y97.463 E9.22398
G1 X101.165 Y96.816 E9.2355
G1 X101.284 Y96.18 E9.247
G1 X101.481 Y95.563 E9.25851
G1 X101.752 Y94.974 E9.27004
G1 X102.094 Y94.424 E9.28155
G1 X102.663 Y93.751 E9.29722
M204 S625
M205 X6 Y6
G0 F4285.7 X102.96 Y94.048
M204 S500
M205 X5 Y5
G1 F1200 X103.083 Y93.925 E9.30031
G1 X103.549 Y93.515 E9.31134
G1 X104.065 Y93.168 E9.3224
G1 X104.621 Y92.89 E9.33345
G1 X105.207 Y92.686 E9.34448
G1 X105.815 Y92.558 E9.35552
G1 X106.498 Y92.51 E9.36769
G1 X119.257 Y92.51 E9.5945
G1 X119.877 Y92.55 E9.60554
G1 X120.487 Y92.669 E9.61659
G1 X121.076 Y92.866 E9.62763
G1 X121.635 Y93.136 E9.63866
G1 X122.155 Y93.476 E9.64971
G1 X122.672 Y93.925 E9.66188
G1 X122.795 Y94.048 E9.66497
G1 X123.205 Y94.514 E9.676
G1 X123.552 Y95.03 E9.68706
G1 X123.83 Y95.586 E9.69811
G1 X124.034 Y96.172 E9.70914
G1 X124.162 Y96.78 E9.72018
G1 X124.21 Y97.463 E9.73235
G1 X124.21 Y117.537 E10.08919
G1 X124.17 Y118.157 E10.10023
G1 X124.051 Y118.767 E10.11128
G1 X123.854 Y119.356 E10.12232
G1 X123.584 Y119.915 E10.13336
G1 X123.244 Y120.435 E10.1444
G1 X122.795 Y120.952 E10.15657
G1 X122.672 Y121.075 E10.15966
G1 X122.206 Y121.485 E10.1707
G1 X121.69 Y121.832 E10.18175
G1 X121.134 Y122.11 E10.1928
G1 X120.548 Y122.314 E10.20383
G1 X119.94 Y122.442 E10.21488
G1 X119.257 Y122.49 E10.22705
G1 X106.498 Y122.49 E10.45385
G1 X105.878 Y122.45 E10.46489
G1 X105.268 Y122.331 E10.47594
G1 X104.679 Y122.134 E10.48698
G1 X104.12 Y121.864 E10.49802
G1 X103.6 Y121.524 E10.50906
G1 X103.083 Y121.075 E10.52123
G1 X102.96 Y120.952 E10.52433
G1 X102.55 Y120.486 E10.53536
G1 X102.203 Y119.97 E10.54641
G1 X101.925 Y119.414 E10.55746
G1 X101.721 Y118.828 E10.56849
G1 X101.593 Y118.22 E10.57954
G1 X101.545 Y117.537 E10.59171
G1 X101.545 Y97.463 E10.94854
G1 X101.585 Y96.843 E10.95959
G1 X101.704 Y96.233 E10.97064
G1 X101.901 Y95.644 E10.98168
G1 X102.171 Y95.085 E10.99271
G1 X102.511 Y94.565 E11.00375
G1 X102.96 Y94.048 E11.01593
M204 S625
M205 X6 Y6
G0 F4285.7 X103.257 Y94.345
M204 S500
M205 X5 Y5
G1 F1200 X103.38 Y94.222 E11.01902
G1 X103.827 Y93.831 E11.02958
G1 X104.322 Y93.504 E11.04012
G1 X104.857 Y93.247 E11.05067
G1 X105.422 Y93.063 E11.06123
G1 X106.006 Y92.958 E11.07178
G1 X106.498 Y92.93 E11.08054
G1 X119.257 Y92.93 E11.30735
G1 X119.849 Y92.97 E11.31789
G1 X120.431 Y93.089 E11.32845
G1 X120.991 Y93.285 E11.339
G1 X121.52 Y93.555 E11.34956
G1 X122.008 Y93.893 E11.36011
G1 X122.375 Y94.222 E11.36887
G1 X122.498 Y94.345 E11.37196
G1 X122.889 Y94.792 E11.38252
G1 X123.216 Y95.287 E11.39306
G1 X123.473 Y95.822 E11.40362
G1 X123.657 Y96.387 E11.41418
G1 X123.762 Y96.971 E11.42473
G1 X123.79 Y97.463 E11.43349
G1 X123.79 Y117.537 E11.79032
G1 X123.75 Y118.129 E11.80087
G1 X123.631 Y118.711 E11.81143
G1 X123.435 Y119.271 E11.82197
G1 X123.165 Y119.8 E11.83253
G1 X122.827 Y120.288 E11.84308
G1 X122.498 Y120.655 E11.85185
G1 X122.375 Y120.778 E11.85494
G1 X121.928 Y121.169 E11.86549
G1 X121.433 Y121.496 E11.87604
G1 X120.898 Y121.753 E11.88659
G1 X120.333 Y121.937 E11.89715
G1 X119.749 Y122.042 E11.9077
G1 X119.257 Y122.07 E11.91646
G1 X106.498 Y122.07 E12.14326
G1 X105.906 Y122.03 E12.15381
G1 X105.324 Y121.911 E12.16437
G1 X104.764 Y121.715 E12.17492
G1 X104.235 Y121.445 E12.18548
G1 X103.747 Y121.107 E12.19603
G1 X103.38 Y120.778 E12.20479
G1 X103.257 Y120.655 E12.20788
G1 X102.866 Y120.208 E12.21844
G1 X102.539 Y119.713 E12.22898
G1 X102.282 Y119.178 E12.23953
G1 X102.098 Y118.613 E12.2501
G1 X101.993 Y118.029 E12.26064
G1 X101.965 Y117.537 E12.2694
G1 X101.965 Y97.463 E12.62624
G1 X102.005 Y96.871 E12.63679
G1 X102.124 Y96.289 E12.64735
G1 X102.32 Y95.729 E12.65789
G1 X102.59 Y95.2 E12.66845
G1 X102.928 Y94.712 E12.679
G1 X103.257 Y94.345 E12.68776
M204 S625
M205 X6 Y6
G0 F4285.7 X103.554 Y94.642
M204 S500
M205 X5 Y5
G1 F1200 X103.677 Y94.519 E12.69086
G1 X104.103 Y94.149 E12.70089
G1 X104.578 Y93.843 E12.71093
G1 X105.091 Y93.606 E12.72098
G1 X105.632 Y93.445 E12.73101
G1 X106.19 Y93.362 E12.74104
G1 X106.498 Y93.35 E12.74652
G1 X119.257 Y93.35 E12.97332
G1 X119.82 Y93.39 E12.98335
G1 X120.372 Y93.509 E12.99339
G1 X120.902 Y93.705 E13.00344
G1 X121.398 Y93.973 E13.01346
G1 X121.852 Y94.309 E13.0235
G1 X122.078 Y94.519 E13.02898
G1 X122.201 Y94.642 E13.03207
G1 X122.571 Y95.068 E13.0421
G1 X122.877 Y95.543 E13.05215
G1 X123.114 Y96.056 E13.06219
G1 X123.275 Y96.597 E13.07223
G1 X123.358 Y97.155 E13.08225
G1 X123.37 Y97.463 E13.08773
G1 X123.37 Y117.537 E13.44457
G1 X123.33 Y118.1 E13.4546
G1 X123.211 Y118.652 E13.46464
G1 X123.015 Y119.182 E13.47468
G1 X122.747 Y119.678 E13.48471
G1 X122.411 Y120.132 E13.49475
G1 X122.201 Y120.358 E13.50023
G1 X122.078 Y120.481 E13.50332
G1 X121.652 Y120.851 E13.51335
G1 X121.177 Y121.157 E13.5234
G1 X120.664 Y121.394 E13.53344
G1 X120.123 Y121.555 E13.54347
G1 X119.565 Y121.638 E13.5535
G1 X119.257 Y121.65 E13.55898
G1 X106.498 Y121.65 E13.78579
G1 X105.935 Y121.61 E13.79582
G1 X105.383 Y121.491 E13.80586
G1 X104.853 Y121.295 E13.8159
G1 X104.357 Y121.027 E13.82592
G1 X103.903 Y120.691 E13.83596
G1 X103.677 Y120.481 E13.84145
G1 X103.554 Y120.358 E13.84454
G1 X103.184 Y119.932 E13.85457
G1 X102.878 Y119.457 E13.86461
G1 X102.641 Y118.944 E13.87466
G1 X102.48 Y118.403 E13.88469
G1 X102.397 Y117.845 E13.89472
G1 X102.385 Y117.537 E13.9002
G1 X102.385 Y97.463 E14.25703
G1 X102.425 Y96.9 E14.26707
G1 X102.544 Y96.348 E14.27711
G1 X102.74 Y95.818 E14.28715
G1 X103.008 Y95.322 E14.29717
G1 X103.344 Y94.868 E14.30721
G1 X103.554 Y94.642 E14.3127
M204 S625
M205 X6 Y6
G0 F4285.7 X103.851 Y94.939
M204 S500
M205 X5 Y5
G1 F1200 X103.974 Y94.816 E14.31579
G1 X104.378 Y94.467 E14.32528
G1 X104.831 Y94.183 E14.33478
G1 X105.32 Y93.97 E14.34426
G1 X105.836 Y93.832 E14.35376
G1 X106.498 Y93.77 E14.36558
G1 X119.257 Y93.77 E14.59238
G1 X119.79 Y93.81 E14.60188
G1 X120.31 Y93.929 E14.61136
G1 X120.807 Y94.124 E14.62086
G1 X121.27 Y94.391 E14.63036
G1 X121.781 Y94.816 E14.64217
G1 X121.904 Y94.939 E14.64526
G1 X122.253 Y95.343 E14.65475
