;START_OF_HEADER
;HEADER_VERSION:0.1
;FLAVOR:Griffin
;GENERATOR.NAME:Cura_SteamEngine
;GENERATOR.VERSION:4.1.0
;GENERATOR.BUILD_DATE:2019-05-28
;TARGET_MACHINE.NAME:Ultimaker 3
;EXTRUDER_TRAIN.0.INITIAL_TEMPERATURE:217
;EXTRUDER_TRAIN.0.MATERIAL.VOLUME_USED:1822
;EXTRUDER_TRAIN.0.MATERIAL.GUID:44a029e6-e31b-4c9e-a12f-9282e29a92ff
;EXTRUDER_TRAIN.0.NOZZLE.DIAMETER:0.4
;EXTRUDER_TRAIN.0.NOZZLE.NAME:AA 0.4
;BUILD_PLATE.TYPE:glass
;BUILD_PLATE.INITIAL_TEMPERATURE:60
;BUILD_VOLUME.TEMPERATURE:35
;PRINT.TIME:2555
;PRINT.GROUPS:1
;PRINT.SIZE.MIN.X:9
;PRINT.SIZE.MIN.Y:6
;PRINT.SIZE.MIN.Z:0.27
;PRINT.SIZE.MAX.X:130.29
;PRINT.SIZE.MAX.Y:134.625
;PRINT.SIZE.MAX.Z:4.47
;END_OF_HEADER
;Generated with Cura_SteamEngine 4.1.0
T0
M82 ;absolute extrusion mode

G92 E0
M109 S217
G0 F15000 X9 Y6 Z2
G280
G1 F1500 E-6.5
;LAYER_COUNT:23
;LAYER:0
M107
M204 S625
M205 X6 Y6
G0 F4285.7 X103.368 Y81.942 Z0.27
M204 S500
M205 X5 Y5
;TYPE:SKIRT
G1 F1500 E0
G1 F1200 X103.708 Y81.524 E0.00958
G1 X104.105 Y81.16 E0.01915
G1 X104.552 Y80.86 E0.02872
G1 X105.039 Y80.629 E0.0383
G1 X105.554 Y80.472 E0.04787
G1 X106.247 Y80.385 E0.06029
G1 X106.568 Y80.376 E0.066
G1 X106.67 Y80.375 E0.06781
G1 X126.005 Y80.375 E0.41151
G1 X126.703 Y80.385 E0.42392
G1 X127.239 Y80.433 E0.43348
G1 X127.763 Y80.559 E0.44306
G1 X128.262 Y80.762 E0.45264
G1 X128.725 Y81.036 E0.4622
G1 X129.143 Y81.376 E0.47178
G1 X129.506 Y81.774 E0.48136
G1 X129.806 Y82.221 E0.49093
G1 X130.037 Y82.707 E0.50049
G1 X130.193 Y83.223 E0.51007
G1 X130.28 Y83.913 E0.52244
G1 X130.289 Y84.233 E0.52813
G1 X130.29 Y84.335 E0.52994
G1 X130.29 Y130.304 E1.34709
G1 X130.281 Y131.031 E1.36001
G1 X130.234 Y131.567 E1.36957
G1 X130.109 Y132.091 E1.37915
G1 X129.907 Y132.591 E1.38874
G1 X129.634 Y133.055 E1.39831
G1 X129.295 Y133.473 E1.40787
G1 X128.898 Y133.837 E1.41745
G1 X128.452 Y134.138 E1.42701
G1 X127.965 Y134.37 E1.4366
G1 X127.45 Y134.527 E1.44617
G1 X126.753 Y134.615 E1.45866
G1 X126.432 Y134.624 E1.46437
G1 X126.33 Y134.625 E1.46618
G1 X107 Y134.625 E1.80979
G1 X106.302 Y134.616 E1.8222
G1 X105.766 Y134.569 E1.83176
G1 X105.242 Y134.443 E1.84134
G1 X104.743 Y134.241 E1.85091
G1 X104.279 Y133.968 E1.86048
G1 X103.861 Y133.629 E1.87005
G1 X103.497 Y133.232 E1.87962
G1 X103.196 Y132.785 E1.8892
G1 X102.965 Y132.299 E1.89877
G1 X102.808 Y131.784 E1.90834
G1 X102.72 Y131.084 E1.92088
G1 X102.711 Y130.751 E1.9268
G1 X102.71 Y130.653 E1.92854
G1 X102.71 Y84.63 E2.74665
G1 X102.719 Y83.965 E2.75847
G1 X102.767 Y83.428 E2.76805
G1 X102.893 Y82.905 E2.77762
G1 X103.095 Y82.406 E2.78719
G1 X103.368 Y81.942 E2.79676
M204 S625
M205 X6 Y6
G0 F4285.7 X103.784 Y82.084
M204 S500
M205 X5 Y5
G1 F1200 X104.12 Y81.704 E2.80577
G1 X104.511 Y81.383 E2.81476
G1 X104.947 Y81.126 E2.82376
G1 X105.419 Y80.942 E2.83277
G1 X105.914 Y80.834 E2.84177
G1 X106.259 Y80.805 E2.84793
G1 X106.58 Y80.796 E2.85364
G1 X106.67 Y80.795 E2.85524
G1 X125.999 Y80.795 E3.19883
G1 X126.697 Y80.805 E3.21124
G1 X127.201 Y80.852 E3.22023
G1 X127.692 Y80.978 E3.22925
G1 X128.156 Y81.18 E3.23824
G1 X128.583 Y81.452 E3.24724
G1 X128.962 Y81.787 E3.25623
G1 X129.284 Y82.179 E3.26525
G1 X129.54 Y82.616 E3.27425
G1 X129.724 Y83.087 E3.28324
G1 X129.832 Y83.582 E3.29225
G1 X129.86 Y83.925 E3.29836
G1 X129.869 Y84.245 E3.30406
G1 X129.87 Y84.335 E3.30566
G1 X129.87 Y130.299 E4.12271
G1 X129.861 Y131.026 E4.13563
G1 X129.815 Y131.53 E4.14463
G1 X129.69 Y132.021 E4.15364
G1 X129.489 Y132.486 E4.16264
G1 X129.218 Y132.913 E4.17163
G1 X128.883 Y133.293 E4.18064
G1 X128.492 Y133.615 E4.18964
G1 X128.056 Y133.872 E4.19864
G1 X127.585 Y134.057 E4.20763
G1 X127.09 Y134.166 E4.21664
G1 X126.741 Y134.195 E4.22287
G1 X126.42 Y134.204 E4.22858
G1 X126.33 Y134.205 E4.23018
G1 X107.006 Y134.205 E4.57368
G1 X106.308 Y134.196 E4.58609
G1 X105.803 Y134.149 E4.5951
G1 X105.313 Y134.024 E4.60409
G1 X104.848 Y133.823 E4.6131
G1 X104.42 Y133.552 E4.6221
G1 X104.041 Y133.217 E4.63109
G1 X103.719 Y132.826 E4.6401
G1 X103.462 Y132.39 E4.64909
G1 X103.277 Y131.918 E4.65811
G1 X103.169 Y131.424 E4.6671
G1 X103.14 Y131.073 E4.67336
G1 X103.131 Y130.74 E4.67928
G1 X103.13 Y130.653 E4.68082
G1 X103.13 Y84.636 E5.49882
G1 X103.139 Y83.971 E5.51064
G1 X103.186 Y83.466 E5.51966
G1 X103.312 Y82.976 E5.52865
G1 X103.513 Y82.511 E5.53766
G1 X103.784 Y82.084 E5.54665
M204 S625
M205 X6 Y6
G1 F1500 E-0.95335
;MESH:6mm and number 6 hole test.stl
G0 F4285.7 X106.954 Y84.619
G0 X110.436 Y99.064
G0 X110.9 Y100.034
G0 X111.622 Y100.827
G0 X116.386 Y104.021
G0 X117.089 Y104.821
G0 X117.539 Y105.785
G0 X120.442 Y120.468
G0 X120.912 Y121.257
G0 X124.947 Y125.632
G0 X125.7 Y127.837
M204 S500
M205 X5 Y5
;TYPE:WALL-INNER
G1 F1500 E5.54665
G1 F1200 X125.7 Y127.937 E5.54817
G1 X125.7 Y128.43 E5.55568
G1 X125.7 Y128.732 E5.56028
G1 X125.7 Y130.035 E5.58014
G1 X124.403 Y130.035 E5.5999
G1 X124.027 Y130.035 E5.60563
G1 X123.533 Y130.035 E5.61315
G1 X124.027 Y129.869 E5.61523
G1 X124.357 Y129.688 E5.61947
G1 X124.488 Y129.616 E5.62175
G1 X124.894 Y129.285 E5.62973
G1 X125.238 Y128.887 E5.63775
G1 X125.352 Y128.691 E5.6412
G1 X125.504 Y128.43 E5.6448
G1 X125.514 Y128.4 E5.64528
G1 X125.683 Y127.937 E5.6475
G1 X125.7 Y127.837 E5.64755
M204 S625
M205 X6 Y6
G0 F4285.7 X124.669 Y129.054
G0 X123.898 Y129.574
G0 X122.993 Y129.79
G0 X122.066 Y129.673
G0 X121.243 Y129.239
G0 X120.623 Y128.545
G0 X120.344 Y127.871
G0 X120.221 Y126.712
G0 X120.319 Y126.729
M204 S500
M205 X5 Y5
G1 F1200 X120.28 Y127.21 E5.6549
G1 X120.326 Y127.667 E5.6619
G1 X120.453 Y128.111 E5.66894
G1 X120.657 Y128.525 E5.67597
G1 X120.933 Y128.894 E5.68299
G1 X121.267 Y129.208 E5.68998
G1 X121.653 Y129.458 E5.69698
G1 X122.078 Y129.635 E5.704
G1 X122.53 Y129.734 E5.71105
G1 X122.991 Y129.751 E5.71808
G1 X123.446 Y129.684 E5.72508
G1 X123.882 Y129.538 E5.73209
G1 X124.286 Y129.316 E5.73911
G1 X124.642 Y129.026 E5.74611
G1 X124.944 Y128.677 E5.75314
G1 X125.177 Y128.277 E5.76019
G1 X125.334 Y127.845 E5.7672
G1 X125.411 Y127.391 E5.77421
G1 X125.408 Y126.931 E5.78122
G1 X125.32 Y126.477 E5.78827
G1 X125.154 Y126.049 E5.79526
G1 X124.915 Y125.655 E5.80228
G1 X124.607 Y125.31 E5.80933
G1 X124.246 Y125.027 E5.81632
G1 X123.837 Y124.812 E5.82336
G1 X123.397 Y124.674 E5.83039
G1 X122.94 Y124.617 E5.8374
G1 X122.482 Y124.641 E5.84439
G1 X122.033 Y124.749 E5.85143
G1 X121.61 Y124.934 E5.85846
G1 X121.229 Y125.193 E5.86548
G1 X120.9 Y125.513 E5.87247
G1 X120.632 Y125.887 E5.87949
G1 X120.437 Y126.302 E5.88647
G1 X120.319 Y126.729 E5.89322
M204 S625
M205 X6 Y6
G0 F4285.7 X120.705 Y126.797
M204 S500
M205 X5 Y5
;TYPE:WALL-OUTER
G1 F1200 X120.672 Y127.206 E5.90052
G1 X120.711 Y127.594 E5.90745
G1 X120.818 Y127.97 E5.9144
G1 X120.991 Y128.32 E5.92134
G1 X121.225 Y128.633 E5.92828
G1 X121.509 Y128.9 E5.93521
G1 X121.836 Y129.112 E5.94214
G1 X122.196 Y129.262 E5.94907
G1 X122.579 Y129.346 E5.95604
G1 X122.969 Y129.36 E5.96298
G1 X123.355 Y129.303 E5.96992
G1 X123.725 Y129.179 E5.97685
G1 X124.067 Y128.991 E5.98379
G1 X124.369 Y128.745 E5.99071
G1 X124.625 Y128.449 E5.99767
G1 X124.822 Y128.111 E6.00462
G1 X124.955 Y127.745 E6.01155
G1 X125.021 Y127.359 E6.01851
G1 X125.018 Y126.97 E6.02542
G1 X124.944 Y126.585 E6.03239
G1 X124.803 Y126.222 E6.03931
G1 X124.6 Y125.888 E6.04626
G1 X124.339 Y125.596 E6.05322
G1 X124.033 Y125.356 E6.06014
G1 X123.687 Y125.174 E6.06709
G1 X123.314 Y125.057 E6.07404
G1 X122.926 Y125.008 E6.08099
G1 X122.538 Y125.029 E6.08789
G1 X122.158 Y125.12 E6.09484
G1 X121.799 Y125.277 E6.10181
G1 X121.476 Y125.496 E6.10874
G1 X121.197 Y125.768 E6.11567
G1 X120.97 Y126.085 E6.1226
G1 X120.804 Y126.438 E6.12953
G1 X120.705 Y126.797 E6.13615
M204 S625
M205 X6 Y6
G0 F4285.7 X120.689 Y126.996
G0 X120.229 Y126.958
G0 X120.201 Y126.955
G0 X120.259 Y119.098
G0 X120.357 Y119.115
M204 S500
M205 X5 Y5
;TYPE:WALL-INNER
G1 F1200 X120.32 Y119.586 E6.14335
G1 X120.359 Y120.018 E6.14996
G1 X120.479 Y120.454 E6.15685
G1 X120.676 Y120.863 E6.16377
G1 X120.942 Y121.231 E6.17069
G1 X121.27 Y121.545 E6.17761
G1 X121.649 Y121.796 E6.18453
G1 X122.067 Y121.975 E6.19146
G1 X122.511 Y122.075 E6.19839
G1 X122.963 Y122.095 E6.20529
G1 X123.414 Y122.035 E6.21222
G1 X123.846 Y121.894 E6.21914
G1 X124.245 Y121.679 E6.22605
G1 X124.6 Y121.396 E6.23297
G1 X124.9 Y121.054 E6.2399
G1 X125.132 Y120.664 E6.24681
G1 X125.291 Y120.239 E6.25373
G1 X125.373 Y119.792 E6.26065
G1 X125.373 Y119.338 E6.26757
G1 X125.291 Y118.891 E6.27449
G1 X125.132 Y118.466 E6.28141
G1 X124.9 Y118.076 E6.28832
G1 X124.6 Y117.734 E6.29525
G1 X124.245 Y117.451 E6.30217
G1 X123.846 Y117.236 E6.30908
G1 X123.414 Y117.095 E6.316
G1 X122.963 Y117.035 E6.32293
G1 X122.511 Y117.055 E6.32983
G1 X122.067 Y117.155 E6.33676
G1 X121.649 Y117.334 E6.34369
G1 X121.27 Y117.585 E6.35061
G1 X120.942 Y117.899 E6.35753
G1 X120.676 Y118.267 E6.36445
G1 X120.48 Y118.675 E6.37135
G1 X120.357 Y119.115 E6.37831
M204 S625
M205 X6 Y6
G0 F4285.7 X120.743 Y119.183
M204 S500
M205 X5 Y5
;TYPE:WALL-OUTER
G1 F1200 X120.711 Y119.584 E6.38546
G1 X120.744 Y119.948 E6.39196
G1 X120.846 Y120.317 E6.39876
G1 X121.012 Y120.663 E6.40558
G1 X121.237 Y120.974 E6.41241
G1 X121.514 Y121.239 E6.41922
G1 X121.835 Y121.451 E6.42606
G1 X122.188 Y121.602 E6.43288
G1 X122.563 Y121.687 E6.43972
G1 X122.946 Y121.704 E6.44653
G1 X123.327 Y121.653 E6.45337
G1 X123.692 Y121.534 E6.46019
G1 X124.029 Y121.352 E6.467
G1 X124.33 Y121.113 E6.47383
G1 X124.583 Y120.824 E6.48066
G1 X124.779 Y120.494 E6.48748
G1 X124.914 Y120.135 E6.4943
G1 X124.983 Y119.757 E6.50113
G1 X124.983 Y119.373 E6.50796
G1 X124.914 Y118.995 E6.51479
G1 X124.779 Y118.636 E6.52161
G1 X124.583 Y118.306 E6.52843
G1 X124.33 Y118.017 E6.53526
G1 X124.029 Y117.778 E6.54209
G1 X123.692 Y117.596 E6.5489
G1 X123.327 Y117.477 E6.55572
G1 X122.946 Y117.426 E6.56255
G1 X122.563 Y117.443 E6.56937
G1 X122.188 Y117.528 E6.5762
G1 X121.835 Y117.679 E6.58303
G1 X121.514 Y117.891 E6.58987
G1 X121.237 Y118.156 E6.59668
G1 X121.012 Y118.467 E6.6035
G1 X120.846 Y118.813 E6.61033
G1 X120.743 Y119.183 E6.61715
M204 S625
M205 X6 Y6
G0 F4285.7 X120.728 Y119.382
G0 X120.268 Y119.345
G0 X120.24 Y119.343
G0 X120.298 Y111.472
G0 X120.396 Y111.489
M204 S500
M205 X5 Y5
;TYPE:WALL-INNER
G1 F1200 X120.357 Y111.969 E6.62449
G1 X120.404 Y112.426 E6.63149
G1 X120.533 Y112.869 E6.63852
G1 X120.744 Y113.279 E6.64555
G1 X121.025 Y113.643 E6.65255
G1 X121.367 Y113.948 E6.65954
G1 X121.761 Y114.188 E6.66656
G1 X122.191 Y114.349 E6.67356
G1 X122.643 Y114.429 E6.68055
G1 X123.105 Y114.426 E6.68759
G1 X123.556 Y114.335 E6.6946
G1 X123.983 Y114.166 E6.7016
G1 X124.373 Y113.92 E6.70863
G1 X124.708 Y113.605 E6.71563
G1 X124.982 Y113.236 E6.72264
G1 X125.183 Y112.824 E6.72962
G1 X125.306 Y112.379 E6.73666
G1 X125.343 Y111.921 E6.74366
G1 X125.296 Y111.464 E6.75066
G1 X125.167 Y111.021 E6.75769
G1 X124.956 Y110.611 E6.76471
G1 X124.675 Y110.247 E6.77172
G1 X124.333 Y109.942 E6.7787
G1 X123.939 Y109.702 E6.78573
G1 X123.509 Y109.541 E6.79273
G1 X123.057 Y109.461 E6.79972
G1 X122.595 Y109.464 E6.80676
G1 X122.144 Y109.555 E6.81377
G1 X121.717 Y109.724 E6.82077
G1 X121.327 Y109.97 E6.82779
G1 X120.992 Y110.285 E6.8348
G1 X120.718 Y110.653 E6.84179
G1 X120.517 Y111.064 E6.84876
G1 X120.396 Y111.489 E6.85549
M204 S625
M205 X6 Y6
G0 F4285.7 X120.782 Y111.559
M204 S500
M205 X5 Y5
;TYPE:WALL-OUTER
G1 F1200 X120.749 Y111.965 E6.86273
G1 X120.788 Y112.351 E6.86963
G1 X120.897 Y112.724 E6.87654
G1 X121.074 Y113.069 E6.88343
G1 X121.312 Y113.376 E6.89034
G1 X121.6 Y113.634 E6.89721
G1 X121.932 Y113.836 E6.90412
G1 X122.294 Y113.971 E6.91098
G1 X122.676 Y114.039 E6.91788
G1 X123.065 Y114.036 E6.9248
G1 X123.445 Y113.96 E6.93169
G1 X123.805 Y113.817 E6.93857
G1 X124.133 Y113.61 E6.94547
G1 X124.416 Y113.345 E6.95236
G1 X124.647 Y113.033 E6.95926
G1 X124.817 Y112.685 E6.96614
G1 X124.92 Y112.311 E6.97304
G1 X124.951 Y111.925 E6.97992
G1 X124.912 Y111.539 E6.98682
G1 X124.803 Y111.166 E6.99373
G1 X124.626 Y110.821 E7.00062
G1 X124.388 Y110.514 E7.00752
G1 X124.1 Y110.256 E7.0144
G1 X123.768 Y110.054 E7.02131
G1 X123.406 Y109.919 E7.02817
G1 X123.024 Y109.851 E7.03507
G1 X122.635 Y109.854 E7.04199
G1 X122.255 Y109.93 E7.04887
G1 X121.895 Y110.073 E7.05576
G1 X121.567 Y110.28 E7.06265
G1 X121.284 Y110.545 E7.06955
G1 X121.053 Y110.857 E7.07645
G1 X120.883 Y111.204 E7.08332
G1 X120.782 Y111.559 E7.08988
M204 S625
M205 X6 Y6
G0 F4285.7 X120.766 Y111.758
G0 X120.306 Y111.72
G0 X120.278 Y111.717
G0 X120.684 Y110.633
G0 X124.983 Y105.619
G0 X125.7 Y103.781
M204 S500
M205 X5 Y5
;TYPE:WALL-INNER
G1 F1200 X125.7 Y104.297 E7.09774
G1 X125.7 Y104.816 E7.10565
G1 X125.7 Y105.32 E7.11333
G1 X125.7 Y105.632 E7.11808
G1 X125.7 Y110.553 E7.19306
G1 X125.7 Y110.887 E7.19815
G1 X125.7 Y111.395 E7.20589
G1 X125.7 Y111.878 E7.21325
G1 X125.651 Y111.395 E7.21377
G1 X125.503 Y110.887 E7.2167
G1 X125.35 Y110.59 E7.22067
G1 X125.261 Y110.417 E7.22363
G1 X124.94 Y110.001 E7.23164
G1 X124.548 Y109.652 E7.23964
G1 X124.097 Y109.377 E7.24769
G1 X123.604 Y109.192 E7.25571
G1 X123.087 Y109.101 E7.26371
G1 X122.558 Y109.104 E7.27177
G1 X122.041 Y109.208 E7.2798
G1 X121.553 Y109.402 E7.2878
G1 X121.106 Y109.684 E7.29586
G1 X120.722 Y110.045 E7.30389
G1 X120.409 Y110.465 E7.31187
G1 X120.18 Y110.935 E7.31983
G1 X120.04 Y111.425 E7.3276
G1 X119.995 Y111.973 E7.33598
G1 X120.049 Y112.495 E7.34397
G1 X120.197 Y113.003 E7.35203
G1 X120.439 Y113.473 E7.36009
G1 X120.76 Y113.889 E7.3681
G1 X121.152 Y114.238 E7.37609
G1 X121.603 Y114.513 E7.38414
G1 X122.096 Y114.698 E7.39216
G1 X122.613 Y114.789 E7.40016
G1 X123.142 Y114.786 E7.40822
G1 X123.659 Y114.682 E7.41626
G1 X124.147 Y114.488 E7.42426
G1 X124.594 Y114.206 E7.43231
G1 X124.978 Y113.845 E7.44034
G1 X125.291 Y113.424 E7.44834
G1 X125.351 Y113.302 E7.45041
G1 X125.521 Y112.952 E7.45634
G1 X125.662 Y112.442 E7.4644
G1 X125.7 Y111.967 E7.47166
G1 X125.7 Y112.442 E7.47204
G1 X125.7 Y112.952 E7.47434
G1 X125.7 Y113.342 E7.47883
G1 X125.7 Y118.098 E7.5513
G1 X125.7 Y118.31 E7.55453
G1 X125.7 Y118.795 E7.56192
G1 X125.7 Y119.126 E7.56696
G1 X125.639 Y118.795 E7.56745
G1 X125.458 Y118.31 E7.57099
G1 X125.35 Y118.128 E7.57371
G1 X125.192 Y117.863 E7.57841
G1 X124.849 Y117.472 E7.58634
G1 X124.444 Y117.149 E7.59423
G1 X123.988 Y116.904 E7.60212
G1 X123.958 Y116.895 E7.60259
G1 X123.494 Y116.743 E7.61003
G1 X122.979 Y116.674 E7.61795
G1 X122.463 Y116.697 E7.62582
G1 X121.956 Y116.811 E7.63374
G1 X121.477 Y117.016 E7.64168
G1 X121.044 Y117.303 E7.64959
G1 X120.669 Y117.662 E7.6575
G1 X120.365 Y118.082 E7.6654
G1 X120.142 Y118.548 E7.67327
G1 X120.001 Y119.052 E7.68125
G1 X119.959 Y119.588 E7.68944
G1 X120.003 Y120.082 E7.697
G1 X120.141 Y120.581 E7.70488
G1 X120.366 Y121.048 E7.71278
G1 X120.669 Y121.468 E7.72067
G1 X121.044 Y121.827 E7.72858
G1 X121.477 Y122.114 E7.7365
G1 X121.956 Y122.319 E7.74444
G1 X122.463 Y122.433 E7.75235
G1 X122.979 Y122.456 E7.76022
G1 X123.494 Y122.387 E7.76814
G1 X123.988 Y122.226 E7.77606
G1 X124.444 Y121.981 E7.78394
G1 X124.849 Y121.658 E7.79184
G1 X125.192 Y121.267 E7.79976
G1 X125.35 Y121.002 E7.80446
G1 X125.458 Y120.82 E7.80769
G1 X125.639 Y120.335 E7.81558
G1 X125.7 Y120.004 E7.8207
G1 X125.7 Y120.335 E7.82112
G1 X125.7 Y120.82 E7.82417
G1 X125.7 Y121.032 E7.82689
G1 X125.7 Y125.644 E7.89716
G1 X125.7 Y125.889 E7.90089
G1 X125.7 Y126.377 E7.90833
G1 X125.7 Y126.546 E7.9109
G1 X125.667 Y126.377 E7.91106
G1 X125.478 Y125.889 E7.91415
G1 X125.351 Y125.68 E7.91719
G1 X125.206 Y125.44 E7.92146
G1 X124.854 Y125.046 E7.92951
G1 X124.442 Y124.724 E7.93748
G1 X123.976 Y124.478 E7.94551
G1 X123.474 Y124.321 E7.95352
G1 X123.443 Y124.318 E7.954
G1 X122.953 Y124.256 E7.96152
G1 X122.43 Y124.283 E7.9695
G1 X121.918 Y124.406 E7.97752
G1 X121.435 Y124.618 E7.98556
G1 X121.001 Y124.913 E7.99356
G1 X120.626 Y125.277 E8.00152
G1 X120.32 Y125.704 E8.00952
G1 X120.098 Y126.177 E8.01748
G1 X119.963 Y126.666 E8.02521
G1 X119.919 Y127.214 E8.03359
G1 X119.971 Y127.735 E8.04157
G1 X120.116 Y128.241 E8.04959
G1 X120.349 Y128.714 E8.05762
G1 X120.664 Y129.135 E8.06563
G1 X121.044 Y129.493 E8.07359
G1 X121.341 Y129.685 E8.07898
G1 X121.485 Y129.778 E8.08159
G1 X121.969 Y129.98 E8.08958
G1 X122.22 Y130.035 E8.09349
