;START_OF_HEADER
;HEADER_VERSION:0.1
;FLAVOR:Griffin
;GENERATOR.NAME:Cura_SteamEngine
;GENERATOR.VERSION:3.6.0
;GENERATOR.BUILD_DATE:2018-11-12
;TARGET_MACHINE.NAME:Ultimaker 3
;EXTRUDER_TRAIN.0.INITIAL_TEMPERATURE:217
;EXTRUDER_TRAIN.0.MATERIAL.VOLUME_USED:8280
;EXTRUDER_TRAIN.0.MATERIAL.GUID:44a029e6-e31b-4c9e-a12f-9282e29a92ff
;EXTRUDER_TRAIN.0.NOZZLE.DIAMETER:0.4
;EXTRUDER_TRAIN.0.NOZZLE.NAME:AA 0.4
;BUILD_PLATE.TYPE:glass
;BUILD_PLATE.INITIAL_TEMPERATURE:60
;PRINT.TIME:8169
;PRINT.SIZE.MIN.X:9
;PRINT.SIZE.MIN.Y:6
;PRINT.SIZE.MIN.Z:0.27
;PRINT.SIZE.MAX.X:142.182
;PRINT.SIZE.MAX.Y:183.422
;PRINT.SIZE.MAX.Z:4.07
;END_OF_HEADER
;Generated with Cura_SteamEngine 3.6.0
T0
M82 ;absolute extrusion mode

G92 E0
M109 S217
G0 F15000 X9 Y6 Z2
G280
G1 F1500 E-6.5
;LAYER_COUNT:39
;LAYER:0
M107
M204 S625
M205 X6 Y6
G0 F4285.7 X91.175 Y34.017 Z0.27
M204 S500
M205 X5 Y5
;TYPE:SKIRT
G1 F1500 E0
G1 F1200 X91.448 Y33.325 E0.01322
G1 X91.794 Y32.666 E0.02645
G1 X92.209 Y32.048 E0.03969
G1 X92.688 Y31.478 E0.05292
G1 X93.225 Y30.963 E0.06615
G1 X93.814 Y30.508 E0.07938
G1 X94.448 Y30.119 E0.0926
G1 X95.121 Y29.8 E0.10584
G1 X95.824 Y29.555 E0.11907
G1 X96.549 Y29.387 E0.1323
G1 X97.288 Y29.298 E0.14553
G1 X97.748 Y29.283 E0.15372
G1 X135.252 Y29.283 E0.82039
G1 X135.995 Y29.323 E0.83361
G1 X136.73 Y29.442 E0.84685
G1 X137.448 Y29.64 E0.86009
G1 X138.14 Y29.913 E0.87331
G1 X138.799 Y30.259 E0.88654
G1 X139.417 Y30.674 E0.89977
G1 X139.987 Y31.153 E0.91301
G1 X140.502 Y31.69 E0.92623
G1 X140.957 Y32.279 E0.93947
G1 X141.346 Y32.913 E0.95269
G1 X141.665 Y33.586 E0.96593
G1 X141.91 Y34.289 E0.97916
G1 X142.078 Y35.014 E0.99239
G1 X142.167 Y35.753 E1.00562
G1 X142.182 Y36.213 E1.0138
G1 X142.182 Y78.197 E1.76011
G1 X142.142 Y78.94 E1.77334
G1 X142.023 Y79.675 E1.78657
G1 X141.825 Y80.393 E1.79981
G1 X141.552 Y81.085 E1.81303
G1 X141.206 Y81.744 E1.82626
G1 X140.791 Y82.362 E1.8395
G1 X140.312 Y82.932 E1.85273
G1 X139.775 Y83.447 E1.86596
G1 X139.186 Y83.902 E1.87919
G1 X138.552 Y84.291 E1.89241
G1 X137.879 Y84.61 E1.90565
G1 X137.176 Y84.855 E1.91888
G1 X136.451 Y85.023 E1.93211
G1 X135.712 Y85.112 E1.94534
G1 X135.252 Y85.127 E1.95353
G1 X97.748 Y85.127 E2.6202
G1 X97.005 Y85.087 E2.63342
G1 X96.27 Y84.968 E2.64666
G1 X95.552 Y84.77 E2.6599
G1 X94.86 Y84.497 E2.67312
G1 X94.201 Y84.151 E2.68635
G1 X93.583 Y83.736 E2.69958
G1 X93.013 Y83.257 E2.71282
G1 X92.498 Y82.72 E2.72605
G1 X92.043 Y82.131 E2.73928
G1 X91.654 Y81.497 E2.7525
G1 X91.335 Y80.824 E2.76574
G1 X91.09 Y80.121 E2.77897
G1 X90.922 Y79.396 E2.7922
G1 X90.833 Y78.657 E2.80543
G1 X90.818 Y78.197 E2.81361
G1 X90.818 Y36.213 E3.55992
G1 X90.858 Y35.47 E3.57315
G1 X90.977 Y34.735 E3.58638
G1 X91.175 Y34.017 E3.59962
M204 S625
M205 X6 Y6
G0 F4285.7 X91.595 Y34.087
M204 S500
M205 X5 Y5
G1 F1200 X91.868 Y33.42 E3.61243
G1 X92.213 Y32.786 E3.62526
G1 X92.626 Y32.195 E3.63808
G1 X93.102 Y31.653 E3.6509
G1 X93.635 Y31.167 E3.66372
G1 X94.219 Y30.743 E3.67655
G1 X94.846 Y30.386 E3.68938
G1 X95.508 Y30.1 E3.7022
G1 X96.198 Y29.89 E3.71502
G1 X96.907 Y29.758 E3.72784
G1 X97.748 Y29.703 E3.74282
G1 X135.252 Y29.703 E4.40949
G1 X135.972 Y29.743 E4.42231
G1 X136.684 Y29.862 E4.43514
G1 X137.378 Y30.06 E4.44797
G1 X138.045 Y30.333 E4.46078
G1 X138.679 Y30.678 E4.47361
G1 X139.27 Y31.091 E4.48643
G1 X139.812 Y31.567 E4.49925
G1 X140.298 Y32.1 E4.51207
G1 X140.722 Y32.684 E4.5249
G1 X141.079 Y33.311 E4.53773
G1 X141.365 Y33.973 E4.55054
G1 X141.575 Y34.663 E4.56337
G1 X141.707 Y35.372 E4.57618
G1 X141.762 Y36.213 E4.59117
G1 X141.762 Y78.197 E5.33747
G1 X141.722 Y78.917 E5.35029
G1 X141.603 Y79.629 E5.36312
G1 X141.405 Y80.323 E5.37595
G1 X141.132 Y80.99 E5.38876
G1 X140.787 Y81.624 E5.40159
G1 X140.374 Y82.215 E5.41441
G1 X139.898 Y82.757 E5.42723
G1 X139.365 Y83.243 E5.44006
G1 X138.781 Y83.667 E5.45288
G1 X138.154 Y84.024 E5.46571
G1 X137.492 Y84.31 E5.47853
G1 X136.802 Y84.52 E5.49135
G1 X136.093 Y84.652 E5.50417
G1 X135.252 Y84.707 E5.51915
G1 X97.748 Y84.707 E6.18582
G1 X97.028 Y84.667 E6.19864
G1 X96.316 Y84.548 E6.21147
G1 X95.622 Y84.35 E6.2243
G1 X94.955 Y84.077 E6.23711
G1 X94.321 Y83.732 E6.24994
G1 X93.73 Y83.319 E6.26276
G1 X93.188 Y82.843 E6.27558
G1 X92.702 Y82.31 E6.2884
G1 X92.278 Y81.726 E6.30123
G1 X91.921 Y81.099 E6.31406
G1 X91.635 Y80.437 E6.32688
G1 X91.425 Y79.747 E6.3397
G1 X91.293 Y79.038 E6.35252
G1 X91.238 Y78.197 E6.3675
G1 X91.238 Y36.213 E7.11381
G1 X91.278 Y35.493 E7.12662
G1 X91.397 Y34.781 E7.13946
G1 X91.595 Y34.087 E7.15228
M204 S625
M205 X6 Y6
G0 F4285.7 X92.015 Y34.16
M204 S500
M205 X5 Y5
G1 F1200 X92.287 Y33.517 E7.16469
G1 X92.631 Y32.911 E7.17708
G1 X93.043 Y32.347 E7.1895
G1 X93.516 Y31.834 E7.2019
G1 X94.044 Y31.379 E7.21429
G1 X94.621 Y30.987 E7.22669
G1 X95.24 Y30.664 E7.2391
G1 X95.891 Y30.413 E7.2515
G1 X96.567 Y30.239 E7.26391
G1 X97.258 Y30.143 E7.27631
G1 X97.748 Y30.123 E7.28503
G1 X135.252 Y30.123 E7.9517
G1 X135.949 Y30.163 E7.96411
G1 X136.636 Y30.282 E7.97651
G1 X137.305 Y30.48 E7.98891
G1 X137.948 Y30.752 E8.00132
G1 X138.554 Y31.096 E8.01371
G1 X139.118 Y31.508 E8.02612
G1 X139.631 Y31.981 E8.03852
G1 X140.086 Y32.509 E8.05091
G1 X140.478 Y33.086 E8.06331
G1 X140.801 Y33.705 E8.07573
G1 X141.052 Y34.356 E8.08813
G1 X141.226 Y35.032 E8.10054
G1 X141.322 Y35.723 E8.11294
G1 X141.342 Y36.213 E8.12166
G1 X141.342 Y78.197 E8.86796
G1 X141.302 Y78.894 E8.88037
G1 X141.183 Y79.581 E8.89277
G1 X140.985 Y80.25 E8.90517
G1 X140.713 Y80.893 E8.91758
G1 X140.369 Y81.499 E8.92997
G1 X139.957 Y82.063 E8.94238
G1 X139.484 Y82.576 E8.95478
G1 X138.956 Y83.031 E8.96717
G1 X138.379 Y83.423 E8.97957
G1 X137.76 Y83.746 E8.99199
G1 X137.109 Y83.997 E9.00439
G1 X136.433 Y84.171 E9.0168
G1 X135.742 Y84.267 E9.0292
G1 X135.252 Y84.287 E9.03792
G1 X97.748 Y84.287 E9.70459
G1 X97.051 Y84.247 E9.717
G1 X96.364 Y84.128 E9.72939
G1 X95.695 Y83.93 E9.74179
G1 X95.052 Y83.658 E9.7542
G1 X94.446 Y83.314 E9.76659
G1 X93.882 Y82.902 E9.779
G1 X93.369 Y82.429 E9.79141
G1 X92.914 Y81.901 E9.8038
G1 X92.522 Y81.324 E9.8162
G1 X92.199 Y80.705 E9.82861
G1 X91.948 Y80.054 E9.84101
G1 X91.774 Y79.378 E9.85342
G1 X91.678 Y78.687 E9.86582
G1 X91.658 Y78.197 E9.87454
G1 X91.658 Y36.213 E10.62085
G1 X91.698 Y35.516 E10.63326
G1 X91.817 Y34.829 E10.64565
G1 X92.015 Y34.16 E10.65805
M204 S625
M205 X6 Y6
G0 F4285.7 X92.434 Y34.235
M204 S500
M205 X5 Y5
G1 F1200 X92.706 Y33.619 E10.67002
G1 X93.049 Y33.04 E10.68198
G1 X93.458 Y32.505 E10.69396
G1 X93.928 Y32.023 E10.70592
G1 X94.452 Y31.6 E10.71789
G1 X95.022 Y31.241 E10.72987
G1 X95.63 Y30.953 E10.74183
G1 X96.268 Y30.739 E10.75379
G1 X96.928 Y30.603 E10.76577
G1 X97.748 Y30.543 E10.78038
G1 X135.252 Y30.543 E11.44705
G1 X135.924 Y30.583 E11.45902
G1 X136.587 Y30.702 E11.47099
G1 X137.23 Y30.899 E11.48295
G1 X137.846 Y31.171 E11.49492
G1 X138.425 Y31.514 E11.50688
G1 X138.96 Y31.923 E11.51885
G1 X139.442 Y32.393 E11.53082
G1 X139.865 Y32.917 E11.54279
G1 X140.224 Y33.487 E11.55476
G1 X140.512 Y34.095 E11.56672
G1 X140.726 Y34.733 E11.57868
G1 X140.862 Y35.393 E11.59066
G1 X140.922 Y36.213 E11.60528
G1 X140.922 Y78.197 E12.35159
G1 X140.882 Y78.869 E12.36355
G1 X140.763 Y79.532 E12.37553
G1 X140.566 Y80.175 E12.38748
G1 X140.294 Y80.791 E12.39945
G1 X139.951 Y81.37 E12.41141
G1 X139.542 Y81.905 E12.42338
G1 X139.072 Y82.387 E12.43535
G1 X138.548 Y82.81 E12.44732
G1 X137.978 Y83.169 E12.4593
G1 X137.37 Y83.457 E12.47125
G1 X136.732 Y83.671 E12.48322
G1 X136.072 Y83.807 E12.4952
G1 X135.252 Y83.867 E12.50981
G1 X97.748 Y83.867 E13.17648
G1 X97.076 Y83.827 E13.18845
G1 X96.413 Y83.708 E13.20042
G1 X95.77 Y83.511 E13.21238
G1 X95.154 Y83.239 E13.22435
G1 X94.575 Y82.896 E13.23631
G1 X94.04 Y82.487 E13.24828
G1 X93.558 Y82.017 E13.26025
G1 X93.135 Y81.493 E13.27222
G1 X92.776 Y80.923 E13.28419
G1 X92.488 Y80.315 E13.29615
G1 X92.274 Y79.677 E13.30811
G1 X92.138 Y79.017 E13.32009
G1 X92.078 Y78.197 E13.33471
G1 X92.078 Y36.213 E14.08101
G1 X92.118 Y35.541 E14.09298
G1 X92.237 Y34.878 E14.10495
G1 X92.434 Y34.235 E14.11691
M204 S625
M205 X6 Y6
G0 F4285.7 X92.854 Y34.313
M204 S500
M205 X5 Y5
G1 F1200 X93.125 Y33.724 E14.12843
G1 X93.467 Y33.174 E14.13995
G1 X93.874 Y32.67 E14.15146
G1 X94.34 Y32.22 E14.16298
G1 X94.857 Y31.831 E14.17448
G1 X95.419 Y31.508 E14.186
G1 X96.016 Y31.257 E14.19751
G1 X96.64 Y31.081 E14.20904
G1 X97.28 Y30.984 E14.22054
G1 X97.748 Y30.963 E14.22887
G1 X135.252 Y30.963 E14.89554
G1 X135.899 Y31.003 E14.90706
G1 X136.535 Y31.122 E14.91857
G1 X137.152 Y31.319 E14.93008
G1 X137.741 Y31.59 E14.9416
G1 X138.291 Y31.932 E14.95312
G1 X138.795 Y32.339 E14.96463
G1 X139.245 Y32.805 E14.97615
G1 X139.634 Y33.322 E14.98765
G1 X139.957 Y33.884 E14.99917
G1 X140.208 Y34.481 E15.01068
G1 X140.384 Y35.105 E15.02221
G1 X140.481 Y35.745 E15.03372
G1 X140.502 Y36.213 E15.04204
G1 X140.502 Y78.197 E15.78835
G1 X140.462 Y78.844 E15.79987
G1 X140.343 Y79.48 E15.81137
G1 X140.146 Y80.097 E15.82289
G1 X139.875 Y80.686 E15.83441
G1 X139.533 Y81.236 E15.84593
G1 X139.126 Y81.74 E15.85744
G1 X138.66 Y82.19 E15.86896
G1 X138.143 Y82.579 E15.88046
G1 X137.581 Y82.902 E15.89198
G1 X136.984 Y83.153 E15.90349
G1 X136.36 Y83.329 E15.91502
G1 X135.72 Y83.426 E15.92652
G1 X135.252 Y83.447 E15.93485
G1 X97.748 Y83.447 E16.60152
G1 X97.101 Y83.407 E16.61304
G1 X96.465 Y83.288 E16.62455
G1 X95.848 Y83.091 E16.63606
G1 X95.259 Y82.82 E16.64758
G1 X94.709 Y82.478 E16.6591
G1 X94.205 Y82.071 E16.67061
G1 X93.755 Y81.605 E16.68213
G1 X93.366 Y81.088 E16.69363
G1 X93.043 Y80.526 E16.70515
G1 X92.792 Y79.929 E16.71666
G1 X92.616 Y79.305 E16.72819
G1 X92.519 Y78.665 E16.7397
G1 X92.498 Y78.197 E16.74802
G1 X92.498 Y36.213 E17.49433
G1 X92.538 Y35.566 E17.50585
G1 X92.657 Y34.93 E17.51735
G1 X92.854 Y34.313 E17.52887
M204 S625
M205 X6 Y6
G0 F4285.7 X93.274 Y34.394
M204 S500
M205 X5 Y5
G1 F1200 X93.544 Y33.835 E17.5399
G1 X93.884 Y33.315 E17.55095
G1 X94.288 Y32.843 E17.56199
G1 X94.75 Y32.426 E17.57305
G1 X95.26 Y32.073 E17.58408
G1 X95.812 Y31.788 E17.59512
G1 X96.397 Y31.576 E17.60618
G1 X97.003 Y31.441 E17.61722
G1 X97.748 Y31.383 E17.6305
G1 X135.252 Y31.383 E18.29717
G1 X135.872 Y31.423 E18.30822
G1 X136.482 Y31.542 E18.31926
G1 X137.071 Y31.739 E18.33031
G1 X137.63 Y32.009 E18.34134
G1 X138.15 Y32.349 E18.35238
G1 X138.622 Y32.753 E18.36343
G1 X139.039 Y33.215 E18.37449
G1 X139.392 Y33.725 E18.38552
G1 X139.677 Y34.277 E18.39656
G1 X139.889 Y34.862 E18.40762
G1 X140.024 Y35.468 E18.41866
G1 X140.082 Y36.213 E18.43194
G1 X140.082 Y78.197 E19.17825
G1 X140.042 Y78.817 E19.18929
G1 X139.923 Y79.427 E19.20034
G1 X139.726 Y80.016 E19.21138
G1 X139.456 Y80.575 E19.22241
G1 X139.116 Y81.095 E19.23346
G1 X138.712 Y81.567 E19.2445
G1 X138.25 Y81.984 E19.25556
G1 X137.74 Y82.337 E19.26659
G1 X137.188 Y82.622 E19.27763
G1 X136.603 Y82.834 E19.28869
G1 X135.997 Y82.969 E19.29973
G1 X135.252 Y83.027 E19.31301
G1 X97.748 Y83.027 E19.97968
G1 X97.128 Y82.987 E19.99073
G1 X96.518 Y82.868 E20.00178
G1 X95.929 Y82.671 E20.01282
G1 X95.37 Y82.401 E20.02385
G1 X94.85 Y82.061 E20.03489
G1 X94.378 Y81.657 E20.04594
G1 X93.961 Y81.195 E20.057
G1 X93.608 Y80.685 E20.06803
G1 X93.323 Y80.133 E20.07907
G1 X93.111 Y79.548 E20.09013
G1 X92.976 Y78.942 E20.10117
G1 X92.918 Y78.197 E20.11445
G1 X92.918 Y36.213 E20.86076
G1 X92.958 Y35.593 E20.8718
G1 X93.077 Y34.983 E20.88285
G1 X93.274 Y34.394 E20.89389
M204 S625
M205 X6 Y6
G0 F4285.7 X93.497 Y35.039
M204 S500
M205 X5 Y5
G1 F1200 X93.693 Y34.479 E20.90444
G1 X93.963 Y33.95 E20.91499
G1 X94.301 Y33.462 E20.92555
G1 X94.702 Y33.024 E20.9361
G1 X95.158 Y32.644 E20.94665
G1 X95.661 Y32.328 E20.95721
G1 X96.201 Y32.083 E20.96775
G1 X96.77 Y31.913 E20.97831
G1 X97.356 Y31.82 E20.98886
G1 X97.748 Y31.803 E20.99583
G1 X135.252 Y31.803 E21.6625
G1 X135.844 Y31.843 E21.67305
G1 X136.426 Y31.962 E21.68361
G1 X136.986 Y32.158 E21.69416
G1 X137.515 Y32.428 E21.70471
G1 X138.003 Y32.766 E21.71527
G1 X138.441 Y33.167 E21.72582
G1 X138.821 Y33.623 E21.73637
G1 X139.137 Y34.126 E21.74693
G1 X139.382 Y34.666 E21.75747
G1 X139.552 Y35.235 E21.76803
G1 X139.645 Y35.821 E21.77858
G1 X139.662 Y36.213 E21.78555
G1 X139.662 Y78.197 E22.53186
G1 X139.622 Y78.789 E22.5424
G1 X139.503 Y79.371 E22.55296
G1 X139.307 Y79.931 E22.56351
G1 X139.037 Y80.46 E22.57407
G1 X138.699 Y80.948 E22.58462
G1 X138.298 Y81.386 E22.59518
G1 X137.842 Y81.766 E22.60573
G1 X137.339 Y82.082 E22.61629
G1 X136.799 Y82.327 E22.62683
G1 X136.23 Y82.497 E22.63738
G1 X135.644 Y82.59 E22.64793
G1 X135.252 Y82.607 E22.65491
G1 X97.748 Y82.607 E23.32158
G1 X97.156 Y82.567 E23.33212
G1 X96.574 Y82.448 E23.34268
G1 X96.014 Y82.252 E23.35323
G1 X95.485 Y81.982 E23.36379
G1 X94.997 Y81.644 E23.37434
G1 X94.559 Y81.243 E23.3849
G1 X94.179 Y80.787 E23.39545
G1 X93.863 Y80.284 E23.40601
G1 X93.618 Y79.744 E23.41655
G1 X93.448 Y79.175 E23.4271
G1 X93.355 Y78.589 E23.43765
G1 X93.338 Y78.197 E23.44463
G1 X93.338 Y36.213 E24.19093
G1 X93.378 Y35.621 E24.20148
G1 X93.497 Y35.039 E24.21204
M204 S625
M205 X6 Y6
G0 F4285.7 X93.917 Y35.098
M204 S500
M205 X5 Y5
G1 F1200 X94.113 Y34.568 E24.22208
G1 X94.381 Y34.072 E24.23211
G1 X94.717 Y33.618 E24.24215
G1 X95.114 Y33.216 E24.25219
G1 X95.563 Y32.874 E24.26222
G1 X96.057 Y32.599 E24.27227
G1 X96.584 Y32.397 E24.28231
G1 X97.134 Y32.271 E24.29234
G1 X97.748 Y32.223 E24.30328
G1 X135.252 Y32.223 E24.96995
G1 X135.815 Y32.263 E24.97999
G1 X136.367 Y32.382 E24.99002
G1 X136.897 Y32.578 E25.00007
G1 X137.393 Y32.846 E25.01009
G1 X137.847 Y33.182 E25.02013
G1 X138.249 Y33.579 E25.03017
G1 X138.591 Y34.028 E25.04021
G1 X138.866 Y34.522 E25.05026
G1 X139.068 Y35.049 E25.06029
G1 X139.194 Y35.599 E25.07032
G1 X139.242 Y36.213 E25.08127
G1 X139.242 Y78.197 E25.82757
G1 X139.202 Y78.76 E25.83761
G1 X139.083 Y79.312 E25.84765
G1 X138.887 Y79.842 E25.85769
G1 X138.619 Y80.338 E25.86771
G1 X138.283 Y80.792 E25.87775
G1 X137.886 Y81.194 E25.88779
G1 X137.437 Y81.536 E25.89783
G1 X136.943 Y81.811 E25.90788
G1 X136.416 Y82.013 E25.91791
G1 X135.866 Y82.139 E25.92794
G1 X135.252 Y82.187 E25.93889
G1 X97.748 Y82.187 E26.60556
G1 X97.185 Y82.147 E26.61559
G1 X96.633 Y82.028 E26.62563
G1 X96.103 Y81.832 E26.63567
G1 X95.607 Y81.564 E26.6457
G1 X95.153 Y81.228 E26.65574
G1 X94.751 Y80.831 E26.66578
G1 X94.409 Y80.382 E26.67581
G1 X94.134 Y79.888 E26.68586
G1 X93.932 Y79.361 E26.6959
G1 X93.806 Y78.811 E26.70593
G1 X93.758 Y78.197 E26.71687
G1 X93.758 Y36.213 E27.46318
G1 X93.798 Y35.65 E27.47321
G1 X93.917 Y35.098 E27.48325
M204 S625
M205 X6 Y6
G0 F4285.7 X94.337 Y35.16
M204 S500
M205 X5 Y5
G1 F1200 X94.532 Y34.663 E27.49274
G1 X94.799 Y34.2 E27.50224
G1 X95.133 Y33.783 E27.51174
G1 X95.524 Y33.42 E27.52122
G1 X95.966 Y33.12 E27.53072
G1 X96.447 Y32.888 E27.54021
G1 X96.958 Y32.732 E27.54971
G1 X97.748 Y32.643 E27.56384
G1 X135.252 Y32.643 E28.23051
G1 X135.785 Y32.683 E28.24001
G1 X136.305 Y32.802 E28.24949
G1 X136.802 Y32.997 E28.25898
G1 X137.265 Y33.264 E28.26849
G1 X137.682 Y33.598 E28.27798
G1 X138.045 Y33.989 E28.28747
G1 X138.345 Y34.431 E28.29696
G1 X138.577 Y34.912 E28.30646
G1 X138.733 Y35.423 E28.31595
G1 X138.822 Y36.213 E28.33008
G1 X138.822 Y78.197 E29.07639
G1 X138.782 Y78.73 E29.08589
G1 X138.663 Y79.25 E29.09537
G1 X138.468 Y79.747 E29.10487
G1 X138.201 Y80.21 E29.11437
G1 X137.867 Y80.627 E29.12386
G1 X137.476 Y80.99 E29.13335
G1 X137.034 Y81.29 E29.14284
G1 X136.553 Y81.522 E29.15234
G1 X136.042 Y81.678 E29.16183
G1 X135.252 Y81.767 E29.17596
G1 X97.748 Y81.767 E29.84264
G1 X97.215 Y81.727 E29.85214
G1 X96.695 Y81.608 E29.86162
G1 X96.198 Y81.413 E29.87111
G1 X95.735 Y81.146 E29.88061
G1 X95.318 Y80.812 E29.89011
G1 X94.955 Y80.421 E29.89959
G1 X94.655 Y79.979 E29.90909
G1 X94.423 Y79.498 E29.91858
G1 X94.267 Y78.987 E29.92808
G1 X94.178 Y78.197 E29.94221
G1 X94.178 Y36.213 E30.68852
G1 X94.218 Y35.68 E30.69802
G1 X94.337 Y35.16 E30.7075
M204 S625
M205 X6 Y6
G0 F4285.7 X94.757 Y35.226
M204 S500
M205 X5 Y5
G1 F1200 X94.951 Y34.763 E30.71642
G1 X95.217 Y34.338 E30.72534
G1 X95.547 Y33.96 E30.73425
G1 X95.932 Y33.639 E30.74317
G1 X96.364 Y33.383 E30.75209
G1 X96.831 Y33.2 E30.76101
G1 X97.32 Y33.092 E30.76991
G1 X97.748 Y33.063 E30.77754
