;START_OF_HEADER
;HEADER_VERSION:0.1
;FLAVOR:Griffin
;GENERATOR.NAME:Cura_SteamEngine
;GENERATOR.VERSION:3.6.0
;GENERATOR.BUILD_DATE:2018-11-12
;TARGET_MACHINE.NAME:Ultimaker 3
;EXTRUDER_TRAIN.0.INITIAL_TEMPERATURE:205
;EXTRUDER_TRAIN.0.MATERIAL.VOLUME_USED:8746
;EXTRUDER_TRAIN.0.MATERIAL.GUID:506c9f0d-e3aa-4bd4-b2d2-23e2425b1aa9
;EXTRUDER_TRAIN.0.NOZZLE.DIAMETER:0.4
;EXTRUDER_TRAIN.0.NOZZLE.NAME:AA 0.4
;BUILD_PLATE.TYPE:glass
;BUILD_PLATE.INITIAL_TEMPERATURE:60
;PRINT.TIME:8118
;PRINT.SIZE.MIN.X:9
;PRINT.SIZE.MIN.Y:6
;PRINT.SIZE.MIN.Z:0.27
;PRINT.SIZE.MAX.X:163.235
;PRINT.SIZE.MAX.Y:144.97
;PRINT.SIZE.MAX.Z:11.57
;END_OF_HEADER
;Generated with Cura_SteamEngine 3.6.0
T0
M82 ;absolute extrusion mode

G92 E0
M109 S205
G0 F15000 X9 Y6 Z2
G280
G1 F1500 E-6.5
;LAYER_COUNT:114
;LAYER:0
M107
M204 S625
M205 X6 Y6
G0 F4285.7 X81.822 Y87.775 Z0.27
M204 S500
M205 X5 Y5
;TYPE:SKIRT
G1 F1500 E0
G1 F1200 X82.393 Y87.298 E0.01323
G1 X83.012 Y86.885 E0.02645
G1 X83.672 Y86.54 E0.03969
G1 X84.035 Y86.387 E0.04669
G1 X102.572 Y79.181 E0.40023
G1 X103.279 Y78.949 E0.41346
G1 X104.007 Y78.794 E0.42669
G1 X104.748 Y78.718 E0.43993
G1 X105.492 Y78.722 E0.45315
G1 X106.232 Y78.806 E0.46639
G1 X106.958 Y78.968 E0.47962
G1 X107.663 Y79.208 E0.49285
G1 X108.338 Y79.522 E0.50609
G1 X108.975 Y79.906 E0.51931
G1 X109.568 Y80.357 E0.53255
G1 X110.108 Y80.868 E0.54577
G1 X110.591 Y81.435 E0.55901
G1 X110.834 Y81.791 E0.56667
G1 X140.006 Y70.49 E1.12278
G1 X140.713 Y70.259 E1.136
G1 X141.441 Y70.105 E1.14923
G1 X142.182 Y70.03 E1.16247
G1 X142.926 Y70.035 E1.1757
G1 X143.666 Y70.119 E1.18893
G1 X144.392 Y70.283 E1.20216
G1 X145.096 Y70.523 E1.21539
G1 X145.771 Y70.838 E1.22863
G1 X146.408 Y71.223 E1.24186
G1 X147 Y71.674 E1.25509
G1 X147.54 Y72.186 E1.26831
G1 X148.022 Y72.753 E1.28154
G1 X148.441 Y73.369 E1.29479
G1 X148.791 Y74.025 E1.308
G1 X148.968 Y74.441 E1.31604
G1 X162.772 Y109.952 E1.9933
G1 X163.004 Y110.659 E2.00652
G1 X163.159 Y111.387 E2.01976
G1 X163.235 Y112.128 E2.033
G1 X163.231 Y112.872 E2.04622
G1 X163.147 Y113.612 E2.05946
G1 X162.985 Y114.338 E2.07268
G1 X162.745 Y115.043 E2.08592
G1 X162.431 Y115.718 E2.09916
G1 X162.047 Y116.355 E2.11238
G1 X161.596 Y116.948 E2.12562
G1 X161.085 Y117.488 E2.13884
G1 X160.518 Y117.971 E2.15208
G1 X159.903 Y118.39 E2.1653
G1 X159.247 Y118.741 E2.17853
G1 X158.824 Y118.922 E2.18671
G1 X93.002 Y144.507 E3.44204
G1 X92.294 Y144.739 E3.45528
G1 X91.566 Y144.894 E3.46852
G1 X90.826 Y144.97 E3.48174
G1 X90.082 Y144.966 E3.49496
G1 X89.342 Y144.882 E3.5082
G1 X88.616 Y144.719 E3.52143
G1 X87.911 Y144.48 E3.53466
G1 X87.236 Y144.166 E3.5479
G1 X86.599 Y143.782 E3.56112
G1 X86.006 Y143.331 E3.57436
G1 X85.466 Y142.82 E3.58758
G1 X84.983 Y142.253 E3.60082
G1 X84.564 Y141.638 E3.61405
G1 X84.213 Y140.982 E3.62727
G1 X84.032 Y140.559 E3.63545
G1 X70.228 Y105.048 E4.31271
G1 X69.996 Y104.341 E4.32593
G1 X69.841 Y103.613 E4.33917
G1 X69.765 Y102.872 E4.35241
G1 X69.769 Y102.128 E4.36563
G1 X69.853 Y101.388 E4.37887
G1 X70.015 Y100.662 E4.39209
G1 X70.255 Y99.957 E4.40533
G1 X70.569 Y99.282 E4.41857
G1 X70.953 Y98.645 E4.43179
G1 X71.404 Y98.052 E4.44503
G1 X71.915 Y97.512 E4.45825
G1 X72.482 Y97.029 E4.47149
G1 X73.097 Y96.61 E4.48471
G1 X73.753 Y96.259 E4.49794
G1 X74.151 Y96.088 E4.50564
G1 X79.7 Y93.906 E4.61163
G1 X79.69 Y93.856 E4.61254
G1 X79.621 Y93.115 E4.62577
G1 X79.632 Y92.371 E4.63899
G1 X79.723 Y91.632 E4.65223
G1 X79.893 Y90.907 E4.66547
G1 X80.139 Y90.205 E4.67869
G1 X80.459 Y89.533 E4.69192
G1 X80.85 Y88.899 E4.70516
G1 X81.306 Y88.311 E4.71839
G1 X81.822 Y87.775 E4.73161
M204 S625
M205 X6 Y6
G0 F4285.7 X82.291 Y87.919
M204 S500
M205 X5 Y5
G1 F1200 X82.862 Y87.479 E4.74443
G1 X83.478 Y87.104 E4.75725
G1 X84.187 Y86.778 E4.77112
G1 X102.724 Y79.572 E5.12465
G1 X103.41 Y79.349 E5.13748
G1 X104.116 Y79.202 E5.15029
G1 X104.835 Y79.135 E5.16313
G1 X105.556 Y79.147 E5.17595
G1 X106.271 Y79.239 E5.18876
G1 X106.972 Y79.41 E5.20159
G1 X107.65 Y79.657 E5.21442
G1 X108.296 Y79.978 E5.22724
G1 X108.903 Y80.368 E5.24006
G1 X109.463 Y80.823 E5.25289
G1 X109.969 Y81.338 E5.26572
G1 X110.415 Y81.905 E5.27855
G1 X110.665 Y82.307 E5.28696
G1 X140.157 Y70.882 E5.84918
G1 X140.843 Y70.659 E5.862
G1 X141.55 Y70.513 E5.87483
G1 X142.268 Y70.446 E5.88765
G1 X142.99 Y70.46 E5.90049
G1 X143.705 Y70.553 E5.9133
G1 X144.406 Y70.724 E5.92613
G1 X145.083 Y70.972 E5.93895
G1 X145.729 Y71.294 E5.95178
G1 X146.335 Y71.685 E5.9646
G1 X146.894 Y72.141 E5.97742
G1 X147.4 Y72.655 E5.99024
G1 X147.845 Y73.223 E6.00307
G1 X148.225 Y73.836 E6.01589
G1 X148.577 Y74.593 E6.03073
G1 X162.381 Y110.104 E6.70799
G1 X162.604 Y110.79 E6.72081
G1 X162.751 Y111.497 E6.73365
G1 X162.818 Y112.215 E6.74646
G1 X162.806 Y112.936 E6.75928
G1 X162.714 Y113.652 E6.77211
G1 X162.543 Y114.352 E6.78492
G1 X162.295 Y115.03 E6.79776
G1 X161.975 Y115.676 E6.81057
G1 X161.584 Y116.283 E6.82341
G1 X161.129 Y116.843 E6.83623
G1 X160.615 Y117.349 E6.84905
G1 X160.048 Y117.795 E6.86188
G1 X159.435 Y118.175 E6.8747
G1 X158.672 Y118.531 E6.88966
G1 X92.85 Y144.116 E8.145
G1 X92.164 Y144.339 E8.15782
G1 X91.457 Y144.486 E8.17066
G1 X90.739 Y144.553 E8.18347
G1 X90.018 Y144.541 E8.19629
G1 X89.302 Y144.449 E8.20912
G1 X88.601 Y144.278 E8.22195
G1 X87.924 Y144.03 E8.23477
G1 X87.278 Y143.71 E8.24758
G1 X86.671 Y143.319 E8.26042
G1 X86.111 Y142.864 E8.27324
G1 X85.605 Y142.35 E8.28606
G1 X85.159 Y141.783 E8.29889
G1 X84.779 Y141.17 E8.31171
G1 X84.423 Y140.407 E8.32668
G1 X70.619 Y104.896 E9.00393
G1 X70.396 Y104.21 E9.01676
G1 X70.249 Y103.503 E9.02959
G1 X70.182 Y102.785 E9.04241
G1 X70.194 Y102.064 E9.05523
G1 X70.286 Y101.348 E9.06806
G1 X70.457 Y100.648 E9.08087
G1 X70.705 Y99.97 E9.0937
G1 X71.025 Y99.324 E9.10652
G1 X71.416 Y98.717 E9.11935
G1 X71.871 Y98.157 E9.13218
G1 X72.385 Y97.651 E9.145
G1 X72.952 Y97.205 E9.15782
G1 X73.565 Y96.825 E9.17064
G1 X74.304 Y96.479 E9.18515
G1 X80.181 Y94.168 E9.29741
G1 X80.099 Y93.751 E9.30496
G1 X80.039 Y93.032 E9.31779
G1 X80.058 Y92.311 E9.33061
G1 X80.157 Y91.596 E9.34344
G1 X80.335 Y90.897 E9.35626
G1 X80.588 Y90.222 E9.36907
G1 X80.915 Y89.579 E9.3819
G1 X81.311 Y88.976 E9.39472
G1 X81.772 Y88.421 E9.40755
G1 X82.291 Y87.919 E9.42038
M204 S625
M205 X6 Y6
G0 F4285.7 X82.238 Y88.541
M204 S500
M205 X5 Y5
G1 F1200 X82.759 Y88.077 E9.43278
G1 X83.329 Y87.675 E9.44518
G1 X83.942 Y87.341 E9.45759
G1 X84.339 Y87.17 E9.46527
G1 X102.876 Y79.964 E9.81881
G1 X103.54 Y79.749 E9.83122
G1 X104.224 Y79.611 E9.84362
G1 X104.919 Y79.552 E9.85602
G1 X105.617 Y79.573 E9.86843
G1 X106.307 Y79.674 E9.88083
G1 X106.981 Y79.853 E9.89322
G1 X107.631 Y80.109 E9.90564
G1 X108.247 Y80.436 E9.91804
G1 X108.821 Y80.832 E9.93044
G1 X109.347 Y81.291 E9.94284
G1 X109.816 Y81.808 E9.95525
G1 X110.223 Y82.374 E9.96765
G1 X110.477 Y82.83 E9.97692
G1 X140.309 Y71.273 E10.54562
G1 X140.973 Y71.059 E10.55802
G1 X141.657 Y70.922 E10.57042
G1 X142.353 Y70.864 E10.58284
G1 X143.05 Y70.886 E10.59523
G1 X143.74 Y70.988 E10.60763
G1 X144.414 Y71.168 E10.62003
G1 X145.063 Y71.424 E10.63243
G1 X145.679 Y71.752 E10.64484
G1 X146.253 Y72.149 E10.65725
G1 X146.778 Y72.608 E10.66964
G1 X147.246 Y73.125 E10.68204
G1 X147.653 Y73.692 E10.69444
G1 X147.992 Y74.302 E10.70685
G1 X148.185 Y74.746 E10.71546
G1 X161.989 Y110.257 E11.39271
G1 X162.204 Y110.92 E11.4051
G1 X162.342 Y111.604 E11.41751
G1 X162.401 Y112.299 E11.42991
G1 X162.38 Y112.997 E11.44232
G1 X162.279 Y113.687 E11.45472
G1 X162.1 Y114.362 E11.46713
G1 X161.844 Y115.011 E11.47953
G1 X161.517 Y115.627 E11.49193
G1 X161.121 Y116.201 E11.50432
G1 X160.662 Y116.727 E11.51673
G1 X160.145 Y117.196 E11.52914
G1 X159.579 Y117.603 E11.54153
G1 X158.969 Y117.943 E11.55395
G1 X158.519 Y118.139 E11.56267
G1 X92.697 Y143.724 E12.818
G1 X92.034 Y143.939 E12.83039
G1 X91.35 Y144.077 E12.8428
G1 X90.654 Y144.136 E12.85521
G1 X89.957 Y144.115 E12.86761
G1 X89.267 Y144.014 E12.88001
G1 X88.592 Y143.834 E12.89242
G1 X87.943 Y143.579 E12.90482
G1 X87.327 Y143.252 E12.91722
G1 X86.753 Y142.856 E12.92961
G1 X86.227 Y142.396 E12.94203
G1 X85.758 Y141.88 E12.95443
G1 X85.351 Y141.314 E12.96682
G1 X85.011 Y140.704 E12.97924
G1 X84.815 Y140.254 E12.98796
G1 X71.011 Y104.743 E13.66522
G1 X70.796 Y104.08 E13.67761
G1 X70.658 Y103.396 E13.69001
G1 X70.599 Y102.701 E13.70241
G1 X70.62 Y102.003 E13.71482
G1 X70.721 Y101.313 E13.72722
G1 X70.9 Y100.638 E13.73963
G1 X71.156 Y99.989 E13.75204
G1 X71.483 Y99.373 E13.76443
G1 X71.879 Y98.799 E13.77683
G1 X72.338 Y98.273 E13.78924
G1 X72.855 Y97.804 E13.80165
G1 X73.421 Y97.397 E13.81404
G1 X74.031 Y97.057 E13.82645
G1 X74.458 Y96.87 E13.83474
G1 X80.67 Y94.427 E13.9534
G1 X80.64 Y94.332 E13.95517
G1 X80.509 Y93.647 E13.96756
G1 X80.457 Y92.951 E13.97997
G1 X80.485 Y92.254 E13.99237
G1 X80.592 Y91.565 E14.00476
G1 X80.778 Y90.892 E14.01718
G1 X81.039 Y90.245 E14.02958
G1 X81.373 Y89.633 E14.04197
G1 X81.774 Y89.062 E14.05437
G1 X82.238 Y88.541 E14.06678
M204 S625
M205 X6 Y6
G0 F4285.7 X82.706 Y88.674
M204 S500
M205 X5 Y5
G1 F1200 X83.228 Y88.248 E14.07875
G1 X83.796 Y87.888 E14.09071
G1 X84.492 Y87.561 E14.10438
G1 X103.029 Y80.355 E14.45791
G1 X103.669 Y80.149 E14.46986
G1 X104.33 Y80.02 E14.48183
G1 X105.002 Y79.971 E14.49381
G1 X105.674 Y80.001 E14.50577
G1 X106.338 Y80.111 E14.51773
G1 X106.985 Y80.298 E14.5297
G1 X107.604 Y80.562 E14.54167
G1 X108.189 Y80.896 E14.55364
G1 X108.729 Y81.298 E14.56561
G1 X109.218 Y81.76 E14.57757
G1 X109.649 Y82.278 E14.58955
G1 X110.015 Y82.843 E14.60151
G1 X110.265 Y83.363 E14.61177
G1 X140.461 Y71.665 E15.1874
G1 X141.102 Y71.459 E15.19937
G1 X141.763 Y71.331 E15.21134
G1 X142.434 Y71.282 E15.2233
G1 X143.107 Y71.314 E15.23528
G1 X143.771 Y71.424 E15.24724
G1 X144.417 Y71.613 E15.2592
G1 X145.036 Y71.876 E15.27116
G1 X145.62 Y72.212 E15.28314
G1 X146.16 Y72.614 E15.2951
G1 X146.648 Y73.077 E15.30706
G1 X147.079 Y73.595 E15.31904
G1 X147.444 Y74.16 E15.331
G1 X147.794 Y74.898 E15.34552
G1 X161.598 Y110.409 E16.02277
G1 X161.804 Y111.05 E16.03474
G1 X161.933 Y111.71 E16.0467
G1 X161.982 Y112.382 E16.05867
G1 X161.952 Y113.054 E16.07063
G1 X161.842 Y113.718 E16.0826
G1 X161.655 Y114.365 E16.09457
G1 X161.391 Y114.985 E16.10655
G1 X161.057 Y115.569 E16.1185
G1 X160.655 Y116.109 E16.13047
G1 X160.193 Y116.598 E16.14243
G1 X159.675 Y117.029 E16.15441
G1 X159.11 Y117.395 E16.16637
G1 X158.367 Y117.748 E16.181
G1 X92.545 Y143.333 E17.43633
G1 X91.904 Y143.539 E17.4483
G1 X91.244 Y143.668 E17.46025
G1 X90.572 Y143.717 E17.47223
G1 X89.9 Y143.687 E17.48419
G1 X89.236 Y143.577 E17.49615
G1 X88.589 Y143.389 E17.50813
G1 X87.969 Y143.126 E17.5201
G1 X87.385 Y142.792 E17.53206
G1 X86.845 Y142.39 E17.54403
G1 X86.356 Y141.927 E17.556
G1 X85.925 Y141.41 E17.56796
G1 X85.559 Y140.845 E17.57993
G1 X85.206 Y140.102 E17.59455
G1 X71.402 Y104.591 E18.27181
G1 X71.196 Y103.95 E18.28378
G1 X71.067 Y103.29 E18.29573
G1 X71.018 Y102.618 E18.30771
G1 X71.048 Y101.946 E18.31966
G1 X71.158 Y101.282 E18.33163
G1 X71.345 Y100.635 E18.3436
G1 X71.609 Y100.015 E18.35558
G1 X71.943 Y99.431 E18.36754
G1 X72.345 Y98.891 E18.3795
G1 X72.807 Y98.402 E18.39146
G1 X73.325 Y97.971 E18.40344
G1 X73.89 Y97.605 E18.41541
G1 X74.612 Y97.26 E18.42963
G1 X81.187 Y94.674 E18.55522
G1 X81.042 Y94.207 E18.56392
G1 X80.919 Y93.545 E18.57589
G1 X80.876 Y92.873 E18.58786
G1 X80.913 Y92.201 E18.59982
G1 X81.029 Y91.538 E18.61178
G1 X81.223 Y90.893 E18.62376
G1 X81.492 Y90.276 E18.63572
G1 X81.832 Y89.695 E18.64769
G1 X82.239 Y89.159 E18.65965
G1 X82.706 Y88.674 E18.67162
M204 S625
M205 X6 Y6
G0 F4285.7 X83.174 Y88.822
M204 S500
M205 X5 Y5
G1 F1200 X83.696 Y88.437 E18.68315
G1 X84.26 Y88.12 E18.69465
G1 X84.644 Y87.953 E18.70209
G1 X103.181 Y80.747 E19.05563
G1 X103.798 Y80.55 E19.06714
G1 X104.435 Y80.43 E19.07866
G1 X105.081 Y80.39 E19.09017
G1 X105.728 Y80.43 E19.10169
G1 X106.364 Y80.549 E19.11319
G1 X106.982 Y80.745 E19.12472
G1 X107.57 Y81.016 E19.13623
G1 X108.12 Y81.358 E19.14774
G1 X108.625 Y81.764 E19.15926
G1 X109.075 Y82.23 E19.17077
G1 X109.464 Y82.748 E19.18229
G1 X109.787 Y83.309 E19.1938
G1 X109.958 Y83.691 E19.20124
G1 X110.041 Y83.899 E19.20522
G1 X140.613 Y72.056 E19.78802
G1 X141.23 Y71.86 E19.79952
G1 X141.867 Y71.741 E19.81104
G1 X142.513 Y71.702 E19.82255
G1 X143.16 Y71.742 E19.83407
G1 X143.796 Y71.862 E19.84558
G1 X144.413 Y72.06 E19.85709
G1 X145.001 Y72.331 E19.8686
G1 X145.551 Y72.673 E19.88012
G1 X146.055 Y73.081 E19.89164
G1 X146.505 Y73.547 E19.90316
G1 X146.894 Y74.065 E19.91467
G1 X147.216 Y74.627 E19.92619
G1 X147.402 Y75.05 E19.9344
G1 X161.206 Y110.561 E20.61166
G1 X161.403 Y111.178 E20.62317
G1 X161.523 Y111.815 E20.63469
G1 X161.563 Y112.461 E20.6462
G1 X161.523 Y113.108 E20.65772
G1 X161.404 Y113.744 E20.66922
G1 X161.208 Y114.362 E20.68075
G1 X160.937 Y114.95 E20.69226
G1 X160.595 Y115.5 E20.70377
G1 X160.189 Y116.005 E20.71529
G1 X159.723 Y116.455 E20.72681
G1 X159.205 Y116.844 E20.73832
G1 X158.644 Y117.167 E20.74983
G1 X158.215 Y117.356 E20.75816
G1 X92.393 Y142.941 E22.01349
G1 X91.776 Y143.138 E22.02501
G1 X91.139 Y143.258 E22.03653
G1 X90.493 Y143.298 E22.04803
G1 X89.846 Y143.258 E22.05956
G1 X89.21 Y143.139 E22.07106
G1 X88.592 Y142.943 E22.08258
G1 X88.004 Y142.672 E22.09409
G1 X87.454 Y142.33 E22.10561
G1 X86.949 Y141.923 E22.11713
G1 X86.499 Y141.458 E22.12864
G1 X86.109 Y140.94 E22.14016
G1 X85.787 Y140.379 E22.15166
G1 X85.598 Y139.95 E22.15999
G1 X71.794 Y104.439 E22.83725
G1 X71.597 Y103.822 E22.84877
G1 X71.477 Y103.185 E22.86029
G1 X71.437 Y102.539 E22.87179
G1 X71.477 Y101.892 E22.88332
G1 X71.596 Y101.256 E22.89482
G1 X71.792 Y100.638 E22.90634
G1 X72.063 Y100.05 E22.91785
G1 X72.405 Y99.5 E22.92937
G1 X72.811 Y98.995 E22.94088
G1 X73.277 Y98.545 E22.9524
G1 X73.795 Y98.156 E22.96391
G1 X74.356 Y97.833 E22.97542
G1 X74.766 Y97.651 E22.9834
G1 X81.717 Y94.917 E23.11617
G1 X81.635 Y94.701 E23.12028
G1 X81.444 Y94.082 E23.13179
G1 X81.33 Y93.445 E23.1433
G1 X81.296 Y92.798 E23.15481
G1 X81.342 Y92.152 E23.16632
G1 X81.467 Y91.516 E23.17785
G1 X81.67 Y90.901 E23.18936
G1 X81.946 Y90.315 E23.20087
G1 X82.293 Y89.768 E23.21239
G1 X82.704 Y89.268 E23.22389
G1 X83.174 Y88.822 E23.23541
M204 S625
M205 X6 Y6
G0 F4285.7 X83.171 Y89.39
M204 S500
M205 X5 Y5
G1 F1200 X83.643 Y88.986 E23.24646
G1 X84.163 Y88.645 E23.25751
G1 X84.796 Y88.344 E23.26997
G1 X103.333 Y81.138 E23.6235
G1 X103.925 Y80.951 E23.63454
G1 X104.537 Y80.841 E23.64559
G1 X105.157 Y80.811 E23.65663
G1 X105.777 Y80.86 E23.66768
G1 X106.385 Y80.989 E23.67873
G1 X106.971 Y81.194 E23.68977
G1 X107.526 Y81.473 E23.70081
G1 X108.041 Y81.821 E23.71186
G1 X108.506 Y82.233 E23.7229
G1 X108.915 Y82.7 E23.73394
G1 X109.261 Y83.216 E23.74498
G1 X109.568 Y83.847 E23.75745
G1 X109.805 Y84.441 E23.76882
G1 X140.764 Y72.448 E24.359
G1 X141.357 Y72.261 E24.37005
G1 X141.968 Y72.152 E24.38108
G1 X142.589 Y72.123 E24.39213
G1 X143.208 Y72.173 E24.40317
G1 X143.816 Y72.302 E24.41422
G1 X144.402 Y72.508 E24.42526
G1 X144.957 Y72.788 E24.43631
G1 X145.471 Y73.137 E24.44736
G1 X145.936 Y73.549 E24.4584
G1 X146.345 Y74.017 E24.46945
G1 X146.69 Y74.533 E24.48048
G1 X147.011 Y75.202 E24.49367
G1 X160.815 Y110.713 E25.17093
G1 X161.002 Y111.305 E25.18197
G1 X161.112 Y111.917 E25.19302
G1 X161.142 Y112.537 E25.20405
G1 X161.093 Y113.157 E25.21511
G1 X160.964 Y113.765 E25.22616
G1 X160.759 Y114.351 E25.23719
G1 X160.48 Y114.906 E25.24824
G1 X160.132 Y115.421 E25.25928
G1 X159.72 Y115.886 E25.27033
G1 X159.253 Y116.295 E25.28136
G1 X158.736 Y116.641 E25.29242
G1 X158.063 Y116.965 E25.3057
G1 X92.241 Y142.55 E26.56103
G1 X91.649 Y142.737 E26.57207
G1 X91.037 Y142.847 E26.58312
G1 X90.416 Y142.877 E26.59417
G1 X89.797 Y142.828 E26.60521
G1 X89.189 Y142.699 E26.61626
G1 X88.603 Y142.494 E26.62729
G1 X88.048 Y142.215 E26.63834
G1 X87.533 Y141.867 E26.64938
G1 X87.068 Y141.455 E26.66043
G1 X86.659 Y140.988 E26.67146
G1 X86.313 Y140.471 E26.68252
G1 X85.989 Y139.798 E26.6958
G1 X72.185 Y104.287 E27.37306
G1 X71.998 Y103.695 E27.38409
G1 X71.888 Y103.083 E27.39515
G1 X71.858 Y102.463 E27.40618
G1 X71.907 Y101.843 E27.41724
G1 X72.036 Y101.235 E27.42828
G1 X72.241 Y100.649 E27.43932
