;START_OF_HEADER
;HEADER_VERSION:0.1
;FLAVOR:Griffin
;GENERATOR.NAME:Cura_SteamEngine
;GENERATOR.VERSION:3.6.0
;GENERATOR.BUILD_DATE:2018-11-12
;TARGET_MACHINE.NAME:Ultimaker 3
;EXTRUDER_TRAIN.0.INITIAL_TEMPERATURE:205
;EXTRUDER_TRAIN.0.MATERIAL.VOLUME_USED:4818
;EXTRUDER_TRAIN.0.MATERIAL.GUID:506c9f0d-e3aa-4bd4-b2d2-23e2425b1aa9
;EXTRUDER_TRAIN.0.NOZZLE.DIAMETER:0.4
;EXTRUDER_TRAIN.0.NOZZLE.NAME:AA 0.4
;BUILD_PLATE.TYPE:glass
;BUILD_PLATE.INITIAL_TEMPERATURE:60
;PRINT.TIME:5118
;PRINT.SIZE.MIN.X:9
;PRINT.SIZE.MIN.Y:6
;PRINT.SIZE.MIN.Z:0.27
;PRINT.SIZE.MAX.X:165.475
;PRINT.SIZE.MAX.Y:131.194
;PRINT.SIZE.MAX.Z:2.57
;END_OF_HEADER
;Generated with Cura_SteamEngine 3.6.0
T0
M82 ;absolute extrusion mode

G92 E0
M109 S205
G0 F15000 X9 Y6 Z2
G280
G1 F1500 E-6.5
;LAYER_COUNT:24
;LAYER:0
M107
M204 S625
M205 X6 Y6
G0 F4285.7 X71.583 Y85.856 Z0.27
M204 S500
M205 X5 Y5
;TYPE:SKIRT
G1 F1500 E0
G1 F1200 X72.177 Y85.408 E0.01323
G1 X72.817 Y85.027 E0.02647
G1 X73.667 Y84.651 E0.04299
G1 X74.704 Y84.273 E0.06261
G1 X75.416 Y84.056 E0.07584
G1 X76.147 Y83.917 E0.08907
G1 X77.073 Y83.854 E0.10556
G1 X155.365 Y83.806 E1.49728
G1 X156.108 Y83.846 E1.51051
G1 X156.562 Y83.909 E1.51866
G1 X157.649 Y84.099 E1.53827
G1 X158.374 Y84.267 E1.5515
G1 X159.078 Y84.511 E1.56474
G1 X159.927 Y84.928 E1.58156
G1 X160.881 Y85.48 E1.60115
G1 X161.504 Y85.887 E1.61438
G1 X162.08 Y86.358 E1.62761
G1 X162.714 Y87.017 E1.64386
G1 X163.423 Y87.86 E1.66344
G1 X163.87 Y88.455 E1.67667
G1 X164.252 Y89.094 E1.6899
G1 X164.631 Y89.95 E1.70655
G1 X165.009 Y90.988 E1.72618
G1 X165.225 Y91.7 E1.73941
G1 X165.365 Y92.431 E1.75264
G1 X165.427 Y93.347 E1.76896
G1 X165.475 Y121.076 E2.26187
G1 X165.436 Y121.819 E2.2751
G1 X165.371 Y122.282 E2.28341
G1 X165.181 Y123.368 E2.303
G1 X165.014 Y124.094 E2.31625
G1 X164.77 Y124.797 E2.32947
G1 X164.358 Y125.637 E2.34611
G1 X163.807 Y126.592 E2.3657
G1 X163.401 Y127.216 E2.37894
G1 X162.93 Y127.793 E2.39218
G1 X162.261 Y128.435 E2.40866
G1 X161.417 Y129.144 E2.42825
G1 X160.823 Y129.592 E2.44148
G1 X160.183 Y129.973 E2.45472
G1 X159.333 Y130.349 E2.47124
G1 X158.296 Y130.727 E2.49086
G1 X157.584 Y130.944 E2.50409
G1 X156.853 Y131.083 E2.51732
G1 X155.927 Y131.146 E2.53382
G1 X77.635 Y131.194 E3.92554
G1 X76.892 Y131.154 E3.93876
G1 X76.438 Y131.091 E3.94691
G1 X75.351 Y130.901 E3.96652
G1 X74.626 Y130.733 E3.97975
G1 X73.922 Y130.489 E3.993
G1 X73.073 Y130.072 E4.00981
G1 X72.119 Y129.52 E4.02941
G1 X71.496 Y129.113 E4.04263
G1 X70.92 Y128.642 E4.05586
G1 X70.286 Y127.983 E4.07211
G1 X69.577 Y127.14 E4.0917
G1 X69.13 Y126.545 E4.10492
G1 X68.748 Y125.906 E4.11816
G1 X68.369 Y125.05 E4.1348
G1 X67.991 Y124.012 E4.15444
G1 X67.775 Y123.3 E4.16766
G1 X67.635 Y122.569 E4.18089
G1 X67.573 Y121.653 E4.19721
G1 X67.525 Y93.924 E4.69012
G1 X67.564 Y93.181 E4.70335
G1 X67.629 Y92.718 E4.71166
G1 X67.819 Y91.632 E4.73126
G1 X67.986 Y90.906 E4.7445
G1 X68.23 Y90.203 E4.75773
G1 X68.642 Y89.363 E4.77436
G1 X69.193 Y88.408 E4.79396
G1 X69.599 Y87.784 E4.80719
G1 X70.07 Y87.207 E4.82043
G1 X70.739 Y86.565 E4.83691
G1 X71.583 Y85.856 E4.85651
M204 S625
M205 X6 Y6
G0 F4285.7 X71.853 Y86.177
M204 S500
M205 X5 Y5
G1 F1200 X72.43 Y85.745 E4.86932
G1 X73.051 Y85.379 E4.88213
G1 X73.811 Y85.046 E4.89688
G1 X74.848 Y84.668 E4.9165
G1 X75.538 Y84.459 E4.92932
G1 X76.247 Y84.327 E4.94214
G1 X77.073 Y84.274 E4.95685
G1 X155.365 Y84.226 E6.34857
G1 X156.085 Y84.266 E6.36139
G1 X156.49 Y84.323 E6.36866
G1 X157.577 Y84.513 E6.38827
G1 X158.28 Y84.677 E6.40111
G1 X158.96 Y84.917 E6.41392
G1 X159.716 Y85.291 E6.42892
G1 X160.67 Y85.843 E6.44851
G1 X161.274 Y86.239 E6.46135
G1 X161.83 Y86.698 E6.47416
G1 X162.392 Y87.288 E6.48865
G1 X163.101 Y88.131 E6.50823
G1 X163.534 Y88.708 E6.52105
G1 X163.901 Y89.329 E6.53388
G1 X164.236 Y90.093 E6.5487
G1 X164.614 Y91.131 E6.56834
G1 X164.823 Y91.822 E6.58117
G1 X164.954 Y92.531 E6.59399
G1 X165.007 Y93.348 E6.60854
G1 X165.055 Y121.077 E7.10146
G1 X165.016 Y121.797 E7.11427
G1 X164.958 Y122.21 E7.12169
G1 X164.768 Y123.296 E7.14128
G1 X164.604 Y123.999 E7.15412
G1 X164.364 Y124.679 E7.16693
G1 X163.994 Y125.427 E7.18177
G1 X163.443 Y126.382 E7.20137
G1 X163.048 Y126.986 E7.2142
G1 X162.589 Y127.543 E7.22703
G1 X161.991 Y128.114 E7.24172
G1 X161.147 Y128.823 E7.26132
G1 X160.57 Y129.255 E7.27413
G1 X159.949 Y129.621 E7.28694
G1 X159.189 Y129.954 E7.30169
G1 X158.152 Y130.332 E7.32131
G1 X157.462 Y130.541 E7.33413
G1 X156.753 Y130.673 E7.34695
G1 X155.927 Y130.726 E7.36166
G1 X77.635 Y130.774 E8.75338
G1 X76.915 Y130.734 E8.7662
G1 X76.51 Y130.677 E8.77347
G1 X75.423 Y130.487 E8.79308
G1 X74.72 Y130.323 E8.80592
G1 X74.04 Y130.083 E8.81873
G1 X73.284 Y129.709 E8.83373
G1 X72.33 Y129.157 E8.85332
G1 X71.726 Y128.761 E8.86616
G1 X71.17 Y128.302 E8.87897
G1 X70.608 Y127.712 E8.89346
G1 X69.899 Y126.869 E8.91304
G1 X69.466 Y126.292 E8.92586
G1 X69.099 Y125.671 E8.93869
G1 X68.764 Y124.907 E8.95351
G1 X68.386 Y123.869 E8.97315
G1 X68.177 Y123.178 E8.98598
G1 X68.046 Y122.469 E8.9988
G1 X67.993 Y121.652 E9.01335
G1 X67.945 Y93.923 E9.50627
G1 X67.984 Y93.203 E9.51908
G1 X68.042 Y92.79 E9.5265
G1 X68.232 Y91.704 E9.54609
G1 X68.396 Y91.001 E9.55893
G1 X68.636 Y90.321 E9.57174
G1 X69.006 Y89.573 E9.58658
G1 X69.557 Y88.618 E9.60618
G1 X69.952 Y88.014 E9.61901
G1 X70.411 Y87.457 E9.63184
G1 X71.009 Y86.886 E9.64653
G1 X71.853 Y86.177 E9.66613
M204 S625
M205 X6 Y6
G0 F4285.7 X72.123 Y86.499
M204 S500
M205 X5 Y5
G1 F1200 X72.682 Y86.082 E9.67853
G1 X73.285 Y85.731 E9.69093
G1 X73.954 Y85.44 E9.7039
G1 X74.991 Y85.062 E9.72352
G1 X75.659 Y84.861 E9.73592
G1 X76.346 Y84.738 E9.74832
G1 X77.073 Y84.694 E9.76127
G1 X155.365 Y84.646 E11.15299
G1 X156.062 Y84.686 E11.1654
G1 X156.418 Y84.737 E11.17179
G1 X157.505 Y84.927 E11.19141
G1 X158.184 Y85.086 E11.2038
G1 X158.84 Y85.322 E11.21619
G1 X159.506 Y85.655 E11.22943
G1 X160.46 Y86.207 E11.24902
G1 X161.043 Y86.59 E11.26142
G1 X161.578 Y87.038 E11.27383
G1 X162.071 Y87.558 E11.28656
G1 X162.78 Y88.401 E11.30614
G1 X163.198 Y88.96 E11.31855
G1 X163.549 Y89.563 E11.33095
G1 X163.841 Y90.237 E11.34401
G1 X164.219 Y91.275 E11.36365
G1 X164.42 Y91.943 E11.37605
G1 X164.543 Y92.63 E11.38846
G1 X164.587 Y93.348 E11.40124
G1 X164.635 Y121.077 E11.89415
G1 X164.596 Y121.774 E11.90656
G1 X164.544 Y122.138 E11.9131
G1 X164.354 Y123.224 E11.9327
G1 X164.194 Y123.903 E11.9451
G1 X163.958 Y124.559 E11.95749
G1 X163.63 Y125.217 E11.97056
G1 X163.079 Y126.172 E11.99016
G1 X162.696 Y126.756 E12.00257
G1 X162.249 Y127.292 E12.01498
G1 X161.721 Y127.792 E12.02791
G1 X160.877 Y128.501 E12.0475
G1 X160.318 Y128.918 E12.0599
G1 X159.715 Y129.269 E12.0723
G1 X159.046 Y129.56 E12.08527
G1 X158.009 Y129.938 E12.10489
G1 X157.341 Y130.139 E12.11729
G1 X156.654 Y130.262 E12.12969
G1 X155.927 Y130.306 E12.14264
G1 X77.635 Y130.354 E13.53436
G1 X76.938 Y130.314 E13.54677
G1 X76.582 Y130.263 E13.55316
G1 X75.495 Y130.073 E13.57278
G1 X74.816 Y129.914 E13.58517
G1 X74.16 Y129.678 E13.59757
G1 X73.494 Y129.345 E13.6108
G1 X72.54 Y128.793 E13.63039
G1 X71.957 Y128.41 E13.64279
G1 X71.422 Y127.962 E13.6552
G1 X70.929 Y127.442 E13.66794
G1 X70.22 Y126.599 E13.68752
G1 X69.802 Y126.04 E13.69992
G1 X69.451 Y125.437 E13.71233
G1 X69.159 Y124.763 E13.72538
G1 X68.781 Y123.725 E13.74502
G1 X68.58 Y123.057 E13.75742
G1 X68.457 Y122.37 E13.76983
G1 X68.413 Y121.652 E13.78261
G1 X68.365 Y93.923 E14.27552
G1 X68.404 Y93.226 E14.28793
G1 X68.456 Y92.862 E14.29447
G1 X68.646 Y91.776 E14.31407
G1 X68.806 Y91.097 E14.32647
G1 X69.042 Y90.441 E14.33886
G1 X69.37 Y89.783 E14.35193
G1 X69.921 Y88.828 E14.37153
G1 X70.304 Y88.244 E14.38394
G1 X70.751 Y87.708 E14.39635
G1 X71.279 Y87.208 E14.40928
G1 X72.123 Y86.499 E14.42887
M204 S625
M205 X6 Y6
G0 F4285.7 X72.393 Y86.821
M204 S500
M205 X5 Y5
G1 F1200 X72.933 Y86.419 E14.44084
G1 X73.517 Y86.084 E14.4528
G1 X74.098 Y85.835 E14.46404
G1 X75.135 Y85.457 E14.48366
G1 X75.78 Y85.264 E14.49563
G1 X76.444 Y85.149 E14.50761
G1 X77.074 Y85.114 E14.51882
G1 X155.366 Y85.066 E15.91054
G1 X156.345 Y85.151 E15.92801
G1 X157.432 Y85.341 E15.94762
G1 X158.087 Y85.496 E15.95959
G1 X158.719 Y85.727 E15.97155
G1 X159.296 Y86.018 E15.98304
G1 X160.25 Y86.57 E16.00263
G1 X160.811 Y86.941 E16.01459
G1 X161.325 Y87.377 E16.02657
G1 X161.749 Y87.828 E16.03757
G1 X162.458 Y88.671 E16.05715
G1 X162.86 Y89.211 E16.06912
G1 X163.195 Y89.795 E16.08109
G1 X163.447 Y90.381 E16.09243
G1 X163.825 Y91.419 E16.11206
G1 X164.017 Y92.064 E16.12403
G1 X164.132 Y92.727 E16.13599
G1 X164.167 Y93.349 E16.14706
G1 X164.215 Y121.078 E16.63997
G1 X164.13 Y122.065 E16.65758
G1 X163.94 Y123.151 E16.67718
G1 X163.785 Y123.806 E16.68914
G1 X163.553 Y124.438 E16.70111
G1 X163.266 Y125.008 E16.71246
G1 X162.715 Y125.963 E16.73205
G1 X162.345 Y126.525 E16.74402
G1 X161.91 Y127.039 E16.75599
G1 X161.451 Y127.47 E16.76718
G1 X160.607 Y128.179 E16.78677
G1 X160.067 Y128.581 E16.79874
G1 X159.483 Y128.916 E16.81071
G1 X158.902 Y129.165 E16.82194
G1 X157.865 Y129.543 E16.84156
G1 X157.22 Y129.736 E16.85353
G1 X156.556 Y129.851 E16.86551
G1 X155.926 Y129.886 E16.87673
G1 X77.634 Y129.934 E18.26844
G1 X76.655 Y129.849 E18.28591
G1 X75.568 Y129.659 E18.30553
G1 X74.913 Y129.504 E18.31749
G1 X74.281 Y129.273 E18.32945
G1 X73.704 Y128.982 E18.34094
G1 X72.75 Y128.43 E18.36053
G1 X72.189 Y128.059 E18.37249
G1 X71.675 Y127.623 E18.38447
G1 X71.251 Y127.172 E18.39547
G1 X70.542 Y126.329 E18.41505
G1 X70.14 Y125.789 E18.42702
G1 X69.805 Y125.205 E18.43899
G1 X69.553 Y124.619 E18.45033
G1 X69.175 Y123.581 E18.46996
G1 X68.983 Y122.936 E18.48193
G1 X68.868 Y122.273 E18.49389
G1 X68.833 Y121.651 E18.50496
G1 X68.785 Y93.922 E18.99787
G1 X68.87 Y92.935 E19.01548
G1 X69.06 Y91.849 E19.03508
G1 X69.215 Y91.194 E19.04705
G1 X69.447 Y90.562 E19.05901
G1 X69.734 Y89.992 E19.07036
G1 X70.285 Y89.037 E19.08996
G1 X70.655 Y88.475 E19.10192
G1 X71.09 Y87.961 E19.11389
G1 X71.549 Y87.53 E19.12508
G1 X72.393 Y86.821 E19.14467
M204 S625
M205 X6 Y6
G0 F4285.7 X72.663 Y87.142
M204 S500
M205 X5 Y5
G1 F1200 X73.184 Y86.757 E19.15619
G1 X73.748 Y86.439 E19.1677
G1 X74.242 Y86.229 E19.17724
G1 X75.279 Y85.851 E19.19686
G1 X75.9 Y85.668 E19.20837
G1 X76.539 Y85.562 E19.21988
G1 X77.074 Y85.534 E19.22941
G1 X155.366 Y85.486 E20.62112
G1 X156.273 Y85.564 E20.6373
G1 X157.36 Y85.754 E20.65692
G1 X157.99 Y85.905 E20.66844
G1 X158.597 Y86.132 E20.67996
G1 X159.085 Y86.382 E20.6897
G1 X160.039 Y86.934 E20.7093
G1 X160.579 Y87.292 E20.72081
G1 X161.07 Y87.714 E20.73232
G1 X161.428 Y88.099 E20.74167
G1 X162.137 Y88.942 E20.76125
G1 X162.522 Y89.462 E20.77275
G1 X162.841 Y90.026 E20.78427
G1 X163.052 Y90.525 E20.7939
G1 X163.43 Y91.563 E20.81353
G1 X163.614 Y92.184 E20.82505
G1 X163.72 Y92.823 E20.83656
G1 X163.747 Y93.35 E20.84594
G1 X163.795 Y121.079 E21.33885
G1 X163.716 Y121.993 E21.35516
G1 X163.526 Y123.079 E21.37476
G1 X163.376 Y123.709 E21.38627
G1 X163.148 Y124.315 E21.39778
G1 X162.902 Y124.798 E21.40741
G1 X162.351 Y125.753 E21.42701
G1 X161.994 Y126.293 E21.43852
G1 X161.572 Y126.785 E21.45004
G1 X161.181 Y127.149 E21.45954
G1 X160.337 Y127.858 E21.47913
G1 X159.816 Y128.243 E21.49065
G1 X159.252 Y128.561 E21.50216
G1 X158.758 Y128.771 E21.5117
G1 X157.721 Y129.149 E21.53132
G1 X157.1 Y129.332 E21.54283
G1 X156.461 Y129.438 E21.55434
G1 X155.926 Y129.466 E21.56387
G1 X77.634 Y129.514 E22.95558
G1 X76.727 Y129.436 E22.97176
G1 X75.64 Y129.246 E22.99138
G1 X75.01 Y129.095 E23.0029
G1 X74.403 Y128.868 E23.01442
G1 X73.915 Y128.618 E23.02416
G1 X72.961 Y128.066 E23.04376
G1 X72.421 Y127.708 E23.05527
G1 X71.93 Y127.286 E23.06678
G1 X71.572 Y126.901 E23.07613
G1 X70.863 Y126.058 E23.09571
G1 X70.478 Y125.538 E23.10721
G1 X70.159 Y124.974 E23.11873
G1 X69.948 Y124.475 E23.12836
G1 X69.57 Y123.437 E23.14799
G1 X69.386 Y122.816 E23.15951
G1 X69.28 Y122.177 E23.17102
G1 X69.253 Y121.65 E23.1804
G1 X69.205 Y93.921 E23.67331
G1 X69.284 Y93.007 E23.68962
G1 X69.474 Y91.921 E23.70922
G1 X69.624 Y91.291 E23.72073
G1 X69.852 Y90.685 E23.73224
G1 X70.098 Y90.202 E23.74187
G1 X70.649 Y89.247 E23.76147
G1 X71.006 Y88.707 E23.77298
G1 X71.428 Y88.215 E23.7845
G1 X71.819 Y87.851 E23.794
G1 X72.663 Y87.142 E23.81359
M204 S625
M205 X6 Y6
G0 F4285.7 X72.933 Y87.464
M204 S500
M205 X5 Y5
G1 F1200 X73.434 Y87.096 E23.82464
G1 X73.977 Y86.795 E23.83568
G1 X74.386 Y86.624 E23.84356
G1 X75.423 Y86.246 E23.86318
G1 X76.019 Y86.071 E23.87422
G1 X76.633 Y85.974 E23.88527
G1 X77.074 Y85.954 E23.89312
G1 X155.366 Y85.906 E25.28483
G1 X156.201 Y85.978 E25.29973
G1 X157.288 Y86.168 E25.31935
G1 X157.892 Y86.314 E25.33039
G1 X158.472 Y86.537 E25.34144
G1 X158.875 Y86.745 E25.3495
G1 X159.829 Y87.297 E25.36909
G1 X160.346 Y87.642 E25.38014
G1 X160.814 Y88.051 E25.39119
G1 X161.106 Y88.369 E25.39887
G1 X161.815 Y89.212 E25.41845
G1 X162.184 Y89.712 E25.42949
G1 X162.485 Y90.256 E25.44054
G1 X162.657 Y90.668 E25.44848
G1 X163.035 Y91.706 E25.46812
G1 X163.21 Y92.303 E25.47918
G1 X163.307 Y92.916 E25.49021
G1 X163.327 Y93.351 E25.49795
G1 X163.375 Y121.08 E25.99086
G1 X163.303 Y121.92 E26.00585
G1 X163.113 Y123.006 E26.02544
G1 X162.967 Y123.61 E26.03649
G1 X162.744 Y124.19 E26.04754
G1 X162.539 Y124.588 E26.05549
G1 X161.988 Y125.543 E26.07509
G1 X161.643 Y126.06 E26.08614
G1 X161.235 Y126.528 E26.09718
G1 X160.911 Y126.827 E26.10502
G1 X160.067 Y127.536 E26.12461
G1 X159.566 Y127.904 E26.13566
G1 X159.023 Y128.205 E26.1467
G1 X158.614 Y128.376 E26.15458
G1 X157.577 Y128.754 E26.1742
G1 X156.981 Y128.929 E26.18524
G1 X156.367 Y129.026 E26.19629
G1 X155.926 Y129.046 E26.20413
G1 X77.634 Y129.094 E27.59585
G1 X76.799 Y129.022 E27.61075
G1 X75.712 Y128.832 E27.63037
G1 X75.108 Y128.686 E27.64141
G1 X74.528 Y128.463 E27.65246
G1 X74.125 Y128.255 E27.66052
G1 X73.171 Y127.703 E27.68011
G1 X72.654 Y127.358 E27.69116
G1 X72.186 Y126.949 E27.70221
G1 X71.894 Y126.631 E27.70988
G1 X71.185 Y125.788 E27.72946
G1 X70.816 Y125.288 E27.74051
G1 X70.515 Y124.744 E27.75156
G1 X70.343 Y124.332 E27.7595
G1 X69.965 Y123.294 E27.77913
G1 X69.79 Y122.697 E27.79019
G1 X69.693 Y122.084 E27.80123
G1 X69.673 Y121.649 E27.80897
G1 X69.625 Y93.92 E28.30188
G1 X69.697 Y93.08 E28.31686
G1 X69.887 Y91.994 E28.33646
G1 X70.033 Y91.39 E28.34751
G1 X70.256 Y90.81 E28.35855
G1 X70.461 Y90.412 E28.36651
G1 X71.012 Y89.457 E28.38611
G1 X71.357 Y88.94 E28.39716
G1 X71.765 Y88.472 E28.4082
G1 X72.089 Y88.173 E28.41603
G1 X72.933 Y87.464 E28.43563
M204 S625
M205 X6 Y6
G0 F4285.7 X73.203 Y87.785
M204 S500
M205 X5 Y5
G1 F1200 X73.683 Y87.435 E28.44619
G1 X74.205 Y87.152 E28.45674
G1 X74.53 Y87.019 E28.46298
G1 X75.567 Y86.641 E28.4826
G1 X76.137 Y86.475 E28.49316
G1 X76.724 Y86.388 E28.50371
G1 X77.074 Y86.374 E28.50993
G1 X155.366 Y86.326 E29.90165
G1 X156.128 Y86.392 E29.91524
G1 X157.215 Y86.582 E29.93486
G1 X157.792 Y86.723 E29.94542
G1 X158.344 Y86.941 E29.95597
G1 X158.665 Y87.109 E29.96241
G1 X159.619 Y87.661 E29.982
G1 X160.111 Y87.992 E29.99254
G1 X160.555 Y88.387 E30.00311
G1 X160.785 Y88.639 E30.00917
G1 X161.494 Y89.482 E30.02875
G1 X161.845 Y89.961 E30.03931
G1 X162.128 Y90.483 E30.04986
G1 X162.263 Y90.812 E30.05618
G1 X162.641 Y91.85 E30.07582
G1 X162.806 Y92.42 E30.08637
G1 X162.893 Y93.007 E30.09692
G1 X162.907 Y93.351 E30.10304
G1 X162.955 Y121.08 E30.59595
G1 X162.889 Y121.848 E30.60965
G1 X162.699 Y122.934 E30.62925
G1 X162.558 Y123.511 E30.63981
G1 X162.34 Y124.063 E30.65036
G1 X162.175 Y124.378 E30.65668
G1 X161.624 Y125.333 E30.67628
G1 X161.293 Y125.826 E30.68683
G1 X160.899 Y126.27 E30.69738
G1 X160.641 Y126.506 E30.7036
G1 X159.797 Y127.215 E30.72319
G1 X159.317 Y127.565 E30.73375
G1 X158.795 Y127.848 E30.74431
G1 X158.47 Y127.981 E30.75055
G1 X157.433 Y128.359 E30.77017
G1 X156.863 Y128.525 E30.78072
G1 X156.276 Y128.612 E30.79127
G1 X155.926 Y128.626 E30.7975
G1 X77.634 Y128.674 E32.18922
G1 X76.872 Y128.608 E32.20281
G1 X75.785 Y128.418 E32.22243
G1 X75.208 Y128.277 E32.23299
G1 X74.656 Y128.059 E32.24354
G1 X74.335 Y127.891 E32.24998
G1 X73.381 Y127.339 E32.26957
G1 X72.889 Y127.008 E32.28011
G1 X72.445 Y126.613 E32.29067
G1 X72.215 Y126.361 E32.29674
G1 X71.506 Y125.518 E32.31632
