;START_OF_HEADER
;HEADER_VERSION:0.1
;FLAVOR:Griffin
;GENERATOR.NAME:Cura_SteamEngine
;GENERATOR.VERSION:3.6.0
;GENERATOR.BUILD_DATE:2018-11-12
;TARGET_MACHINE.NAME:Ultimaker 3
;EXTRUDER_TRAIN.0.INITIAL_TEMPERATURE:217
;EXTRUDER_TRAIN.0.MATERIAL.VOLUME_USED:4323
;EXTRUDER_TRAIN.0.MATERIAL.GUID:44a029e6-e31b-4c9e-a12f-9282e29a92ff
;EXTRUDER_TRAIN.0.NOZZLE.DIAMETER:0.4
;EXTRUDER_TRAIN.0.NOZZLE.NAME:AA 0.4
;BUILD_PLATE.TYPE:glass
;BUILD_PLATE.INITIAL_TEMPERATURE:60
;PRINT.TIME:4453
;PRINT.SIZE.MIN.X:9
;PRINT.SIZE.MIN.Y:6
;PRINT.SIZE.MIN.Z:0.27
;PRINT.SIZE.MAX.X:188.086
;PRINT.SIZE.MAX.Y:121.903
;PRINT.SIZE.MAX.Z:12.67
;END_OF_HEADER
;Generated with Cura_SteamEngine 3.6.0
T0
M82 ;absolute extrusion mode

G92 E0
M109 S217
G0 F15000 X9 Y6 Z2
G280
G1 F1500 E-6.5
;LAYER_COUNT:126
;LAYER:0
M107
M204 S625
M205 X6 Y6
G0 F4285.7 X51.199 Y93.742 Z0.27
M204 S500
M205 X5 Y5
;TYPE:SKIRT
G1 F1500 E0
G1 F1200 X51.89 Y93.465 E0.01323
G1 X52.607 Y93.264 E0.02647
G1 X53.341 Y93.141 E0.0397
G1 X54.12 Y93.097 E0.05357
G1 X177.807 Y93.097 E2.25223
G1 X178.453 Y93.127 E2.26372
G1 X179.286 Y93.205 E2.27859
G1 X180.022 Y93.314 E2.29182
G1 X180.916 Y93.559 E2.3083
G1 X181.589 Y93.793 E2.32096
G1 X182.278 Y94.075 E2.3342
G1 X182.978 Y94.457 E2.34837
G1 X183.583 Y94.834 E2.36104
G1 X184.193 Y95.261 E2.37428
G1 X184.808 Y95.806 E2.38889
G1 X185.309 Y96.305 E2.40146
G1 X185.808 Y96.858 E2.4147
G1 X186.282 Y97.52 E2.42917
G1 X186.662 Y98.123 E2.44184
G1 X187.024 Y98.773 E2.45507
G1 X187.331 Y99.504 E2.46916
G1 X187.569 Y100.176 E2.48183
G1 X187.78 Y100.89 E2.49507
G1 X187.922 Y101.705 E2.50977
G1 X188.002 Y102.407 E2.52233
G1 X188.047 Y103.155 E2.53565
G1 X188.086 Y110.373 E2.66396
G1 X188.022 Y111.35 E2.68137
G1 X187.905 Y112.205 E2.69671
G1 X187.765 Y112.936 E2.70994
G1 X187.625 Y113.42 E2.71889
G1 X187.358 Y114.236 E2.73415
G1 X187.089 Y114.93 E2.74739
G1 X186.872 Y115.369 E2.75609
G1 X186.464 Y116.126 E2.77138
G1 X186.077 Y116.761 E2.7846
G1 X185.78 Y117.161 E2.79345
G1 X185.242 Y117.835 E2.80878
G1 X184.747 Y118.391 E2.82201
G1 X184.376 Y118.739 E2.83106
G1 X183.727 Y119.304 E2.84635
G1 X183.14 Y119.762 E2.85959
G1 X182.723 Y120.031 E2.86841
G1 X181.986 Y120.47 E2.88366
G1 X181.327 Y120.816 E2.89689
G1 X180.872 Y121.005 E2.90565
G1 X180.066 Y121.307 E2.92095
G1 X179.356 Y121.531 E2.93418
G1 X178.877 Y121.636 E2.9429
G1 X178.027 Y121.791 E2.95826
G1 X177.289 Y121.885 E2.97148
G1 X176.784 Y121.903 E2.98046
G1 X175.928 Y121.903 E2.99568
G1 X175.185 Y121.863 E3.00891
G1 X174.683 Y121.79 E3.01792
G1 X173.834 Y121.635 E3.03326
G1 X173.11 Y121.463 E3.04649
G1 X172.65 Y121.308 E3.05512
G1 X171.843 Y121.006 E3.07044
G1 X171.161 Y120.708 E3.08367
G1 X170.726 Y120.47 E3.09248
G1 X169.989 Y120.031 E3.10773
G1 X169.37 Y119.616 E3.12098
G1 X168.981 Y119.3 E3.12989
G1 X168.333 Y118.735 E3.14517
G1 X167.799 Y118.217 E3.15839
G1 X167.471 Y117.835 E3.16734
G1 X166.933 Y117.161 E3.18267
G1 X166.5 Y116.555 E3.19591
G1 X166.457 Y116.482 E3.19742
G1 X63.641 Y116.482 E5.02507
G1 X62.857 Y116.839 E5.04039
G1 X62.164 Y117.111 E5.05362
G1 X61.778 Y117.226 E5.06078
G1 X60.807 Y117.486 E5.07865
G1 X60.079 Y117.64 E5.09188
G1 X59.673 Y117.691 E5.09915
G1 X58.667 Y117.787 E5.11711
G1 X57.924 Y117.817 E5.13033
G1 X57.528 Y117.801 E5.13738
G1 X56.522 Y117.731 E5.1553
G1 X55.783 Y117.64 E5.16854
G1 X55.389 Y117.557 E5.1757
G1 X54.412 Y117.323 E5.19356
G1 X53.698 Y117.111 E5.2068
G1 X53.33 Y116.968 E5.21381
G1 X52.404 Y116.577 E5.23168
G1 X51.735 Y116.251 E5.24491
G1 X51.387 Y116.044 E5.25211
G1 X50.533 Y115.502 E5.27009
G1 X49.926 Y115.07 E5.28333
G1 X49.626 Y114.816 E5.29032
G1 X48.877 Y114.146 E5.30818
G1 X48.349 Y113.621 E5.32142
G1 X48.084 Y113.308 E5.32871
G1 X47.454 Y112.52 E5.34664
G1 X47.021 Y111.915 E5.35987
G1 X46.813 Y111.565 E5.3671
G1 X46.324 Y110.687 E5.38497
G1 X45.997 Y110.018 E5.39821
G1 X45.855 Y109.654 E5.40515
G1 X45.514 Y108.703 E5.42311
G1 X45.3 Y107.99 E5.43634
G1 X45.217 Y107.596 E5.4435
G1 X45.038 Y106.605 E5.4614
G1 X44.946 Y105.866 E5.47464
G1 X44.929 Y105.47 E5.48169
G1 X44.915 Y104.466 E5.49953
G1 X44.944 Y103.722 E5.51277
G1 X44.994 Y103.32 E5.51997
G1 X45.147 Y102.321 E5.53794
G1 X45.299 Y101.592 E5.55117
G1 X45.414 Y101.203 E5.55838
G1 X45.728 Y100.249 E5.57624
G1 X45.999 Y99.556 E5.58946
G1 X46.17 Y99.205 E5.5964
G1 X46.637 Y98.312 E5.61432
G1 X47.017 Y97.671 E5.62756
G1 X47.256 Y97.336 E5.63488
G1 X47.864 Y96.534 E5.65277
G1 X48.344 Y95.966 E5.66599
G1 X48.625 Y95.685 E5.67305
G1 X49.359 Y94.991 E5.69101
G1 X49.926 Y94.51 E5.70423
G1 X50.542 Y94.092 E5.71746
G1 X51.199 Y93.742 E5.73069
M204 S625
M205 X6 Y6
G0 F4285.7 X51.437 Y94.096
M204 S500
M205 X5 Y5
G1 F1200 X52.11 Y93.835 E5.74352
G1 X52.807 Y93.651 E5.75634
G1 X53.521 Y93.545 E5.76917
G1 X54.12 Y93.517 E5.77983
G1 X177.807 Y93.517 E7.97849
G1 X178.414 Y93.545 E7.98929
G1 X179.247 Y93.623 E8.00416
G1 X179.96 Y93.73 E8.01697
G1 X180.778 Y93.956 E8.03206
G1 X181.451 Y94.19 E8.04473
G1 X182.118 Y94.464 E8.05754
G1 X182.756 Y94.814 E8.07048
G1 X183.361 Y95.191 E8.08315
G1 X183.951 Y95.606 E8.09597
G1 X184.512 Y96.104 E8.10931
G1 X185.013 Y96.603 E8.12188
G1 X185.495 Y97.139 E8.13469
G1 X185.927 Y97.744 E8.14791
G1 X186.307 Y98.347 E8.16058
G1 X186.657 Y98.978 E8.1734
G1 X186.936 Y99.645 E8.18625
G1 X187.174 Y100.317 E8.19893
G1 X187.376 Y101.009 E8.21174
G1 X187.505 Y101.753 E8.22516
G1 X187.585 Y102.455 E8.23772
G1 X187.627 Y103.157 E8.25022
G1 X187.666 Y110.375 E8.37853
G1 X187.606 Y111.293 E8.39489
G1 X187.489 Y112.148 E8.41023
G1 X187.352 Y112.856 E8.42305
G1 X187.226 Y113.289 E8.43106
G1 X186.959 Y114.105 E8.44632
G1 X186.697 Y114.778 E8.45916
G1 X186.503 Y115.17 E8.46694
G1 X186.095 Y115.927 E8.48222
G1 X185.718 Y116.542 E8.49505
G1 X185.452 Y116.899 E8.50296
G1 X184.914 Y117.573 E8.51829
G1 X184.433 Y118.111 E8.53112
G1 X184.101 Y118.422 E8.5392
G1 X183.452 Y118.987 E8.5545
G1 X182.882 Y119.43 E8.56733
G1 X182.508 Y119.67 E8.57523
G1 X181.771 Y120.109 E8.59048
G1 X181.132 Y120.443 E8.6033
G1 X180.724 Y120.612 E8.61115
G1 X179.918 Y120.914 E8.62645
G1 X179.23 Y121.129 E8.63926
G1 X178.802 Y121.222 E8.64705
G1 X177.952 Y121.377 E8.66241
G1 X177.236 Y121.467 E8.67523
G1 X176.784 Y121.483 E8.68327
G1 X175.928 Y121.483 E8.69849
G1 X175.208 Y121.443 E8.71131
G1 X174.759 Y121.377 E8.71938
G1 X173.91 Y121.222 E8.73472
G1 X173.208 Y121.053 E8.74755
G1 X172.797 Y120.915 E8.75526
G1 X171.99 Y120.613 E8.77058
G1 X171.33 Y120.323 E8.78339
G1 X170.941 Y120.109 E8.79128
G1 X170.204 Y119.67 E8.80653
G1 X169.605 Y119.267 E8.81936
G1 X169.257 Y118.984 E8.82734
G1 X168.609 Y118.419 E8.84262
G1 X168.092 Y117.915 E8.85546
G1 X167.799 Y117.573 E8.86346
G1 X167.261 Y116.899 E8.87879
G1 X166.843 Y116.311 E8.89161
G1 X166.697 Y116.062 E8.89675
G1 X63.551 Y116.062 E10.73027
G1 X62.683 Y116.457 E10.74722
G1 X61.67 Y116.82 E10.76635
G1 X60.699 Y117.08 E10.78422
G1 X59.993 Y117.228 E10.79704
G1 X59.633 Y117.273 E10.80349
G1 X58.627 Y117.369 E10.82145
G1 X57.557 Y117.382 E10.84047
G1 X56.551 Y117.312 E10.8584
G1 X55.487 Y117.149 E10.87753
G1 X54.51 Y116.915 E10.89539
G1 X53.494 Y116.581 E10.9144
G1 X52.568 Y116.19 E10.93227
G1 X51.612 Y115.689 E10.95146
G1 X50.758 Y115.147 E10.96944
G1 X49.906 Y114.503 E10.98842
G1 X49.157 Y113.833 E11.00628
G1 X48.647 Y113.323 E11.01911
G1 X48.412 Y113.046 E11.02556
G1 X47.782 Y112.258 E11.0435
G1 X47.18 Y111.361 E11.0627
G1 X46.691 Y110.483 E11.08056
G1 X46.25 Y109.512 E11.09952
G1 X45.909 Y108.561 E11.11748
G1 X45.631 Y107.521 E11.13662
G1 X45.452 Y106.53 E11.15452
G1 X45.349 Y105.464 E11.17356
G1 X45.335 Y104.46 E11.1914
G1 X45.409 Y103.383 E11.21059
G1 X45.562 Y102.384 E11.22856
G1 X45.813 Y101.335 E11.24773
G1 X46.127 Y100.381 E11.26559
G1 X46.542 Y99.399 E11.28454
G1 X47.009 Y98.506 E11.30245
G1 X47.378 Y97.886 E11.31528
G1 X47.59 Y97.59 E11.32175
G1 X48.198 Y96.788 E11.33964
G1 X48.913 Y95.991 E11.35867
G1 X49.647 Y95.297 E11.37663
G1 X50.198 Y94.831 E11.38945
G1 X50.797 Y94.429 E11.40228
G1 X51.437 Y94.096 E11.4151
M204 S625
M205 X6 Y6
G0 F4285.7 X51.673 Y94.45
M204 S500
M205 X5 Y5
G1 F1200 X52.327 Y94.207 E11.4275
G1 X53.004 Y94.04 E11.4399
G1 X53.696 Y93.952 E11.4523
G1 X54.12 Y93.937 E11.45984
G1 X177.807 Y93.937 E13.6585
G1 X178.375 Y93.964 E13.66861
G1 X179.208 Y94.042 E13.68348
G1 X179.898 Y94.146 E13.69588
G1 X180.64 Y94.353 E13.70958
G1 X181.313 Y94.587 E13.72224
G1 X181.958 Y94.853 E13.73464
G1 X182.534 Y95.17 E13.74633
G1 X183.139 Y95.547 E13.759
G1 X183.709 Y95.95 E13.77141
G1 X184.216 Y96.401 E13.78347
G1 X184.717 Y96.9 E13.79604
G1 X185.182 Y97.42 E13.80844
G1 X185.571 Y97.968 E13.82039
G1 X185.951 Y98.571 E13.83306
G1 X186.289 Y99.182 E13.84547
G1 X186.54 Y99.785 E13.85708
G1 X186.778 Y100.457 E13.86975
G1 X186.972 Y101.127 E13.88215
G1 X187.088 Y101.8 E13.89429
G1 X187.168 Y102.502 E13.90685
G1 X187.207 Y103.159 E13.91855
G1 X187.246 Y110.377 E14.04686
G1 X187.19 Y111.236 E14.06216
G1 X187.073 Y112.091 E14.0775
G1 X186.939 Y112.775 E14.08989
G1 X186.827 Y113.159 E14.097
G1 X186.56 Y113.975 E14.11227
G1 X186.305 Y114.624 E14.12466
G1 X186.133 Y114.97 E14.13153
G1 X185.725 Y115.727 E14.14682
G1 X185.359 Y116.322 E14.15923
G1 X185.124 Y116.637 E14.16622
G1 X184.586 Y117.311 E14.18155
G1 X184.12 Y117.831 E14.19396
G1 X183.825 Y118.105 E14.20112
G1 X183.176 Y118.67 E14.21641
G1 X182.624 Y119.097 E14.22882
G1 X182.294 Y119.309 E14.23579
G1 X181.557 Y119.748 E14.25104
G1 X180.938 Y120.07 E14.26344
G1 X180.577 Y120.219 E14.27039
G1 X179.771 Y120.521 E14.28569
G1 X179.104 Y120.728 E14.2981
G1 X178.727 Y120.809 E14.30495
G1 X177.877 Y120.964 E14.32031
G1 X177.184 Y121.05 E14.33273
G1 X176.784 Y121.063 E14.33984
G1 X175.928 Y121.063 E14.35506
G1 X175.231 Y121.023 E14.36747
G1 X174.834 Y120.964 E14.3746
G1 X173.985 Y120.809 E14.38994
G1 X173.307 Y120.645 E14.40234
G1 X172.945 Y120.522 E14.40914
G1 X172.138 Y120.22 E14.42446
G1 X171.499 Y119.938 E14.43687
G1 X171.155 Y119.748 E14.44386
G1 X170.418 Y119.309 E14.45911
G1 X169.84 Y118.918 E14.47151
G1 X169.533 Y118.667 E14.47856
G1 X168.885 Y118.102 E14.49384
G1 X168.386 Y117.614 E14.50625
G1 X168.127 Y117.311 E14.51334
G1 X167.589 Y116.637 E14.52866
G1 X167.186 Y116.068 E14.54106
G1 X166.988 Y115.727 E14.54807
G1 X166.942 Y115.642 E14.54979
G1 X63.454 Y115.642 E16.38939
G1 X63.425 Y115.658 E16.38998
G1 X62.509 Y116.075 E16.40787
G1 X61.561 Y116.415 E16.42577
G1 X60.59 Y116.675 E16.44364
G1 X59.594 Y116.854 E16.46163
G1 X58.588 Y116.95 E16.47959
G1 X57.586 Y116.963 E16.4974
G1 X56.58 Y116.893 E16.51533
G1 X55.585 Y116.74 E16.53322
G1 X54.608 Y116.506 E16.55108
G1 X53.657 Y116.194 E16.56887
G1 X52.731 Y115.803 E16.58674
G1 X51.837 Y115.335 E16.60468
G1 X50.983 Y114.793 E16.62266
G1 X50.186 Y114.19 E16.64042
G1 X49.437 Y113.52 E16.65829
G1 X48.74 Y112.784 E16.67631
G1 X48.11 Y111.996 E16.69424
G1 X47.547 Y111.156 E16.71222
G1 X47.058 Y110.278 E16.73008
G1 X46.645 Y109.371 E16.7478
G1 X46.304 Y108.42 E16.76576
G1 X46.044 Y107.446 E16.78368
G1 X45.865 Y106.455 E16.80158
G1 X45.769 Y105.458 E16.81938
G1 X45.755 Y104.454 E16.83723
G1 X45.824 Y103.447 E16.85517
G1 X45.977 Y102.448 E16.87314
G1 X46.212 Y101.466 E16.89109
G1 X46.526 Y100.512 E16.90894
G1 X46.914 Y99.594 E16.92666
G1 X47.381 Y98.701 E16.94457
G1 X47.925 Y97.844 E16.96261
G1 X48.533 Y97.042 E16.9805
G1 X49.202 Y96.296 E16.99832
G1 X49.936 Y95.602 E17.01627
G1 X50.47 Y95.152 E17.02869
G1 X51.051 Y94.767 E17.04107
G1 X51.673 Y94.45 E17.05348
M204 S625
M205 X6 Y6
G0 F4285.7 X51.907 Y94.807
M204 S500
M205 X5 Y5
G1 F1200 X52.541 Y94.581 E17.06545
G1 X53.198 Y94.433 E17.07742
G1 X54.12 Y94.357 E17.09387
G1 X177.807 Y94.357 E19.29252
G1 X178.336 Y94.382 E19.30194
G1 X179.169 Y94.46 E19.31681
G1 X179.834 Y94.562 E19.32877
G1 X180.502 Y94.749 E19.3411
G1 X181.175 Y94.983 E19.35376
G1 X181.797 Y95.242 E19.36574
G1 X182.312 Y95.527 E19.3762
G1 X182.917 Y95.904 E19.38888
G1 X183.466 Y96.293 E19.40084
G1 X183.919 Y96.699 E19.41165
G1 X184.42 Y97.198 E19.42422
G1 X184.868 Y97.7 E19.43618
G1 X185.216 Y98.192 E19.44689
G1 X185.596 Y98.795 E19.45956
G1 X185.92 Y99.385 E19.47153
G1 X186.144 Y99.925 E19.48192
G1 X186.382 Y100.597 E19.49459
G1 X186.568 Y101.244 E19.50656
G1 X186.671 Y101.848 E19.51745
G1 X186.751 Y102.55 E19.53001
G1 X186.787 Y103.161 E19.54089
G1 X186.826 Y110.379 E19.6692
G1 X186.774 Y111.179 E19.68345
G1 X186.657 Y112.034 E19.69879
G1 X186.526 Y112.694 E19.71075
G1 X186.428 Y113.028 E19.71694
G1 X186.161 Y113.844 E19.7322
G1 X185.763 Y114.771 E19.75013
G1 X185.355 Y115.528 E19.76542
G1 X185.001 Y116.101 E19.77739
G1 X184.795 Y116.375 E19.78349
G1 X184.257 Y117.049 E19.79882
G1 X183.807 Y117.549 E19.81077
G1 X183.549 Y117.788 E19.81702
G1 X182.9 Y118.353 E19.83232
G1 X182.367 Y118.765 E19.8443
G1 X182.079 Y118.948 E19.85036
G1 X181.342 Y119.387 E19.86561
G1 X180.744 Y119.697 E19.87758
G1 X180.429 Y119.826 E19.88363
G1 X179.623 Y120.128 E19.89893
G1 X178.651 Y120.396 E19.91686
G1 X177.801 Y120.551 E19.93222
G1 X177.133 Y120.632 E19.94418
G1 X176.784 Y120.643 E19.95038
G1 X175.928 Y120.643 E19.9656
G1 X175.256 Y120.603 E19.97757
G1 X174.91 Y120.551 E19.98379
G1 X174.061 Y120.396 E19.99913
G1 X173.092 Y120.128 E20.017
G1 X172.285 Y119.826 E20.03232
G1 X171.669 Y119.553 E20.04429
G1 X171.37 Y119.387 E20.05037
G1 X170.633 Y118.948 E20.06562
G1 X170.076 Y118.57 E20.07759
G1 X169.809 Y118.351 E20.08373
G1 X169.161 Y117.786 E20.09901
G1 X168.681 Y117.314 E20.11098
G1 X168.456 Y117.049 E20.11716
G1 X167.918 Y116.375 E20.13248
G1 X167.53 Y115.825 E20.14445
G1 X167.358 Y115.528 E20.15055
G1 X167.193 Y115.222 E20.15673
G1 X63.346 Y115.222 E22.00271
G1 X63.251 Y115.275 E22.00465
G1 X62.335 Y115.692 E22.02254
G1 X61.453 Y116.009 E22.0392
G1 X60.482 Y116.269 E22.05707
G1 X59.554 Y116.436 E22.07383
G1 X58.548 Y116.532 E22.09179
G1 X57.615 Y116.544 E22.10838
G1 X56.609 Y116.474 E22.1263
G1 X55.682 Y116.332 E22.14297
G1 X54.705 Y116.098 E22.16083
G1 X53.82 Y115.807 E22.17739
G1 X52.894 Y115.416 E22.19526
G1 X52.062 Y114.98 E22.21196
G1 X51.208 Y114.438 E22.22994
G1 X50.466 Y113.877 E22.24647
G1 X49.717 Y113.207 E22.26434
G1 X49.068 Y112.522 E22.28111
G1 X48.438 Y111.734 E22.29904
G1 X47.913 Y110.952 E22.31579
G1 X47.424 Y110.074 E22.33365
G1 X47.041 Y109.229 E22.35014
G1 X46.7 Y108.278 E22.3681
G1 X46.457 Y107.372 E22.38478
G1 X46.278 Y106.381 E22.40268
G1 X46.189 Y105.452 E22.41927
G1 X46.175 Y104.448 E22.43712
G1 X46.239 Y103.511 E22.45381
G1 X46.392 Y102.512 E22.47178
G1 X46.611 Y101.597 E22.4885
G1 X46.925 Y100.643 E22.50635
G1 X47.287 Y99.788 E22.52286
G1 X47.754 Y98.895 E22.54077
G1 X48.26 Y98.098 E22.55755
G1 X48.868 Y97.296 E22.57544
G1 X49.491 Y96.601 E22.59203
G1 X50.225 Y95.907 E22.60999
G1 X50.74 Y95.474 E22.62195
G1 X51.304 Y95.106 E22.63392
G1 X51.907 Y94.807 E22.64589
M204 S625
M205 X6 Y6
G0 F4285.7 X52.139 Y95.165
M204 S500
M205 X5 Y5
G1 F1200 X52.752 Y94.958 E22.65739
G1 X53.387 Y94.828 E22.66891
G1 X54.12 Y94.777 E22.68197
G1 X177.807 Y94.777 E24.88063
G1 X178.296 Y94.8 E24.88933
G1 X179.129 Y94.878 E24.9042
G1 X179.769 Y94.978 E24.91572
G1 X180.364 Y95.146 E24.92671
G1 X181.037 Y95.38 E24.93937
G1 X181.635 Y95.63 E24.95089
G1 X182.09 Y95.883 E24.96015
G1 X182.695 Y96.26 E24.97282
G1 X183.222 Y96.636 E24.98433
G1 X183.623 Y96.996 E24.99391
G1 X184.124 Y97.495 E25.00648
G1 X184.554 Y97.98 E25.018
G1 X184.861 Y98.416 E25.02748
G1 X185.241 Y99.019 E25.04015
G1 X185.552 Y99.587 E25.05166
G1 X185.748 Y100.065 E25.06084
G1 X185.986 Y100.737 E25.07351
G1 X186.164 Y101.36 E25.08503
G1 X186.253 Y101.896 E25.09469
G1 X186.333 Y102.598 E25.10725
G1 X186.367 Y103.164 E25.11733
G1 X186.406 Y110.382 E25.24564
G1 X186.358 Y111.122 E25.25882
G1 X186.241 Y111.977 E25.27416
G1 X186.029 Y112.898 E25.29096
G1 X185.762 Y113.714 E25.30622
G1 X185.393 Y114.572 E25.32282
G1 X184.985 Y115.329 E25.33811
G1 X184.467 Y116.113 E25.35481
G1 X183.929 Y116.787 E25.37014
G1 X183.273 Y117.472 E25.387
G1 X182.624 Y118.037 E25.4023
G1 X181.864 Y118.587 E25.41898
G1 X181.127 Y119.026 E25.43422
G1 X180.282 Y119.432 E25.45089
G1 X179.476 Y119.734 E25.46619
G1 X178.576 Y119.983 E25.48279
G1 X177.726 Y120.138 E25.49815
G1 X176.784 Y120.223 E25.51496
G1 X175.928 Y120.223 E25.53018
