;START_OF_HEADER
;HEADER_VERSION:0.1
;FLAVOR:Griffin
;GENERATOR.NAME:Cura_SteamEngine
;GENERATOR.VERSION:3.6.0
;GENERATOR.BUILD_DATE:2018-11-12
;TARGET_MACHINE.NAME:Ultimaker 3
;EXTRUDER_TRAIN.0.INITIAL_TEMPERATURE:205
;EXTRUDER_TRAIN.0.MATERIAL.VOLUME_USED:8918
;EXTRUDER_TRAIN.0.MATERIAL.GUID:506c9f0d-e3aa-4bd4-b2d2-23e2425b1aa9
;EXTRUDER_TRAIN.0.NOZZLE.DIAMETER:0.4
;EXTRUDER_TRAIN.0.NOZZLE.NAME:AA 0.4
;BUILD_PLATE.TYPE:glass
;BUILD_PLATE.INITIAL_TEMPERATURE:60
;PRINT.TIME:8674
;PRINT.SIZE.MIN.X:9
;PRINT.SIZE.MIN.Y:6
;PRINT.SIZE.MIN.Z:0.27
;PRINT.SIZE.MAX.X:160.802
;PRINT.SIZE.MAX.Y:137.402
;PRINT.SIZE.MAX.Z:8.97
;END_OF_HEADER
;Generated with Cura_SteamEngine 3.6.0
T0
M82 ;absolute extrusion mode

G92 E0
M109 S205
G0 F15000 X9 Y6 Z2
G280
G1 F1500 E-6.5
;LAYER_COUNT:89
;LAYER:0
M107
M204 S625
M205 X6 Y6
G0 F4285.7 X74.986 Y86.797 Z0.27
M204 S500
M205 X5 Y5
;TYPE:SKIRT
G1 F1500 E0
G1 F1200 X75.591 Y86.363 E0.01324
G1 X76.239 Y85.996 E0.02647
G1 X76.922 Y85.7 E0.03971
G1 X77.633 Y85.48 E0.05294
G1 X78.573 Y85.311 E0.06991
G1 X84.306 Y84.684 E0.17243
G1 X84.388 Y84.172 E0.18165
G1 X84.584 Y83.454 E0.19488
G1 X84.856 Y82.761 E0.20811
G1 X85.2 Y82.101 E0.22134
G1 X85.768 Y81.283 E0.23904
G1 X85.964 Y81.04 E0.24459
G1 X86.462 Y80.487 E0.25782
G1 X87.016 Y79.99 E0.27105
G1 X87.62 Y79.555 E0.28428
G1 X88.268 Y79.188 E0.29752
G1 X88.951 Y78.893 E0.31075
G1 X89.662 Y78.672 E0.32398
G1 X90.604 Y78.502 E0.341
G1 X110.333 Y76.342 E0.69379
G1 X111.076 Y76.301 E0.70702
G1 X111.819 Y76.34 E0.72025
G1 X112.554 Y76.458 E0.73348
G1 X113.272 Y76.654 E0.74671
G1 X113.965 Y76.927 E0.75995
G1 X114.624 Y77.272 E0.77317
G1 X115.44 Y77.839 E0.79084
G1 X115.684 Y78.036 E0.79641
G1 X116.238 Y78.534 E0.80965
G1 X116.734 Y79.088 E0.82287
G1 X117.168 Y79.693 E0.83611
G1 X117.535 Y80.341 E0.84934
G1 X117.831 Y81.024 E0.86258
G1 X148.729 Y77.638 E1.41511
G1 X149.472 Y77.597 E1.42833
G1 X150.216 Y77.636 E1.44158
G1 X150.95 Y77.754 E1.45479
G1 X151.668 Y77.95 E1.46802
G1 X152.361 Y78.222 E1.48126
G1 X153.021 Y78.567 E1.4945
G1 X153.832 Y79.131 E1.51206
G1 X154.079 Y79.33 E1.51769
G1 X154.632 Y79.827 E1.53091
G1 X155.13 Y80.381 E1.54415
G1 X155.564 Y80.985 E1.55737
G1 X155.932 Y81.632 E1.5706
G1 X156.228 Y82.315 E1.58384
G1 X156.449 Y83.026 E1.59707
G1 X156.62 Y83.972 E1.61416
G1 X160.761 Y121.802 E2.29064
G1 X160.802 Y122.545 E2.30387
G1 X160.763 Y123.288 E2.3171
G1 X160.645 Y124.023 E2.33033
G1 X160.448 Y124.741 E2.34356
G1 X160.176 Y125.434 E2.3568
G1 X159.831 Y126.093 E2.37002
G1 X159.275 Y126.896 E2.38738
G1 X159.079 Y127.14 E2.39294
G1 X158.582 Y127.694 E2.40617
G1 X158.029 Y128.192 E2.4194
G1 X157.426 Y128.628 E2.43263
G1 X156.779 Y128.997 E2.44587
G1 X156.096 Y129.294 E2.45911
G1 X155.386 Y129.516 E2.47233
G1 X154.429 Y129.689 E2.48962
G1 X118.962 Y133.567 E3.12384
G1 X118.219 Y133.608 E3.13707
G1 X117.476 Y133.569 E3.15029
G1 X116.741 Y133.451 E3.16352
G1 X116.023 Y133.254 E3.17676
G1 X115.33 Y132.982 E3.18999
G1 X114.869 Y132.741 E3.19924
G1 X114.295 Y133.153 E3.2118
G1 X113.647 Y133.519 E3.22503
G1 X112.964 Y133.814 E3.23825
G1 X112.252 Y134.033 E3.2515
G1 X111.318 Y134.201 E3.26836
G1 X100.127 Y135.425 E3.46848
G1 X99.384 Y135.466 E3.48171
G1 X98.641 Y135.427 E3.49494
G1 X97.906 Y135.309 E3.50817
G1 X97.188 Y135.112 E3.5214
G1 X96.496 Y134.84 E3.53462
G1 X96.352 Y134.765 E3.53751
G1 X96.303 Y134.812 E3.53871
G1 X95.715 Y135.268 E3.55194
G1 X95.081 Y135.659 E3.56518
G1 X94.409 Y135.979 E3.57841
G1 X93.707 Y136.225 E3.59163
G1 X92.982 Y136.395 E3.60487
G1 X92.519 Y136.461 E3.61319
G1 X84.264 Y137.361 E3.7608
G1 X83.521 Y137.402 E3.77402
G1 X82.778 Y137.363 E3.78725
G1 X82.043 Y137.244 E3.80048
G1 X81.325 Y137.048 E3.81371
G1 X80.632 Y136.775 E3.82695
G1 X79.973 Y136.43 E3.84018
G1 X79.16 Y135.864 E3.85779
G1 X78.916 Y135.667 E3.86336
G1 X78.362 Y135.169 E3.8766
G1 X77.866 Y134.615 E3.88982
G1 X77.432 Y134.01 E3.90306
G1 X77.065 Y133.362 E3.91629
G1 X76.769 Y132.679 E3.92953
G1 X76.549 Y131.968 E3.94276
G1 X76.38 Y131.029 E3.95972
G1 X72.24 Y93.198 E4.63621
G1 X72.199 Y92.455 E4.64944
G1 X72.238 Y91.711 E4.66268
G1 X72.356 Y90.977 E4.6759
G1 X72.553 Y90.259 E4.68913
G1 X72.825 Y89.566 E4.70237
G1 X73.17 Y88.906 E4.71561
G1 X73.737 Y88.091 E4.73326
G1 X73.934 Y87.847 E4.73883
G1 X74.432 Y87.293 E4.75207
G1 X74.986 Y86.797 E4.76529
M204 S625
M205 X6 Y6
G0 F4285.7 X75.284 Y87.097
M204 S500
M205 X5 Y5
G1 F1200 X75.874 Y86.681 E4.77812
G1 X76.506 Y86.333 E4.79095
G1 X77.172 Y86.057 E4.80376
G1 X77.865 Y85.856 E4.81659
G1 X78.618 Y85.729 E4.83016
G1 X84.684 Y85.066 E4.93863
G1 X84.693 Y84.906 E4.94148
G1 X84.813 Y84.195 E4.9543
G1 X85.011 Y83.502 E4.96711
G1 X85.285 Y82.834 E4.97995
G1 X85.631 Y82.201 E4.99277
G1 X86.095 Y81.547 E5.00702
G1 X86.291 Y81.304 E5.01257
G1 X86.774 Y80.768 E5.0254
G1 X87.314 Y80.29 E5.03822
G1 X87.903 Y79.873 E5.05105
G1 X88.535 Y79.525 E5.06387
G1 X89.201 Y79.249 E5.07669
G1 X89.894 Y79.048 E5.08951
G1 X90.649 Y78.92 E5.10313
G1 X110.378 Y76.76 E5.45592
G1 X111.099 Y76.721 E5.46876
G1 X111.819 Y76.762 E5.48158
G1 X112.53 Y76.883 E5.4944
G1 X113.224 Y77.082 E5.50723
G1 X113.891 Y77.356 E5.52005
G1 X114.524 Y77.702 E5.53287
G1 X115.177 Y78.166 E5.54711
G1 X115.421 Y78.363 E5.55269
G1 X115.956 Y78.846 E5.5655
G1 X116.434 Y79.386 E5.57832
G1 X116.85 Y79.976 E5.59115
G1 X117.198 Y80.608 E5.60398
G1 X117.474 Y81.274 E5.61679
G1 X117.534 Y81.479 E5.62059
G1 X148.775 Y78.056 E6.17925
G1 X149.495 Y78.017 E6.19207
G1 X150.215 Y78.058 E6.20489
G1 X150.927 Y78.179 E6.21773
G1 X151.62 Y78.377 E6.23054
G1 X152.287 Y78.652 E6.24336
G1 X152.92 Y78.998 E6.25619
G1 X153.568 Y79.458 E6.27031
G1 X153.815 Y79.657 E6.27595
G1 X154.351 Y80.14 E6.28878
G1 X154.83 Y80.679 E6.3016
G1 X155.247 Y81.268 E6.31442
G1 X155.595 Y81.899 E6.32723
G1 X155.872 Y82.566 E6.34007
G1 X156.073 Y83.258 E6.35288
G1 X156.202 Y84.018 E6.36658
G1 X160.343 Y121.848 E7.04307
G1 X160.382 Y122.568 E7.05588
G1 X160.341 Y123.288 E7.0687
G1 X160.22 Y123.999 E7.08152
G1 X160.021 Y124.693 E7.09436
G1 X159.747 Y125.36 E7.10718
G1 X159.401 Y125.993 E7.12
G1 X158.947 Y126.633 E7.13395
G1 X158.751 Y126.877 E7.13951
G1 X158.269 Y127.413 E7.15232
G1 X157.73 Y127.893 E7.16515
G1 X157.142 Y128.311 E7.17798
G1 X156.511 Y128.66 E7.1908
G1 X155.845 Y128.938 E7.20363
G1 X155.153 Y129.14 E7.21644
G1 X154.384 Y129.271 E7.23031
G1 X118.917 Y133.149 E7.86452
G1 X118.196 Y133.188 E7.87736
G1 X117.476 Y133.147 E7.89018
G1 X116.765 Y133.026 E7.903
G1 X116.071 Y132.827 E7.91583
G1 X115.404 Y132.553 E7.92865
G1 X114.815 Y132.23 E7.94059
G1 X114.602 Y132.419 E7.94565
G1 X114.012 Y132.834 E7.95848
G1 X113.38 Y133.182 E7.9713
G1 X112.714 Y133.457 E7.98411
G1 X112.02 Y133.657 E7.99695
G1 X111.273 Y133.783 E8.01041
G1 X100.082 Y135.007 E8.21053
G1 X99.361 Y135.046 E8.22337
G1 X98.641 Y135.005 E8.23619
G1 X97.93 Y134.884 E8.24901
G1 X97.237 Y134.685 E8.26182
G1 X96.569 Y134.411 E8.27466
G1 X96.281 Y134.253 E8.2805
G1 X95.875 Y134.623 E8.29026
G1 X95.291 Y135.046 E8.30308
G1 X94.664 Y135.402 E8.3159
G1 X94.001 Y135.687 E8.32873
G1 X93.311 Y135.897 E8.34155
G1 X92.474 Y136.044 E8.35665
G1 X84.219 Y136.944 E8.50426
G1 X83.498 Y136.982 E8.5171
G1 X82.778 Y136.94 E8.52992
G1 X82.067 Y136.819 E8.54274
G1 X81.373 Y136.62 E8.55557
G1 X80.706 Y136.346 E8.56839
G1 X80.074 Y135.999 E8.58121
G1 X79.423 Y135.537 E8.5954
G1 X79.179 Y135.34 E8.60097
G1 X78.644 Y134.857 E8.61378
G1 X78.166 Y134.317 E8.6266
G1 X77.75 Y133.727 E8.63943
G1 X77.402 Y133.095 E8.65226
G1 X77.126 Y132.429 E8.66507
G1 X76.925 Y131.736 E8.6779
G1 X76.798 Y130.983 E8.69148
G1 X72.658 Y93.152 E9.36797
G1 X72.619 Y92.432 E9.38079
G1 X72.66 Y91.712 E9.39361
G1 X72.781 Y91 E9.40645
G1 X72.98 Y90.307 E9.41926
G1 X73.254 Y89.64 E9.43208
G1 X73.6 Y89.007 E9.44491
G1 X74.064 Y88.354 E9.45915
G1 X74.261 Y88.11 E9.46472
G1 X74.744 Y87.575 E9.47753
G1 X75.284 Y87.097 E9.49035
M204 S625
M205 X6 Y6
G0 F4285.7 X75.581 Y87.398
M204 S500
M205 X5 Y5
G1 F1200 X76.155 Y87.001 E9.50276
G1 X76.77 Y86.672 E9.51516
G1 X77.419 Y86.416 E9.52756
G1 X78.093 Y86.236 E9.53996
G1 X78.664 Y86.146 E9.55023
G1 X85.082 Y85.444 E9.665
G1 X85.115 Y84.908 E9.67455
G1 X85.238 Y84.221 E9.68695
G1 X85.439 Y83.553 E9.69935
G1 X85.714 Y82.912 E9.71175
G1 X86.061 Y82.307 E9.72415
G1 X86.422 Y81.811 E9.73506
G1 X86.618 Y81.568 E9.74061
G1 X87.086 Y81.051 E9.753
G1 X87.611 Y80.59 E9.76542
G1 X88.184 Y80.193 E9.77781
G1 X88.8 Y79.864 E9.79023
G1 X89.449 Y79.608 E9.80263
G1 X90.123 Y79.428 E9.81503
G1 X90.695 Y79.337 E9.82532
G1 X110.424 Y77.177 E10.17812
G1 X111.121 Y77.141 E10.19053
G1 X111.817 Y77.185 E10.20293
G1 X112.504 Y77.308 E10.21533
G1 X113.172 Y77.509 E10.22773
G1 X113.813 Y77.785 E10.24014
G1 X114.418 Y78.133 E10.25254
G1 X114.913 Y78.493 E10.26342
G1 X115.157 Y78.69 E10.269
G1 X115.674 Y79.158 E10.2814
G1 X116.133 Y79.683 E10.29379
G1 X116.53 Y80.257 E10.3062
G1 X116.859 Y80.872 E10.3186
G1 X117.115 Y81.521 E10.331
G1 X117.226 Y81.935 E10.33862
G1 X148.821 Y78.473 E10.90361
G1 X149.517 Y78.437 E10.916
G1 X150.214 Y78.481 E10.92841
G1 X150.901 Y78.604 E10.94082
G1 X151.569 Y78.805 E10.95322
G1 X152.209 Y79.081 E10.96561
G1 X152.814 Y79.428 E10.97801
G1 X153.305 Y79.785 E10.9888
G1 X153.552 Y79.984 E10.99444
G1 X154.069 Y80.452 E11.00683
G1 X154.53 Y80.976 E11.01924
G1 X154.927 Y81.549 E11.03163
G1 X155.256 Y82.165 E11.04404
G1 X155.513 Y82.813 E11.05644
G1 X155.694 Y83.487 E11.06884
G1 X155.785 Y84.063 E11.07921
G1 X159.926 Y121.893 E11.75569
G1 X159.962 Y122.59 E11.7681
G1 X159.918 Y123.286 E11.78049
G1 X159.795 Y123.973 E11.7929
G1 X159.594 Y124.641 E11.8053
G1 X159.318 Y125.282 E11.81771
G1 X158.97 Y125.887 E11.83011
G1 X158.62 Y126.37 E11.84072
G1 X158.424 Y126.614 E11.84628
G1 X157.957 Y127.132 E11.85868
G1 X157.433 Y127.593 E11.87108
G1 X156.86 Y127.991 E11.88348
G1 X156.245 Y128.321 E11.89589
G1 X155.597 Y128.579 E11.90829
G1 X154.923 Y128.761 E11.9207
G1 X154.338 Y128.854 E11.93123
G1 X118.871 Y132.732 E12.56545
G1 X118.174 Y132.768 E12.57785
G1 X117.478 Y132.724 E12.59025
G1 X116.791 Y132.601 E12.60266
G1 X116.123 Y132.4 E12.61506
G1 X115.482 Y132.123 E12.62747
G1 X114.877 Y131.776 E12.63987
G1 X114.779 Y131.704 E12.64203
G1 X114.306 Y132.118 E12.6532
G1 X113.732 Y132.514 E12.6656
G1 X113.116 Y132.842 E12.678
G1 X112.467 Y133.098 E12.69041
G1 X111.792 Y133.277 E12.70282
G1 X111.227 Y133.366 E12.71299
G1 X100.036 Y134.59 E12.9131
G1 X99.339 Y134.626 E12.92551
G1 X98.643 Y134.582 E12.93791
G1 X97.956 Y134.459 E12.95031
G1 X97.288 Y134.258 E12.96271
G1 X96.647 Y133.982 E12.97512
G1 X96.206 Y133.728 E12.98417
G1 X95.979 Y133.972 E12.99009
G1 X95.448 Y134.424 E13.00249
G1 X94.869 Y134.813 E13.01488
G1 X94.249 Y135.134 E13.0273
G1 X93.597 Y135.381 E13.03969
G1 X92.92 Y135.552 E13.0521
G1 X92.428 Y135.626 E13.06095
G1 X84.173 Y136.526 E13.20856
G1 X83.476 Y136.562 E13.22096
G1 X82.78 Y136.518 E13.23336
G1 X82.093 Y136.394 E13.24577
G1 X81.425 Y136.193 E13.25817
G1 X80.785 Y135.917 E13.27056
G1 X80.18 Y135.569 E13.28296
G1 X79.687 Y135.21 E13.29381
G1 X79.443 Y135.013 E13.29938
G1 X78.926 Y134.545 E13.31178
G1 X78.467 Y134.02 E13.32417
G1 X78.07 Y133.446 E13.33658
G1 X77.741 Y132.831 E13.34898
G1 X77.485 Y132.182 E13.36138
G1 X77.305 Y131.508 E13.37378
G1 X77.215 Y130.937 E13.38406
G1 X73.075 Y93.106 E14.06055
G1 X73.039 Y92.41 E14.07294
G1 X73.083 Y91.713 E14.08536
G1 X73.206 Y91.027 E14.09774
G1 X73.407 Y90.359 E14.11014
G1 X73.683 Y89.718 E14.12255
G1 X74.031 Y89.113 E14.13496
G1 X74.391 Y88.618 E14.14584
G1 X74.588 Y88.374 E14.15141
G1 X75.056 Y87.857 E14.16381
G1 X75.581 Y87.398 E14.1762
M204 S625
M205 X6 Y6
G0 F4285.7 X75.877 Y87.7
M204 S500
M205 X5 Y5
G1 F1200 X76.434 Y87.323 E14.18816
G1 X77.033 Y87.014 E14.20014
G1 X77.664 Y86.779 E14.21211
G1 X78.318 Y86.62 E14.22407
G1 X78.71 Y86.564 E14.23111
G1 X85.504 Y85.821 E14.3526
G1 X85.492 Y85.583 E14.35684
G1 X85.538 Y84.911 E14.36881
G1 X85.664 Y84.25 E14.38077
G1 X85.866 Y83.608 E14.39274
G1 X86.144 Y82.994 E14.40472
G1 X86.492 Y82.418 E14.41668
G1 X86.749 Y82.074 E14.42432
G1 X86.945 Y81.831 E14.42986
G1 X87.398 Y81.333 E14.44183
G1 X87.907 Y80.893 E14.45379
G1 X88.464 Y80.515 E14.46576
G1 X89.062 Y80.207 E14.47771
G1 X89.693 Y79.971 E14.48969
G1 X90.347 Y79.812 E14.50165
G1 X90.741 Y79.755 E14.50873
G1 X110.47 Y77.595 E14.86153
G1 X111.142 Y77.561 E14.87349
G1 X111.814 Y77.608 E14.88546
G1 X112.475 Y77.734 E14.89743
G1 X113.117 Y77.937 E14.90939
G1 X113.73 Y78.215 E14.92136
G1 X114.306 Y78.563 E14.93332
G1 X114.649 Y78.819 E14.94093
G1 X114.893 Y79.016 E14.94651
G1 X115.391 Y79.47 E14.95848
G1 X115.831 Y79.979 E14.97044
G1 X116.208 Y80.536 E14.9824
G1 X116.517 Y81.135 E14.99438
G1 X116.752 Y81.766 E15.00635
G1 X116.905 Y82.393 E15.01782
G1 X148.866 Y78.891 E15.58936
G1 X149.539 Y78.857 E15.60134
G1 X150.21 Y78.904 E15.6133
G1 X150.872 Y79.029 E15.62527
G1 X151.514 Y79.233 E15.63725
G1 X152.127 Y79.511 E15.64921
G1 X152.703 Y79.859 E15.66117
G1 X153.041 Y80.112 E15.66868
G1 X153.288 Y80.311 E15.67432
G1 X153.786 Y80.763 E15.68627
G1 X154.228 Y81.272 E15.69826
G1 X154.605 Y81.829 E15.71021
G1 X154.914 Y82.427 E15.72218
G1 X155.15 Y83.058 E15.73415
G1 X155.31 Y83.712 E15.74612
G1 X155.367 Y84.109 E15.75325
G1 X159.508 Y121.939 E16.42973
G1 X159.542 Y122.611 E16.44169
G1 X159.495 Y123.283 E16.45367
G1 X159.369 Y123.944 E16.46563
G1 X159.166 Y124.586 E16.4776
G1 X158.888 Y125.199 E16.48956
G1 X158.54 Y125.775 E16.50153
G1 X158.292 Y126.107 E16.50889
G1 X158.096 Y126.351 E16.51446
G1 X157.644 Y126.85 E16.52642
G1 X157.136 Y127.292 E16.53839
G1 X156.58 Y127.67 E16.55034
G1 X155.982 Y127.98 E16.56232
G1 X155.352 Y128.217 E16.57428
G1 X154.698 Y128.377 E16.58625
G1 X154.292 Y128.436 E16.59354
G1 X118.825 Y132.314 E17.22776
G1 X118.153 Y132.348 E17.23972
G1 X117.481 Y132.301 E17.2517
G1 X116.82 Y132.175 E17.26366
G1 X116.178 Y131.972 E17.27563
G1 X115.565 Y131.694 E17.28759
G1 X114.989 Y131.345 E17.29957
G1 X114.731 Y131.143 E17.30539
G1 X114.52 Y131.375 E17.31096
G1 X114.01 Y131.815 E17.32294
G1 X113.452 Y132.192 E17.33491
G1 X112.854 Y132.5 E17.34687
G1 X112.223 Y132.734 E17.35883
G1 X111.568 Y132.893 E17.37081
G1 X111.181 Y132.948 E17.37776
G1 X99.99 Y134.172 E17.57788
G1 X99.318 Y134.206 E17.58984
G1 X98.647 Y134.159 E17.60179
G1 X97.985 Y134.033 E17.61377
G1 X97.343 Y133.83 E17.62574
G1 X96.73 Y133.552 E17.63771
G1 X96.154 Y133.203 E17.64968
G1 X96.129 Y133.184 E17.65024
G1 X96.024 Y133.319 E17.65328
G1 X95.55 Y133.797 E17.66524
G1 X95.022 Y134.215 E17.67721
G1 X94.449 Y134.568 E17.68918
G1 X93.838 Y134.851 E17.70115
G1 X93.198 Y135.059 E17.71311
G1 X92.383 Y135.209 E17.72784
G1 X84.128 Y136.109 E17.87545
G1 X83.455 Y136.142 E17.88743
G1 X82.784 Y136.095 E17.89938
G1 X82.122 Y135.969 E17.91136
G1 X81.481 Y135.765 E17.92332
G1 X80.868 Y135.487 E17.93529
G1 X80.292 Y135.138 E17.94726
G1 X79.951 Y134.884 E17.95482
G1 X79.707 Y134.687 E17.96039
G1 X79.209 Y134.233 E17.97237
G1 X78.769 Y133.724 E17.98433
G1 X78.392 Y133.167 E17.99629
G1 X78.083 Y132.568 E18.00827
G1 X77.848 Y131.937 E18.02024
G1 X77.689 Y131.283 E18.0322
G1 X77.633 Y130.892 E18.03922
G1 X73.493 Y93.061 E18.71572
G1 X73.459 Y92.388 E18.7277
G1 X73.506 Y91.717 E18.73965
G1 X73.632 Y91.056 E18.75162
G1 X73.835 Y90.414 E18.76358
G1 X74.113 Y89.801 E18.77555
G1 X74.462 Y89.225 E18.78752
G1 X74.717 Y88.882 E18.79512
G1 X74.914 Y88.638 E18.80069
G1 X75.368 Y88.14 E18.81267
G1 X75.877 Y87.7 E18.82463
M204 S625
M205 X6 Y6
G0 F4285.7 X76.171 Y88.004
M204 S500
M205 X5 Y5
G1 F1200 X76.712 Y87.647 E18.83615
G1 X77.293 Y87.36 E18.84767
G1 X77.904 Y87.146 E18.85918
G1 X78.755 Y86.981 E18.87459
G1 X85.943 Y86.195 E19.00313
G1 X85.912 Y85.562 E19.01439
G1 X85.961 Y84.916 E19.02591
G1 X86.089 Y84.281 E19.03742
G1 X86.295 Y83.667 E19.04893
G1 X86.574 Y83.082 E19.06046
G1 X87.076 Y82.338 E19.07641
G1 X87.272 Y82.095 E19.08196
G1 X87.709 Y81.617 E19.09347
G1 X88.201 Y81.196 E19.10498
G1 X88.742 Y80.839 E19.11651
G1 X89.322 Y80.552 E19.12801
G1 X89.934 Y80.338 E19.13953
G1 X90.787 Y80.172 E19.15498
G1 X110.516 Y78.012 E19.50778
G1 X111.163 Y77.982 E19.51929
G1 X111.809 Y78.031 E19.53081
G1 X112.443 Y78.159 E19.54231
G1 X113.058 Y78.365 E19.55383
