;START_OF_HEADER
;HEADER_VERSION:0.1
;FLAVOR:Griffin
;GENERATOR.NAME:Cura_SteamEngine
;GENERATOR.VERSION:3.6.0
;GENERATOR.BUILD_DATE:2018-11-12
;TARGET_MACHINE.NAME:Ultimaker 3
;EXTRUDER_TRAIN.0.INITIAL_TEMPERATURE:205
;EXTRUDER_TRAIN.0.MATERIAL.VOLUME_USED:22692
;EXTRUDER_TRAIN.0.MATERIAL.GUID:506c9f0d-e3aa-4bd4-b2d2-23e2425b1aa9
;EXTRUDER_TRAIN.0.NOZZLE.DIAMETER:0.4
;EXTRUDER_TRAIN.0.NOZZLE.NAME:AA 0.4
;BUILD_PLATE.TYPE:glass
;BUILD_PLATE.INITIAL_TEMPERATURE:60
;PRINT.TIME:19479
;PRINT.SIZE.MIN.X:9
;PRINT.SIZE.MIN.Y:6
;PRINT.SIZE.MIN.Z:0.27
;PRINT.SIZE.MAX.X:169.324
;PRINT.SIZE.MAX.Y:172.83
;PRINT.SIZE.MAX.Z:33.07
;END_OF_HEADER
;Generated with Cura_SteamEngine 3.6.0
T0
M82 ;absolute extrusion mode

G92 E0
M109 S205
G0 F15000 X9 Y6 Z2
G280
G1 F1500 E-6.5
;LAYER_COUNT:329
;LAYER:0
M107
M204 S625
M205 X6 Y6
G0 F4285.7 X130.967 Y46.951 Z0.27
M204 S500
M205 X5 Y5
;TYPE:SKIRT
G1 F1500 E0
G1 F1200 X131.24 Y46.259 E0.01322
G1 X131.586 Y45.6 E0.02645
G1 X132.001 Y44.982 E0.03969
G1 X132.64 Y44.247 E0.057
G1 X132.763 Y44.124 E0.06009
G1 X133.317 Y43.626 E0.07333
G1 X133.921 Y43.191 E0.08657
G1 X134.568 Y42.824 E0.09979
G1 X135.25 Y42.527 E0.11301
G1 X135.961 Y42.306 E0.12625
G1 X136.691 Y42.162 E0.13947
G1 X137.663 Y42.094 E0.15679
G1 X143.767 Y42.094 E0.2653
G1 X144.51 Y42.134 E0.27852
G1 X145.245 Y42.253 E0.29176
G1 X145.963 Y42.451 E0.305
G1 X146.655 Y42.724 E0.31822
G1 X147.314 Y43.07 E0.33145
G1 X147.932 Y43.485 E0.34469
G1 X148.667 Y44.124 E0.362
G1 X148.79 Y44.247 E0.36509
G1 X149.288 Y44.801 E0.37833
G1 X149.723 Y45.405 E0.39156
G1 X150.09 Y46.052 E0.40479
G1 X150.387 Y46.734 E0.41801
G1 X150.608 Y47.445 E0.43124
G1 X150.752 Y48.175 E0.44447
G1 X150.82 Y49.147 E0.46179
G1 X150.82 Y61.144 E0.67505
G1 X162.281 Y61.144 E0.87878
G1 X163.024 Y61.184 E0.89201
G1 X163.759 Y61.303 E0.90524
G1 X164.477 Y61.501 E0.91848
G1 X165.169 Y61.774 E0.93171
G1 X165.828 Y62.12 E0.94494
G1 X166.446 Y62.535 E0.95817
G1 X167.016 Y63.014 E0.9714
G1 X167.531 Y63.551 E0.98463
G1 X167.986 Y64.14 E0.99786
G1 X168.521 Y65.06 E1.01678
G1 X168.635 Y65.296 E1.02144
G1 X168.922 Y65.982 E1.03466
G1 X169.134 Y66.696 E1.0479
G1 X169.269 Y67.428 E1.06113
G1 X169.324 Y68.17 E1.07435
G1 X169.299 Y68.914 E1.08759
G1 X169.194 Y69.651 E1.10082
G1 X169.011 Y70.372 E1.11404
G1 X168.752 Y71.07 E1.12728
G1 X168.419 Y71.736 E1.14051
G1 X167.837 Y72.601 E1.15904
G1 X162.015 Y79.985 E1.32619
G1 X161.523 Y80.544 E1.33943
G1 X160.975 Y81.047 E1.35265
G1 X160.375 Y81.488 E1.36589
G1 X159.732 Y81.862 E1.37911
G1 X159.052 Y82.165 E1.39235
G1 X158.344 Y82.394 E1.40558
G1 X157.615 Y82.545 E1.41881
G1 X156.573 Y82.624 E1.43738
G1 X155.059 Y82.624 E1.4643
G1 X155.051 Y86.599 E1.53496
G1 X155.009 Y87.342 E1.54819
G1 X154.888 Y88.076 E1.56141
G1 X154.689 Y88.793 E1.57464
G1 X154.415 Y89.485 E1.58787
G1 X154.067 Y90.143 E1.6011
G1 X153.582 Y90.851 E1.61635
G1 X91.629 Y170.147 E3.40512
G1 X91.14 Y170.708 E3.41835
G1 X90.593 Y171.213 E3.43158
G1 X89.996 Y171.657 E3.44481
G1 X89.354 Y172.034 E3.45804
G1 X88.676 Y172.34 E3.47126
G1 X87.969 Y172.572 E3.48449
G1 X87.003 Y172.76 E3.50198
G1 X86.83 Y172.781 E3.50508
G1 X86.087 Y172.83 E3.51832
G1 X85.344 Y172.8 E3.53154
G1 X84.608 Y172.691 E3.54476
G1 X83.887 Y172.503 E3.55801
G1 X83.191 Y172.239 E3.57124
G1 X82.528 Y171.901 E3.58447
G1 X81.728 Y171.362 E3.60161
G1 X66.249 Y159.268 E3.9508
G1 X65.688 Y158.779 E3.96402
G1 X65.183 Y158.232 E3.97726
G1 X64.739 Y157.635 E3.99048
G1 X64.362 Y156.993 E4.00372
G1 X64.056 Y156.315 E4.01694
G1 X63.824 Y155.607 E4.03018
G1 X63.636 Y154.642 E4.04766
G1 X63.615 Y154.469 E4.05076
G1 X63.566 Y153.726 E4.064
G1 X63.596 Y152.983 E4.07721
G1 X63.705 Y152.247 E4.09044
G1 X63.893 Y151.526 E4.10368
G1 X64.157 Y150.83 E4.11692
G1 X64.495 Y150.167 E4.13015
G1 X65.034 Y149.368 E4.14728
G1 X80.52 Y129.546 E4.59442
G1 X81.009 Y128.984 E4.60766
G1 X81.555 Y128.479 E4.62088
G1 X82.153 Y128.035 E4.63412
G1 X82.795 Y127.658 E4.64735
G1 X83.473 Y127.352 E4.66058
G1 X84.18 Y127.12 E4.6738
G1 X85.146 Y126.932 E4.6913
G1 X85.319 Y126.911 E4.69439
G1 X86.062 Y126.862 E4.70763
G1 X86.805 Y126.892 E4.72085
G1 X87.541 Y127.001 E4.73408
G1 X88.262 Y127.189 E4.74732
G1 X88.485 Y127.274 E4.75156
G1 X130.61 Y73.355 E5.96786
G1 X130.61 Y49.147 E6.39818
G1 X130.65 Y48.404 E6.4114
G1 X130.769 Y47.669 E6.42464
G1 X130.967 Y46.951 E6.43788
M204 S625
M205 X6 Y6
G0 F4285.7 X131.387 Y47.021
M204 S500
M205 X5 Y5
G1 F1200 X131.66 Y46.354 E6.45069
G1 X132.005 Y45.72 E6.46352
G1 X132.418 Y45.129 E6.47634
G1 X132.937 Y44.544 E6.49024
G1 X133.06 Y44.421 E6.49333
G1 X133.597 Y43.94 E6.50615
G1 X134.185 Y43.521 E6.51898
G1 X134.815 Y43.17 E6.5318
G1 X135.48 Y42.891 E6.54462
G1 X136.172 Y42.687 E6.55744
G1 X136.882 Y42.561 E6.57026
G1 X137.663 Y42.514 E6.58417
G1 X143.767 Y42.514 E6.69267
G1 X144.487 Y42.554 E6.70549
G1 X145.199 Y42.673 E6.71833
G1 X145.893 Y42.871 E6.73115
G1 X146.56 Y43.144 E6.74397
G1 X147.194 Y43.489 E6.7568
G1 X147.785 Y43.902 E6.76961
G1 X148.37 Y44.421 E6.78351
G1 X148.493 Y44.544 E6.78661
G1 X148.974 Y45.081 E6.79942
G1 X149.393 Y45.669 E6.81226
G1 X149.744 Y46.299 E6.82508
G1 X150.023 Y46.964 E6.83789
G1 X150.227 Y47.656 E6.85072
G1 X150.353 Y48.366 E6.86354
G1 X150.4 Y49.147 E6.87745
G1 X150.4 Y61.564 E7.09817
G1 X162.281 Y61.564 E7.30937
G1 X163.001 Y61.604 E7.32218
G1 X163.713 Y61.723 E7.33502
G1 X164.407 Y61.921 E7.34785
G1 X165.074 Y62.194 E7.36066
G1 X165.708 Y62.539 E7.37349
G1 X166.299 Y62.952 E7.3863
G1 X166.841 Y63.428 E7.39913
G1 X167.327 Y63.961 E7.41195
G1 X167.751 Y64.545 E7.42478
G1 X168.143 Y65.242 E7.43899
G1 X168.257 Y65.478 E7.44365
G1 X168.534 Y66.144 E7.45647
G1 X168.736 Y66.837 E7.4693
G1 X168.86 Y67.548 E7.48213
G1 X168.905 Y68.268 E7.49496
G1 X168.87 Y68.988 E7.50777
G1 X168.755 Y69.7 E7.52059
G1 X168.562 Y70.395 E7.53341
G1 X168.293 Y71.065 E7.54625
G1 X167.952 Y71.701 E7.55908
G1 X167.507 Y72.341 E7.57293
G1 X161.685 Y79.725 E7.74008
G1 X161.208 Y80.266 E7.7529
G1 X160.673 Y80.75 E7.76573
G1 X160.089 Y81.173 E7.77855
G1 X159.461 Y81.528 E7.79137
G1 X158.798 Y81.812 E7.80419
G1 X158.107 Y82.021 E7.81702
G1 X157.398 Y82.152 E7.82984
G1 X156.573 Y82.204 E7.84453
G1 X154.64 Y82.204 E7.87889
G1 X154.631 Y86.598 E7.957
G1 X154.589 Y87.318 E7.96982
G1 X154.469 Y88.029 E7.98264
G1 X154.27 Y88.723 E7.99547
G1 X153.995 Y89.39 E8.0083
G1 X153.649 Y90.022 E8.02111
G1 X153.251 Y90.592 E8.03346
G1 X91.298 Y169.888 E9.82223
G1 X90.823 Y170.431 E9.83505
G1 X90.291 Y170.918 E9.84787
G1 X89.708 Y171.343 E9.8607
G1 X89.082 Y171.701 E9.87352
G1 X88.42 Y171.988 E9.88634
G1 X87.73 Y172.2 E9.89917
G1 X86.952 Y172.343 E9.91324
G1 X86.779 Y172.364 E9.91633
G1 X86.06 Y172.411 E9.92914
G1 X85.339 Y172.378 E9.94197
G1 X84.626 Y172.266 E9.9548
G1 X83.931 Y172.075 E9.96761
G1 X83.26 Y171.809 E9.98044
G1 X82.623 Y171.47 E9.99327
G1 X81.987 Y171.031 E10.00701
G1 X66.508 Y158.937 E10.35619
G1 X65.965 Y158.462 E10.36901
G1 X65.478 Y157.93 E10.38184
G1 X65.053 Y157.347 E10.39466
G1 X64.695 Y156.721 E10.40748
G1 X64.408 Y156.059 E10.4203
G1 X64.196 Y155.369 E10.43314
G1 X64.053 Y154.591 E10.4472
G1 X64.032 Y154.418 E10.4503
G1 X63.985 Y153.699 E10.4631
G1 X64.018 Y152.978 E10.47593
G1 X64.13 Y152.265 E10.48876
G1 X64.321 Y151.57 E10.50158
G1 X64.587 Y150.899 E10.51441
G1 X64.926 Y150.262 E10.52723
G1 X65.365 Y149.626 E10.54097
G1 X80.851 Y129.804 E10.98811
G1 X81.326 Y129.261 E11.00093
G1 X81.858 Y128.774 E11.01375
G1 X82.441 Y128.349 E11.02658
G1 X83.067 Y127.991 E11.0394
G1 X83.729 Y127.704 E11.05222
G1 X84.419 Y127.492 E11.06505
G1 X85.197 Y127.349 E11.07912
G1 X85.37 Y127.328 E11.08221
G1 X86.089 Y127.281 E11.09502
G1 X86.81 Y127.314 E11.10785
G1 X87.523 Y127.426 E11.12068
G1 X88.218 Y127.617 E11.13349
G1 X88.624 Y127.778 E11.14126
G1 X131.03 Y73.5 E12.36566
G1 X131.03 Y49.147 E12.79855
G1 X131.07 Y48.427 E12.81137
G1 X131.189 Y47.715 E12.82421
G1 X131.387 Y47.021 E12.83703
M204 S625
M205 X6 Y6
G0 F4285.7 X131.807 Y47.094
M204 S500
M205 X5 Y5
G1 F1200 X132.079 Y46.451 E12.84944
G1 X132.423 Y45.845 E12.86183
G1 X132.835 Y45.281 E12.87425
G1 X133.234 Y44.841 E12.88481
G1 X133.357 Y44.718 E12.8879
G1 X133.878 Y44.253 E12.90031
G1 X134.448 Y43.852 E12.9127
G1 X135.061 Y43.518 E12.92511
G1 X135.708 Y43.256 E12.93752
G1 X136.38 Y43.071 E12.94991
G1 X137.069 Y42.963 E12.9623
G1 X137.663 Y42.934 E12.97288
G1 X143.767 Y42.934 E13.08138
G1 X144.464 Y42.974 E13.09379
G1 X145.151 Y43.093 E13.10618
G1 X145.82 Y43.291 E13.11859
G1 X146.463 Y43.563 E13.131
G1 X147.069 Y43.907 E13.14338
G1 X147.633 Y44.319 E13.1558
G1 X148.073 Y44.718 E13.16636
G1 X148.196 Y44.841 E13.16945
G1 X148.661 Y45.362 E13.18186
G1 X149.062 Y45.932 E13.19425
G1 X149.396 Y46.545 E13.20666
G1 X149.658 Y47.192 E13.21907
G1 X149.843 Y47.864 E13.23146
G1 X149.951 Y48.553 E13.24386
G1 X149.98 Y49.147 E13.25443
G1 X149.98 Y61.984 E13.48262
G1 X162.281 Y61.984 E13.70128
G1 X162.978 Y62.024 E13.71369
G1 X163.665 Y62.143 E13.72608
G1 X164.334 Y62.341 E13.73849
G1 X164.977 Y62.613 E13.7509
G1 X165.583 Y62.957 E13.76328
G1 X166.147 Y63.369 E13.7757
G1 X166.66 Y63.842 E13.7881
G1 X167.115 Y64.37 E13.80049
G1 X167.507 Y64.947 E13.81289
G1 X167.765 Y65.425 E13.82255
G1 X167.879 Y65.661 E13.82721
G1 X168.146 Y66.306 E13.83962
G1 X168.337 Y66.977 E13.85202
G1 X168.451 Y67.665 E13.86441
G1 X168.485 Y68.362 E13.87682
G1 X168.439 Y69.058 E13.88922
G1 X168.314 Y69.744 E13.90161
G1 X168.111 Y70.412 E13.91402
G1 X167.833 Y71.052 E13.92643
G1 X167.483 Y71.656 E13.93884
G1 X167.177 Y72.081 E13.94815
G1 X161.355 Y79.465 E14.1153
G1 X160.893 Y79.987 E14.12769
G1 X160.373 Y80.453 E14.1401
G1 X159.804 Y80.856 E14.15249
G1 X159.192 Y81.192 E14.1649
G1 X158.546 Y81.455 E14.1773
G1 X157.874 Y81.643 E14.18971
G1 X157.185 Y81.753 E14.20211
G1 X156.573 Y81.784 E14.213
G1 X154.221 Y81.784 E14.25481
G1 X154.211 Y86.597 E14.34037
G1 X154.17 Y87.293 E14.35276
G1 X154.049 Y87.981 E14.36518
G1 X153.85 Y88.649 E14.37757
G1 X153.576 Y89.291 E14.38998
G1 X153.231 Y89.897 E14.40237
G1 X152.92 Y90.333 E14.41189
G1 X90.967 Y169.629 E16.20066
G1 X90.507 Y170.154 E16.21306
G1 X89.989 Y170.622 E16.22547
G1 X89.422 Y171.028 E16.23787
G1 X88.812 Y171.366 E16.25027
G1 X88.167 Y171.633 E16.26268
G1 X87.496 Y171.823 E16.27507
G1 X86.902 Y171.926 E16.28579
G1 X86.729 Y171.947 E16.28889
G1 X86.033 Y171.991 E16.30128
G1 X85.336 Y171.955 E16.31369
G1 X84.648 Y171.84 E16.32609
G1 X83.977 Y171.647 E16.3385
G1 X83.333 Y171.378 E16.35091
G1 X82.724 Y171.038 E16.36331
G1 X82.246 Y170.7 E16.37371
G1 X66.767 Y158.606 E16.72289
G1 X66.242 Y158.146 E16.7353
G1 X65.774 Y157.628 E16.74771
G1 X65.368 Y157.061 E16.76011
G1 X65.03 Y156.451 E16.7725
G1 X64.763 Y155.806 E16.78491
G1 X64.572 Y155.135 E16.79731
G1 X64.47 Y154.541 E16.80803
G1 X64.449 Y154.368 E16.81113
G1 X64.405 Y153.672 E16.82352
G1 X64.441 Y152.975 E16.83593
G1 X64.556 Y152.287 E16.84833
G1 X64.749 Y151.616 E16.86074
G1 X65.018 Y150.972 E16.87315
G1 X65.358 Y150.363 E16.88554
G1 X65.696 Y149.885 E16.89595
G1 X81.182 Y130.063 E17.34309
G1 X81.642 Y129.538 E17.3555
G1 X82.16 Y129.07 E17.36791
G1 X82.727 Y128.664 E17.3803
G1 X83.337 Y128.326 E17.3927
G1 X83.982 Y128.059 E17.40511
G1 X84.653 Y127.869 E17.41751
G1 X85.247 Y127.766 E17.42822
G1 X85.42 Y127.745 E17.43132
G1 X86.116 Y127.701 E17.44372
G1 X86.813 Y127.737 E17.45612
G1 X87.501 Y127.852 E17.46852
G1 X88.172 Y128.045 E17.48093
G1 X88.758 Y128.29 E17.49222
G1 X131.45 Y73.645 E18.72489
G1 X131.45 Y49.147 E19.16037
G1 X131.49 Y48.45 E19.17278
G1 X131.609 Y47.763 E19.18517
G1 X131.807 Y47.094 E19.19758
M204 S625
M205 X6 Y6
G0 F4285.7 X132.226 Y47.169
M204 S500
M205 X5 Y5
G1 F1200 X132.498 Y46.553 E19.20955
G1 X132.841 Y45.974 E19.22151
G1 X133.25 Y45.439 E19.23348
G1 X133.531 Y45.138 E19.2408
G1 X133.654 Y45.015 E19.24389
G1 X134.157 Y44.568 E19.25585
G1 X134.71 Y44.184 E19.26782
G1 X135.305 Y43.868 E19.2798
G1 X135.932 Y43.625 E19.29175
G1 X136.584 Y43.458 E19.30371
G1 X137.252 Y43.369 E19.31569
G1 X137.663 Y43.354 E19.323
G1 X143.767 Y43.354 E19.43151
G1 X144.439 Y43.394 E19.44348
G1 X145.102 Y43.513 E19.45545
G1 X145.745 Y43.71 E19.4674
G1 X146.361 Y43.982 E19.47937
G1 X146.94 Y44.325 E19.49134
G1 X147.475 Y44.734 E19.50331
G1 X147.776 Y45.015 E19.51063
G1 X147.899 Y45.138 E19.51372
G1 X148.346 Y45.641 E19.52568
G1 X148.73 Y46.194 E19.53765
G1 X149.046 Y46.789 E19.54962
G1 X149.289 Y47.416 E19.56158
G1 X149.456 Y48.068 E19.57354
G1 X149.545 Y48.736 E19.58552
G1 X149.56 Y49.147 E19.59283
G1 X149.56 Y62.404 E19.82849
G1 X162.281 Y62.404 E20.05462
G1 X162.953 Y62.444 E20.06658
G1 X163.616 Y62.563 E20.07856
G1 X164.259 Y62.76 E20.09051
G1 X164.875 Y63.032 E20.10248
G1 X165.454 Y63.375 E20.11444
G1 X165.989 Y63.784 E20.12641
G1 X166.471 Y64.254 E20.13838
G1 X166.894 Y64.778 E20.15035
G1 X167.387 Y65.608 E20.16751
G1 X167.501 Y65.844 E20.17217
G1 X167.757 Y66.466 E20.18413
G1 X167.938 Y67.115 E20.1961
G1 X168.04 Y67.78 E20.20806
G1 X168.063 Y68.453 E20.22003
G1 X168.006 Y69.124 E20.232
G1 X167.87 Y69.783 E20.24397
G1 X167.657 Y70.422 E20.25594
G1 X167.37 Y71.03 E20.26789
G1 X166.847 Y71.821 E20.28475
G1 X161.025 Y79.205 E20.4519
G1 X160.578 Y79.708 E20.46386
G1 X160.074 Y80.154 E20.47582
G1 X159.521 Y80.537 E20.48778
G1 X158.926 Y80.853 E20.49976
G1 X158.298 Y81.095 E20.51172
G1 X157.646 Y81.262 E20.52368
G1 X156.978 Y81.35 E20.53566
G1 X156.573 Y81.364 E20.54286
G1 X153.802 Y81.364 E20.59212
G1 X153.791 Y86.596 E20.68512
G1 X153.75 Y87.268 E20.69709
G1 X153.629 Y87.93 E20.70906
G1 X153.43 Y88.574 E20.72104
G1 X153.157 Y89.189 E20.733
G1 X152.813 Y89.767 E20.74495
G1 X152.589 Y90.075 E20.75172
G1 X90.636 Y169.371 E22.54049
G1 X90.191 Y169.876 E22.55245
G1 X89.689 Y170.324 E22.56441
G1 X89.137 Y170.71 E22.57639
G1 X88.544 Y171.028 E22.58835
G1 X87.917 Y171.274 E22.60032
G1 X87.265 Y171.443 E22.61229
G1 X86.851 Y171.509 E22.61975
G1 X86.678 Y171.53 E22.62284
G1 X86.006 Y171.571 E22.63481
G1 X85.334 Y171.532 E22.64678
G1 X84.671 Y171.414 E22.65875
G1 X84.027 Y171.219 E22.67071
G1 X83.411 Y170.948 E22.68267
G1 X82.831 Y170.606 E22.69464
G1 X82.504 Y170.369 E22.70182
G1 X67.025 Y158.275 E23.051
G1 X66.52 Y157.83 E23.06297
G1 X66.072 Y157.328 E23.07493
G1 X65.686 Y156.776 E23.0869
G1 X65.368 Y156.183 E23.09886
G1 X65.122 Y155.556 E23.11083
G1 X64.953 Y154.904 E23.12281
G1 X64.887 Y154.49 E23.13026
G1 X64.866 Y154.317 E23.13336
G1 X64.825 Y153.645 E23.14532
G1 X64.864 Y152.973 E23.15729
G1 X64.982 Y152.31 E23.16926
G1 X65.177 Y151.666 E23.18122
G1 X65.448 Y151.05 E23.19318
G1 X65.79 Y150.47 E23.20515
G1 X66.027 Y150.143 E23.21233
G1 X81.513 Y130.321 E23.65947
G1 X81.958 Y129.816 E23.67143
G1 X82.46 Y129.368 E23.68339
G1 X83.012 Y128.982 E23.69537
G1 X83.605 Y128.664 E23.70733
G1 X84.232 Y128.419 E23.7193
G1 X84.884 Y128.249 E23.73127
G1 X85.298 Y128.183 E23.73873
G1 X85.471 Y128.162 E23.74182
G1 X86.143 Y128.121 E23.75379
G1 X86.815 Y128.16 E23.76576
G1 X87.478 Y128.278 E23.77773
G1 X88.122 Y128.473 E23.78969
G1 X88.738 Y128.744 E23.80165
G1 X88.873 Y128.824 E23.80444
G1 X131.87 Y73.79 E25.0459
G1 X131.87 Y49.147 E25.48395
G1 X131.91 Y48.475 E25.49592
G1 X132.029 Y47.812 E25.50789
G1 X132.226 Y47.169 E25.51984
M204 S625
M205 X6 Y6
G0 F4285.7 X132.646 Y47.247
M204 S500
M205 X5 Y5
G1 F1200 X132.917 Y46.658 E25.53137
G1 X133.259 Y46.108 E25.54288
G1 X133.828 Y45.435 E25.55855
G1 X133.951 Y45.312 E25.56164
G1 X134.436 Y44.883 E25.57315
G1 X134.971 Y44.517 E25.58467
G1 X135.546 Y44.22 E25.59618
G1 X136.154 Y43.996 E25.6077
G1 X136.785 Y43.848 E25.61922
G1 X137.663 Y43.774 E25.63488
G1 X143.767 Y43.774 E25.74338
G1 X144.414 Y43.814 E25.75491
G1 X145.05 Y43.933 E25.76641
G1 X145.667 Y44.13 E25.77792
G1 X146.256 Y44.401 E25.78945
G1 X146.806 Y44.743 E25.80096
G1 X147.479 Y45.312 E25.81663
G1 X147.602 Y45.435 E25.81972
G1 X148.031 Y45.92 E25.83123
G1 X148.397 Y46.455 E25.84275
G1 X148.694 Y47.03 E25.85425
G1 X148.918 Y47.638 E25.86577
G1 X149.066 Y48.269 E25.87729
G1 X149.14 Y49.147 E25.89296
G1 X149.14 Y62.824 E26.13608
G1 X162.281 Y62.824 E26.36967
G1 X162.928 Y62.864 E26.3812
G1 X163.564 Y62.983 E26.3927
G1 X164.181 Y63.18 E26.40421
G1 X164.77 Y63.451 E26.41574
G1 X165.32 Y63.793 E26.42725
