;START_OF_HEADER
;HEADER_VERSION:0.1
;FLAVOR:Griffin
;GENERATOR.NAME:Cura_SteamEngine
;GENERATOR.VERSION:3.6.0
;GENERATOR.BUILD_DATE:2018-11-12
;TARGET_MACHINE.NAME:Ultimaker 3
;EXTRUDER_TRAIN.0.INITIAL_TEMPERATURE:205
;EXTRUDER_TRAIN.0.MATERIAL.VOLUME_USED:9299
;EXTRUDER_TRAIN.0.MATERIAL.GUID:506c9f0d-e3aa-4bd4-b2d2-23e2425b1aa9
;EXTRUDER_TRAIN.0.NOZZLE.DIAMETER:0.4
;EXTRUDER_TRAIN.0.NOZZLE.NAME:AA 0.4
;BUILD_PLATE.TYPE:glass
;BUILD_PLATE.INITIAL_TEMPERATURE:60
;PRINT.TIME:9030
;PRINT.SIZE.MIN.X:9
;PRINT.SIZE.MIN.Y:6
;PRINT.SIZE.MIN.Z:0.27
;PRINT.SIZE.MAX.X:161.423
;PRINT.SIZE.MAX.Y:138.827
;PRINT.SIZE.MAX.Z:12.87
;END_OF_HEADER
;Generated with Cura_SteamEngine 3.6.0
T0
M82 ;absolute extrusion mode

G92 E0
M109 S205
G0 F15000 X9 Y6 Z2
G280
G1 F1500 E-6.5
;LAYER_COUNT:127
;LAYER:0
M107
M204 S625
M205 X6 Y6
G0 F4285.7 X79.462 Y78.325 Z0.27
M204 S500
M205 X5 Y5
;TYPE:SKIRT
G1 F1500 E0
G1 F1200 X80.194 Y77.704 E0.01706
G1 X80.444 Y77.52 E0.02258
G1 X81.066 Y77.111 E0.03581
G1 X81.729 Y76.772 E0.04905
G1 X82.424 Y76.506 E0.06228
G1 X83.144 Y76.316 E0.07552
G1 X83.879 Y76.204 E0.08873
G1 X84.623 Y76.171 E0.10197
G1 X85.607 Y76.252 E0.11952
G1 X91.307 Y77.13 E0.22204
G1 X91.524 Y76.647 E0.23145
G1 X91.901 Y76.005 E0.24469
G1 X92.343 Y75.407 E0.2579
G1 X92.848 Y74.859 E0.27115
G1 X93.569 Y74.247 E0.28796
G1 X93.817 Y74.064 E0.29344
G1 X94.439 Y73.655 E0.30667
G1 X95.101 Y73.315 E0.3199
G1 X95.796 Y73.047 E0.33314
G1 X96.515 Y72.856 E0.34637
G1 X97.251 Y72.744 E0.3596
G1 X97.995 Y72.71 E0.37284
G1 X98.986 Y72.791 E0.39052
G1 X118.607 Y75.81 E0.7434
G1 X119.335 Y75.962 E0.75662
G1 X120.043 Y76.192 E0.76986
G1 X120.723 Y76.496 E0.7831
G1 X121.365 Y76.872 E0.79632
G1 X121.964 Y77.314 E0.80955
G1 X122.512 Y77.818 E0.82279
G1 X123.134 Y78.551 E0.83988
G1 X123.318 Y78.801 E0.8454
G1 X123.727 Y79.423 E0.85863
G1 X124.066 Y80.086 E0.87187
G1 X124.332 Y80.781 E0.88509
G1 X124.522 Y81.501 E0.89833
G1 X124.634 Y82.236 E0.91155
G1 X124.635 Y82.256 E0.9119
G1 X155.366 Y87 E1.46465
G1 X156.095 Y87.153 E1.47789
G1 X156.803 Y87.383 E1.49112
G1 X157.482 Y87.688 E1.50435
G1 X158.124 Y88.064 E1.51758
G1 X158.723 Y88.506 E1.53081
G1 X159.27 Y89.01 E1.54403
G1 X159.89 Y89.741 E1.56107
G1 X160.074 Y89.991 E1.56659
G1 X160.483 Y90.613 E1.57982
G1 X160.822 Y91.276 E1.59306
G1 X161.088 Y91.971 E1.60629
G1 X161.278 Y92.691 E1.61952
G1 X161.39 Y93.426 E1.63274
G1 X161.423 Y94.17 E1.64598
G1 X161.342 Y95.155 E1.66355
G1 X155.545 Y132.771 E2.3401
G1 X155.392 Y133.499 E2.35332
G1 X155.162 Y134.207 E2.36656
G1 X154.858 Y134.886 E2.37978
G1 X154.482 Y135.529 E2.39302
G1 X154.04 Y136.127 E2.40624
G1 X153.536 Y136.675 E2.41948
G1 X152.789 Y137.307 E2.43687
G1 X152.539 Y137.49 E2.44238
G1 X151.916 Y137.897 E2.45561
G1 X151.253 Y138.234 E2.46883
G1 X150.557 Y138.499 E2.48206
G1 X149.837 Y138.687 E2.49529
G1 X149.101 Y138.797 E2.50852
G1 X148.357 Y138.827 E2.52176
G1 X147.39 Y138.747 E2.539
G1 X112.132 Y133.309 E3.17316
G1 X111.403 Y133.156 E3.1864
G1 X110.695 Y132.926 E3.19963
G1 X110.016 Y132.622 E3.21286
G1 X109.374 Y132.246 E3.22608
G1 X108.775 Y131.803 E3.23933
G1 X108.397 Y131.455 E3.24846
G1 X107.767 Y131.697 E3.26046
G1 X107.047 Y131.887 E3.27369
G1 X106.311 Y131.998 E3.28693
G1 X105.568 Y132.031 E3.30015
G1 X104.584 Y131.95 E3.3177
G1 X93.456 Y130.235 E3.51784
G1 X92.728 Y130.082 E3.53107
G1 X92.02 Y129.852 E3.5443
G1 X91.341 Y129.548 E3.55752
G1 X90.698 Y129.172 E3.57076
G1 X90.1 Y128.73 E3.58398
G1 X89.978 Y128.618 E3.58693
G1 X89.902 Y128.66 E3.58847
G1 X89.215 Y128.946 E3.6017
G1 X88.501 Y129.157 E3.61493
G1 X87.769 Y129.29 E3.62816
G1 X87.027 Y129.344 E3.64138
G1 X86.283 Y129.318 E3.65462
G1 X85.843 Y129.264 E3.6625
G1 X77.636 Y128 E3.8101
G1 X76.908 Y127.848 E3.82332
G1 X76.2 Y127.618 E3.83656
G1 X75.521 Y127.313 E3.84979
G1 X74.878 Y126.938 E3.86302
G1 X74.279 Y126.495 E3.87626
G1 X73.732 Y125.991 E3.88949
G1 X73.11 Y125.259 E3.90656
G1 X72.926 Y125.009 E3.91208
G1 X72.517 Y124.387 E3.92531
G1 X72.178 Y123.724 E3.93855
G1 X71.912 Y123.029 E3.95178
G1 X71.722 Y122.309 E3.96501
G1 X71.61 Y121.574 E3.97823
G1 X71.577 Y120.83 E3.99147
G1 X71.658 Y119.846 E4.00902
G1 X77.453 Y82.23 E4.68557
G1 X77.605 Y81.501 E4.69881
G1 X77.835 Y80.793 E4.71204
G1 X78.14 Y80.114 E4.72527
G1 X78.516 Y79.472 E4.7385
G1 X78.958 Y78.873 E4.75173
G1 X79.462 Y78.325 E4.76496
M204 S625
M205 X6 Y6
G0 F4285.7 X79.852 Y78.534
M204 S500
M205 X5 Y5
G1 F1200 X80.443 Y78.042 E4.77863
G1 X80.693 Y77.858 E4.78415
G1 X81.297 Y77.463 E4.79698
G1 X81.941 Y77.138 E4.8098
G1 X82.617 Y76.885 E4.82263
G1 X83.316 Y76.709 E4.83545
G1 X84.031 Y76.612 E4.84827
G1 X84.752 Y76.594 E4.86109
G1 X85.543 Y76.667 E4.87521
G1 X91.574 Y77.596 E4.98368
G1 X91.627 Y77.436 E4.98668
G1 X91.929 Y76.781 E4.9995
G1 X92.301 Y76.163 E5.01232
G1 X92.739 Y75.589 E5.02516
G1 X93.237 Y75.068 E5.03797
G1 X93.819 Y74.585 E5.05141
G1 X94.067 Y74.402 E5.05689
G1 X94.67 Y74.006 E5.06972
G1 X95.313 Y73.68 E5.08253
G1 X95.989 Y73.427 E5.09536
G1 X96.688 Y73.25 E5.10818
G1 X97.403 Y73.152 E5.12101
G1 X98.124 Y73.133 E5.13383
G1 X98.922 Y73.206 E5.14807
G1 X118.543 Y76.225 E5.50096
G1 X119.249 Y76.374 E5.51379
G1 X119.934 Y76.6 E5.52661
G1 X120.59 Y76.901 E5.53944
G1 X121.208 Y77.272 E5.55225
G1 X121.782 Y77.709 E5.56508
G1 X122.303 Y78.208 E5.5779
G1 X122.796 Y78.8 E5.59159
G1 X122.98 Y79.05 E5.59711
G1 X123.375 Y79.654 E5.60994
G1 X123.7 Y80.298 E5.62276
G1 X123.953 Y80.974 E5.63559
G1 X124.129 Y81.673 E5.64841
G1 X124.226 Y82.388 E5.66123
G1 X124.232 Y82.619 E5.66534
G1 X155.302 Y87.415 E6.22418
G1 X156.008 Y87.565 E6.23701
G1 X156.693 Y87.791 E6.24983
G1 X157.348 Y88.092 E6.26265
G1 X157.967 Y88.464 E6.27549
G1 X158.54 Y88.901 E6.2883
G1 X159.062 Y89.4 E6.30113
G1 X159.552 Y89.99 E6.31477
G1 X159.736 Y90.24 E6.32028
G1 X160.131 Y90.844 E6.33311
G1 X160.456 Y91.488 E6.34594
G1 X160.709 Y92.164 E6.35877
G1 X160.885 Y92.863 E6.37158
G1 X160.982 Y93.578 E6.38441
G1 X161 Y94.299 E6.39723
G1 X160.927 Y95.091 E6.41136
G1 X155.13 Y132.707 E7.08792
G1 X154.981 Y133.412 E7.10073
G1 X154.754 Y134.097 E7.11356
G1 X154.454 Y134.753 E7.12638
G1 X154.082 Y135.371 E7.1392
G1 X153.645 Y135.945 E7.15202
G1 X153.146 Y136.466 E7.16485
G1 X152.541 Y136.968 E7.17882
G1 X152.291 Y137.151 E7.18433
G1 X151.686 Y137.544 E7.19715
G1 X151.042 Y137.868 E7.20997
G1 X150.365 Y138.119 E7.2228
G1 X149.665 Y138.293 E7.23563
G1 X148.95 Y138.388 E7.24845
G1 X148.229 Y138.404 E7.26127
G1 X147.454 Y138.332 E7.2751
G1 X112.196 Y132.894 E7.90926
G1 X111.49 Y132.745 E7.92209
G1 X110.805 Y132.518 E7.93491
G1 X110.149 Y132.217 E7.94774
G1 X109.531 Y131.846 E7.96056
G1 X108.958 Y131.408 E7.97338
G1 X108.478 Y130.95 E7.98517
G1 X108.25 Y131.065 E7.98971
G1 X107.574 Y131.317 E8.00253
G1 X106.875 Y131.493 E8.01535
G1 X106.16 Y131.59 E8.02817
G1 X105.439 Y131.608 E8.04099
G1 X104.648 Y131.535 E8.05511
G1 X93.52 Y129.82 E8.25526
G1 X92.815 Y129.671 E8.26807
G1 X92.13 Y129.444 E8.2809
G1 X91.474 Y129.144 E8.29372
G1 X90.856 Y128.772 E8.30654
G1 X90.282 Y128.335 E8.31937
G1 X90.044 Y128.107 E8.32522
G1 X89.539 Y128.365 E8.33531
G1 X88.864 Y128.621 E8.34814
G1 X88.165 Y128.8 E8.36096
G1 X87.451 Y128.901 E8.37378
G1 X86.73 Y128.923 E8.38661
G1 X85.907 Y128.849 E8.40129
G1 X77.7 Y127.585 E8.5489
G1 X76.994 Y127.436 E8.56173
G1 X76.309 Y127.21 E8.57455
G1 X75.654 Y126.909 E8.58736
G1 X75.035 Y126.538 E8.60019
G1 X74.462 Y126.1 E8.61301
G1 X73.94 Y125.602 E8.62584
G1 X73.448 Y125.01 E8.63952
G1 X73.264 Y124.76 E8.64504
G1 X72.869 Y124.156 E8.65787
G1 X72.544 Y123.512 E8.67069
G1 X72.291 Y122.836 E8.68352
G1 X72.115 Y122.137 E8.69633
G1 X72.018 Y121.422 E8.70916
G1 X72 Y120.701 E8.72198
G1 X72.073 Y119.91 E8.7361
G1 X77.868 Y82.294 E9.41265
G1 X78.017 Y81.588 E9.42548
G1 X78.243 Y80.903 E9.4383
G1 X78.544 Y80.247 E9.45113
G1 X78.916 Y79.629 E9.46395
G1 X79.353 Y79.055 E9.47677
G1 X79.852 Y78.534 E9.4896
M204 S625
M205 X6 Y6
G0 F4285.7 X80.24 Y78.748
M204 S500
M205 X5 Y5
G1 F1200 X80.692 Y78.38 E9.49996
G1 X80.942 Y78.196 E9.50548
G1 X81.527 Y77.816 E9.51788
G1 X82.151 Y77.504 E9.53028
G1 X82.807 Y77.266 E9.54268
G1 X83.486 Y77.105 E9.55509
G1 X84.179 Y77.022 E9.5675
G1 X84.876 Y77.02 E9.57989
G1 X85.479 Y77.082 E9.59066
G1 X91.861 Y78.065 E9.70544
G1 X92.035 Y77.548 E9.71514
G1 X92.332 Y76.916 E9.72755
G1 X92.7 Y76.323 E9.73996
G1 X93.133 Y75.776 E9.75236
G1 X93.626 Y75.282 E9.76477
G1 X94.068 Y74.923 E9.77489
G1 X94.316 Y74.74 E9.78037
G1 X94.9 Y74.358 E9.79277
G1 X95.524 Y74.046 E9.80518
G1 X96.18 Y73.807 E9.81759
G1 X96.859 Y73.645 E9.82999
G1 X97.551 Y73.562 E9.84238
G1 X98.249 Y73.558 E9.85479
G1 X98.858 Y73.621 E9.86567
G1 X118.479 Y76.64 E10.21856
G1 X119.162 Y76.785 E10.23097
G1 X119.823 Y77.008 E10.24337
G1 X120.454 Y77.304 E10.25576
G1 X121.048 Y77.671 E10.26818
G1 X121.595 Y78.104 E10.28058
G1 X122.09 Y78.596 E10.29298
G1 X122.458 Y79.049 E10.30336
G1 X122.642 Y79.299 E10.30888
G1 X123.022 Y79.884 E10.32128
G1 X123.334 Y80.508 E10.33368
G1 X123.572 Y81.164 E10.34608
G1 X123.733 Y81.843 E10.35849
G1 X123.816 Y82.536 E10.37089
G1 X123.817 Y82.98 E10.37879
G1 X155.238 Y87.83 E10.94394
G1 X155.92 Y87.976 E10.95634
G1 X156.582 Y88.199 E10.96875
G1 X157.213 Y88.496 E10.98115
G1 X157.806 Y88.863 E10.99355
G1 X158.353 Y89.296 E11.00595
G1 X158.848 Y89.788 E11.01836
G1 X159.214 Y90.239 E11.02868
G1 X159.398 Y90.489 E11.0342
G1 X159.778 Y91.074 E11.0466
G1 X160.09 Y91.698 E11.059
G1 X160.328 Y92.354 E11.0714
G1 X160.489 Y93.033 E11.08381
G1 X160.572 Y93.726 E11.09622
G1 X160.574 Y94.423 E11.10861
G1 X160.512 Y95.027 E11.1194
G1 X154.715 Y132.643 E11.79595
G1 X154.569 Y133.325 E11.80835
G1 X154.347 Y133.986 E11.82075
G1 X154.05 Y134.618 E11.83316
G1 X153.683 Y135.211 E11.84556
G1 X153.25 Y135.758 E11.85796
G1 X152.758 Y136.253 E11.87036
G1 X152.293 Y136.629 E11.88099
G1 X152.043 Y136.812 E11.8865
G1 X151.457 Y137.191 E11.89891
G1 X150.832 Y137.501 E11.91131
G1 X150.176 Y137.737 E11.9237
G1 X149.497 Y137.897 E11.9361
G1 X148.803 Y137.977 E11.94852
G1 X148.106 Y137.978 E11.96091
G1 X147.518 Y137.917 E11.97142
G1 X112.26 Y132.479 E12.60557
G1 X111.577 Y132.333 E12.61799
G1 X110.916 Y132.11 E12.63039
G1 X110.285 Y131.813 E12.64279
G1 X109.692 Y131.446 E12.65518
G1 X109.144 Y131.014 E12.66759
G1 X108.65 Y130.521 E12.67999
G1 X108.578 Y130.43 E12.68206
G1 X108.04 Y130.698 E12.69274
G1 X107.384 Y130.936 E12.70515
G1 X106.705 Y131.097 E12.71755
G1 X106.012 Y131.18 E12.72996
G1 X105.314 Y131.182 E12.74236
G1 X104.712 Y131.12 E12.75312
G1 X93.584 Y129.405 E12.95327
G1 X92.902 Y129.259 E12.96567
G1 X92.241 Y129.037 E12.97806
G1 X91.609 Y128.74 E12.99047
G1 X91.016 Y128.373 E13.00287
G1 X90.469 Y127.94 E13.01527
G1 X90.106 Y127.58 E13.02436
G1 X89.809 Y127.764 E13.03057
G1 X89.179 Y128.062 E13.04296
G1 X88.518 Y128.286 E13.05537
G1 X87.836 Y128.432 E13.06776
G1 X87.141 Y128.5 E13.08018
G1 X86.444 Y128.488 E13.09257
G1 X85.971 Y128.434 E13.10103
G1 X77.764 Y127.17 E13.24864
G1 X77.082 Y127.024 E13.26104
G1 X76.42 Y126.802 E13.27345
G1 X75.789 Y126.505 E13.28584
G1 X75.196 Y126.138 E13.29824
G1 X74.648 Y125.705 E13.31066
G1 X74.154 Y125.213 E13.32305
G1 X73.786 Y124.761 E13.33341
G1 X73.602 Y124.511 E13.33893
G1 X73.222 Y123.926 E13.35133
G1 X72.91 Y123.302 E13.36373
G1 X72.672 Y122.646 E13.37614
G1 X72.511 Y121.967 E13.38854
G1 X72.428 Y121.274 E13.40095
G1 X72.426 Y120.577 E13.41334
G1 X72.488 Y119.974 E13.42411
G1 X78.283 Y82.358 E14.10066
G1 X78.429 Y81.675 E14.11308
G1 X78.651 Y81.014 E14.12547
G1 X78.948 Y80.383 E14.13787
G1 X79.315 Y79.789 E14.15028
G1 X79.748 Y79.242 E14.16268
G1 X80.24 Y78.748 E14.17508
M204 S625
M205 X6 Y6
G0 F4285.7 X80.141 Y79.433
M204 S500
M205 X5 Y5
G1 F1200 X80.627 Y78.967 E14.18704
G1 X80.941 Y78.718 E14.19417
G1 X81.191 Y78.534 E14.19969
G1 X81.756 Y78.168 E14.21165
G1 X82.36 Y77.872 E14.22361
G1 X82.996 Y77.649 E14.23559
G1 X83.653 Y77.503 E14.24755
G1 X84.323 Y77.436 E14.25952
G1 X84.996 Y77.448 E14.27149
G1 X85.415 Y77.497 E14.27899
G1 X92.171 Y78.538 E14.4005
G1 X92.223 Y78.297 E14.40488
G1 X92.442 Y77.661 E14.41684
G1 X92.736 Y77.055 E14.42881
G1 X93.099 Y76.488 E14.44078
G1 X93.526 Y75.968 E14.45274
G1 X94.012 Y75.502 E14.46471
G1 X94.317 Y75.261 E14.47162
G1 X94.565 Y75.078 E14.4771
G1 X95.13 Y74.711 E14.48907
G1 X95.734 Y74.413 E14.50104
G1 X96.369 Y74.19 E14.51301
G1 X97.026 Y74.043 E14.52498
G1 X97.696 Y73.975 E14.53695
G1 X98.369 Y73.987 E14.54891
G1 X98.794 Y74.036 E14.55652
G1 X118.415 Y77.055 E14.9094
G1 X119.073 Y77.197 E14.92137
G1 X119.71 Y77.415 E14.93334
G1 X120.316 Y77.708 E14.9453
G1 X120.884 Y78.07 E14.95728
G1 X121.404 Y78.497 E14.96924
G1 X121.87 Y78.983 E14.98121
G1 X122.12 Y79.298 E14.98835
G1 X122.304 Y79.548 E14.99387
G1 X122.67 Y80.113 E15.00584
G1 X122.966 Y80.717 E15.0178
G1 X123.189 Y81.353 E15.02978
G1 X123.335 Y82.01 E15.04174
G1 X123.402 Y82.68 E15.05371
G1 X123.39 Y83.339 E15.06542
G1 X155.174 Y88.245 E15.63711
G1 X155.832 Y88.387 E15.64907
G1 X156.469 Y88.606 E15.66105
G1 X157.075 Y88.899 E15.67301
G1 X157.642 Y89.262 E15.68498
G1 X158.162 Y89.689 E15.69694
G1 X158.628 Y90.175 E15.70891
G1 X158.876 Y90.488 E15.71601
G1 X159.06 Y90.738 E15.72153
G1 X159.426 Y91.303 E15.73349
G1 X159.722 Y91.907 E15.74545
G1 X159.945 Y92.543 E15.75743
G1 X160.091 Y93.2 E15.76939
G1 X160.158 Y93.87 E15.78136
G1 X160.146 Y94.543 E15.79333
G1 X160.097 Y94.963 E15.80084
G1 X154.3 Y132.579 E16.4774
G1 X154.158 Y133.237 E16.48936
G1 X153.939 Y133.873 E16.50132
G1 X153.646 Y134.48 E16.5133
G1 X153.284 Y135.047 E16.52526
G1 X152.857 Y135.567 E16.53722
G1 X152.371 Y136.033 E16.54919
G1 X152.045 Y136.29 E16.55657
G1 X151.795 Y136.473 E16.56208
G1 X151.229 Y136.838 E16.57405
G1 X150.624 Y137.133 E16.58601
G1 X149.988 Y137.354 E16.59798
G1 X149.331 Y137.499 E16.60994
G1 X148.661 Y137.564 E16.62191
G1 X147.988 Y137.549 E16.63387
G1 X147.582 Y137.502 E16.64114
G1 X112.324 Y132.064 E17.2753
G1 X111.666 Y131.922 E17.28726
G1 X111.029 Y131.703 E17.29924
G1 X110.423 Y131.41 E17.3112
G1 X109.856 Y131.047 E17.32317
G1 X109.335 Y130.62 E17.33514
G1 X108.87 Y130.134 E17.3471
G1 X108.677 Y129.877 E17.35281
G1 X108.435 Y130.034 E17.35794
G1 X107.831 Y130.331 E17.3699
G1 X107.195 Y130.553 E17.38188
G1 X106.538 Y130.699 E17.39384
G1 X105.868 Y130.766 E17.40581
G1 X105.195 Y130.754 E17.41778
G1 X104.776 Y130.705 E17.42528
G1 X93.648 Y128.99 E17.62542
G1 X92.99 Y128.848 E17.63739
G1 X92.354 Y128.629 E17.64935
G1 X91.747 Y128.336 E17.66133
G1 X91.18 Y127.974 E17.67328
G1 X90.66 Y127.547 E17.68525
G1 X90.194 Y127.061 E17.69721
G1 X90.173 Y127.034 E17.69782
G1 X90.024 Y127.146 E17.70114
G1 X89.441 Y127.483 E17.71311
G1 X88.822 Y127.748 E17.72508
G1 X88.177 Y127.939 E17.73703
G1 X87.513 Y128.052 E17.74901
G1 X86.841 Y128.085 E17.76097
G1 X86.035 Y128.019 E17.77534
G1 X77.828 Y126.755 E17.92295
G1 X77.17 Y126.613 E17.93491
G1 X76.533 Y126.394 E17.94689
G1 X75.927 Y126.102 E17.95885
G1 X75.36 Y125.739 E17.97081
G1 X74.839 Y125.312 E17.98279
G1 X74.373 Y124.826 E17.99476
G1 X74.124 Y124.512 E18.00188
G1 X73.94 Y124.262 E18.0074
G1 X73.574 Y123.697 E18.01936
G1 X73.278 Y123.093 E18.03132
G1 X73.055 Y122.457 E18.0433
G1 X72.909 Y121.8 E18.05527
G1 X72.842 Y121.13 E18.06723
G1 X72.854 Y120.457 E18.0792
G1 X72.903 Y120.038 E18.0867
G1 X78.698 Y82.422 E18.76325
G1 X78.84 Y81.764 E18.77521
G1 X79.059 Y81.127 E18.78719
G1 X79.351 Y80.521 E18.79915
G1 X79.714 Y79.953 E18.81113
G1 X80.141 Y79.433 E18.82309
M204 S625
M205 X6 Y6
G0 F4285.7 X80.534 Y79.63
M204 S500
M205 X5 Y5
G1 F1200 X81.19 Y79.057 E18.83857
G1 X81.44 Y78.873 E18.84409
G1 X81.984 Y78.522 E18.8556
G1 X82.568 Y78.24 E18.86713
G1 X83.182 Y78.033 E18.87864
G1 X83.816 Y77.903 E18.89015
G1 X84.462 Y77.852 E18.90167
G1 X85.351 Y77.912 E18.91751
G1 X92.497 Y79.013 E19.04603
G1 X92.634 Y78.387 E19.05742
G1 X92.85 Y77.776 E19.06894
G1 X93.139 Y77.196 E19.08046
G1 X93.497 Y76.656 E19.09198
G1 X93.919 Y76.165 E19.10349
G1 X94.567 Y75.599 E19.11878
G1 X94.815 Y75.416 E19.12426
G1 X95.359 Y75.064 E19.13578
G1 X95.942 Y74.782 E19.14729
G1 X96.555 Y74.574 E19.1588
G1 X97.19 Y74.443 E19.17032
G1 X97.835 Y74.391 E19.18183
G1 X98.73 Y74.451 E19.19777
G1 X118.351 Y77.47 E19.55066
G1 X118.984 Y77.608 E19.56217
