;START_OF_HEADER
;HEADER_VERSION:0.1
;FLAVOR:Griffin
;GENERATOR.NAME:Cura_SteamEngine
;GENERATOR.VERSION:3.6.0
;GENERATOR.BUILD_DATE:2018-11-12
;TARGET_MACHINE.NAME:Ultimaker 3
;EXTRUDER_TRAIN.0.INITIAL_TEMPERATURE:217
;EXTRUDER_TRAIN.0.MATERIAL.VOLUME_USED:3059
;EXTRUDER_TRAIN.0.MATERIAL.GUID:44a029e6-e31b-4c9e-a12f-9282e29a92ff
;EXTRUDER_TRAIN.0.NOZZLE.DIAMETER:0.4
;EXTRUDER_TRAIN.0.NOZZLE.NAME:AA 0.4
;BUILD_PLATE.TYPE:glass
;BUILD_PLATE.INITIAL_TEMPERATURE:60
;PRINT.TIME:4425
;PRINT.SIZE.MIN.X:9
;PRINT.SIZE.MIN.Y:6
;PRINT.SIZE.MIN.Z:0.27
;PRINT.SIZE.MAX.X:127.852
;PRINT.SIZE.MAX.Y:122.852
;PRINT.SIZE.MAX.Z:33.07
;END_OF_HEADER
;Generated with Cura_SteamEngine 3.6.0
T0
M82 ;absolute extrusion mode

G92 E0
M109 S217
G0 F15000 X9 Y6 Z2
G280
G1 F1500 E-6.5
;LAYER_COUNT:329
;LAYER:0
M107
M204 S625
M205 X6 Y6
G0 F4285.7 X107.095 Y100.042 Z0.27
M204 S500
M205 X5 Y5
;TYPE:SKIRT
G1 F1500 E0
G1 F1200 X108.101 Y99.001 E0.02573
G1 X108.646 Y98.495 E0.03895
G1 X109.242 Y98.049 E0.05219
G1 X109.883 Y97.671 E0.06541
G1 X110.561 Y97.363 E0.07865
G1 X111.268 Y97.129 E0.09189
G1 X111.995 Y96.973 E0.10511
G1 X113.084 Y96.887 E0.12452
G1 X119.916 Y96.887 E0.24597
G1 X120.659 Y96.927 E0.2592
G1 X121.394 Y97.046 E0.27243
G1 X122.112 Y97.244 E0.28567
G1 X122.804 Y97.517 E0.2989
G1 X123.463 Y97.863 E0.31213
G1 X124.081 Y98.278 E0.32536
G1 X124.899 Y99.001 E0.34477
G1 X125.905 Y100.042 E0.3705
G1 X126.393 Y100.604 E0.38373
G1 X126.818 Y101.216 E0.39697
G1 X127.174 Y101.869 E0.4102
G1 X127.459 Y102.557 E0.42343
G1 X127.668 Y103.271 E0.43666
G1 X127.799 Y104.004 E0.44989
G1 X127.852 Y104.858 E0.4651
G1 X127.852 Y105.976 E0.48498
G1 X127.812 Y106.719 E0.4982
G1 X127.693 Y107.454 E0.51144
G1 X127.676 Y107.515 E0.51257
G1 X127.748 Y107.825 E0.51822
G1 X127.837 Y108.564 E0.53145
G1 X127.852 Y109.024 E0.53963
G1 X127.852 Y110.142 E0.55951
G1 X127.812 Y110.885 E0.57274
G1 X127.693 Y111.62 E0.58597
G1 X127.495 Y112.338 E0.59921
G1 X127.222 Y113.03 E0.61243
G1 X126.876 Y113.689 E0.62566
G1 X126.461 Y114.307 E0.6389
G1 X125.905 Y114.958 E0.65412
G1 X124.899 Y115.999 E0.67985
G1 X124.354 Y116.505 E0.69307
G1 X123.758 Y116.951 E0.7063
G1 X123.117 Y117.329 E0.71953
G1 X122.439 Y117.637 E0.73277
G1 X121.732 Y117.871 E0.746
G1 X121.005 Y118.027 E0.75922
G1 X119.916 Y118.113 E0.77864
G1 X113.084 Y118.113 E0.90009
G1 X112.341 Y118.073 E0.91331
G1 X111.606 Y117.954 E0.92655
G1 X110.888 Y117.756 E0.93979
G1 X110.196 Y117.483 E0.95301
G1 X109.537 Y117.137 E0.96624
G1 X108.919 Y116.722 E0.97947
G1 X108.101 Y115.999 E0.99888
G1 X107.095 Y114.958 E1.02461
G1 X106.607 Y114.396 E1.03785
G1 X106.182 Y113.784 E1.05109
G1 X105.826 Y113.131 E1.06431
G1 X105.541 Y112.443 E1.07755
G1 X105.332 Y111.729 E1.09077
G1 X105.201 Y110.996 E1.10401
G1 X105.148 Y110.142 E1.11922
G1 X105.148 Y109.024 E1.13909
G1 X105.188 Y108.281 E1.15232
G1 X105.307 Y107.546 E1.16555
G1 X105.324 Y107.485 E1.16668
G1 X105.252 Y107.175 E1.17234
G1 X105.163 Y106.436 E1.18557
G1 X105.148 Y105.976 E1.19375
G1 X105.148 Y104.858 E1.21362
G1 X105.188 Y104.115 E1.22685
G1 X105.307 Y103.38 E1.24009
G1 X105.505 Y102.662 E1.25333
G1 X105.778 Y101.97 E1.26655
G1 X106.124 Y101.311 E1.27978
G1 X106.539 Y100.693 E1.29301
G1 X107.095 Y100.042 E1.30823
M204 S625
M205 X6 Y6
G0 F4285.7 X107.397 Y100.334
M204 S500
M205 X5 Y5
G1 F1200 X108.403 Y99.293 E1.33396
G1 X108.932 Y98.803 E1.34678
G1 X109.512 Y98.374 E1.35961
G1 X110.136 Y98.013 E1.37242
G1 X110.797 Y97.722 E1.38526
G1 X111.485 Y97.506 E1.39808
G1 X112.193 Y97.368 E1.4109
G1 X113.084 Y97.307 E1.42678
G1 X119.916 Y97.307 E1.54822
G1 X120.636 Y97.347 E1.56104
G1 X121.348 Y97.466 E1.57387
G1 X122.042 Y97.664 E1.5867
G1 X122.709 Y97.937 E1.59951
G1 X123.343 Y98.282 E1.61234
G1 X123.934 Y98.695 E1.62516
G1 X124.597 Y99.293 E1.64103
G1 X125.603 Y100.334 E1.66676
G1 X126.075 Y100.88 E1.67959
G1 X126.484 Y101.474 E1.69241
G1 X126.824 Y102.111 E1.70525
G1 X127.092 Y102.78 E1.71806
G1 X127.284 Y103.476 E1.73089
G1 X127.397 Y104.188 E1.74371
G1 X127.432 Y104.858 E1.75563
G1 X127.432 Y105.976 E1.77551
G1 X127.392 Y106.696 E1.78833
G1 X127.273 Y107.408 E1.80116
G1 X127.249 Y107.493 E1.80273
G1 X127.377 Y108.183 E1.8152
G1 X127.432 Y109.024 E1.83018
G1 X127.432 Y110.142 E1.85006
G1 X127.392 Y110.862 E1.86288
G1 X127.273 Y111.574 E1.87571
G1 X127.075 Y112.268 E1.88854
G1 X126.802 Y112.935 E1.90135
G1 X126.457 Y113.569 E1.91418
G1 X126.044 Y114.16 E1.927
G1 X125.603 Y114.666 E1.93893
G1 X124.597 Y115.707 E1.96466
G1 X124.068 Y116.197 E1.97748
G1 X123.488 Y116.626 E1.9903
G1 X122.864 Y116.987 E2.00312
G1 X122.203 Y117.278 E2.01595
G1 X121.515 Y117.494 E2.02877
G1 X120.807 Y117.632 E2.0416
G1 X119.916 Y117.693 E2.05747
G1 X113.084 Y117.693 E2.17892
G1 X112.364 Y117.653 E2.19173
G1 X111.652 Y117.534 E2.20457
G1 X110.958 Y117.336 E2.2174
G1 X110.291 Y117.063 E2.23021
G1 X109.657 Y116.718 E2.24304
G1 X109.066 Y116.305 E2.25585
G1 X108.403 Y115.707 E2.27173
G1 X107.397 Y114.666 E2.29746
G1 X106.925 Y114.12 E2.31029
G1 X106.516 Y113.526 E2.32311
G1 X106.176 Y112.889 E2.33594
G1 X105.908 Y112.22 E2.34875
G1 X105.716 Y111.524 E2.36159
G1 X105.603 Y110.812 E2.3744
G1 X105.568 Y110.142 E2.38633
G1 X105.568 Y109.024 E2.4062
G1 X105.608 Y108.304 E2.41902
G1 X105.727 Y107.592 E2.43185
G1 X105.751 Y107.507 E2.43342
G1 X105.623 Y106.817 E2.4459
G1 X105.568 Y105.976 E2.46088
G1 X105.568 Y104.858 E2.48075
G1 X105.608 Y104.138 E2.49357
G1 X105.727 Y103.426 E2.5064
G1 X105.925 Y102.732 E2.51923
G1 X106.198 Y102.065 E2.53204
G1 X106.543 Y101.431 E2.54487
G1 X106.956 Y100.84 E2.55769
G1 X107.397 Y100.334 E2.56962
M204 S625
M205 X6 Y6
G0 F4285.7 X107.699 Y100.626
M204 S500
M205 X5 Y5
G1 F1200 X108.705 Y99.585 E2.59536
G1 X109.218 Y99.112 E2.60776
G1 X109.781 Y98.7 E2.62016
G1 X110.388 Y98.356 E2.63256
G1 X111.03 Y98.084 E2.64496
G1 X111.699 Y97.886 E2.65736
G1 X112.387 Y97.767 E2.66977
G1 X113.084 Y97.727 E2.68218
G1 X119.916 Y97.727 E2.80363
G1 X120.613 Y97.767 E2.81604
G1 X121.3 Y97.886 E2.82843
G1 X121.969 Y98.084 E2.84083
G1 X122.612 Y98.356 E2.85324
G1 X123.218 Y98.7 E2.86563
G1 X123.782 Y99.112 E2.87805
G1 X124.295 Y99.585 E2.89045
G1 X125.301 Y100.626 E2.91618
G1 X125.757 Y101.155 E2.9286
G1 X126.148 Y101.732 E2.94099
G1 X126.472 Y102.35 E2.95339
G1 X126.722 Y103.001 E2.96579
G1 X126.896 Y103.677 E2.9782
G1 X126.992 Y104.368 E2.9906
G1 X127.012 Y104.858 E2.99931
G1 X127.012 Y105.976 E3.01919
G1 X126.972 Y106.673 E3.0316
G1 X126.853 Y107.36 E3.04399
G1 X126.81 Y107.507 E3.04672
G1 X126.896 Y107.843 E3.05288
G1 X126.992 Y108.534 E3.06528
G1 X127.012 Y109.024 E3.074
G1 X127.012 Y110.142 E3.09387
G1 X126.972 Y110.839 E3.10628
G1 X126.853 Y111.526 E3.11868
G1 X126.655 Y112.195 E3.13108
G1 X126.383 Y112.838 E3.14349
G1 X126.039 Y113.444 E3.15588
G1 X125.627 Y114.008 E3.16829
G1 X125.301 Y114.374 E3.177
G1 X124.295 Y115.415 E3.20274
G1 X123.782 Y115.888 E3.21514
G1 X123.219 Y116.3 E3.22754
G1 X122.612 Y116.644 E3.23995
G1 X121.97 Y116.916 E3.25234
G1 X121.301 Y117.114 E3.26474
G1 X120.613 Y117.233 E3.27715
G1 X119.916 Y117.273 E3.28956
G1 X113.084 Y117.273 E3.41101
G1 X112.387 Y117.233 E3.42342
G1 X111.7 Y117.114 E3.43581
G1 X111.031 Y116.916 E3.44822
G1 X110.388 Y116.644 E3.46063
G1 X109.782 Y116.3 E3.47301
G1 X109.218 Y115.888 E3.48543
G1 X108.705 Y115.415 E3.49783
G1 X107.699 Y114.374 E3.52357
G1 X107.243 Y113.845 E3.53598
G1 X106.852 Y113.268 E3.54837
G1 X106.528 Y112.65 E3.56077
G1 X106.278 Y111.999 E3.57317
G1 X106.104 Y111.323 E3.58558
G1 X106.008 Y110.632 E3.59798
G1 X105.988 Y110.142 E3.6067
G1 X105.988 Y109.024 E3.62657
G1 X106.028 Y108.327 E3.63898
G1 X106.147 Y107.64 E3.65137
G1 X106.19 Y107.493 E3.6541
G1 X106.104 Y107.157 E3.66026
G1 X106.008 Y106.466 E3.67266
G1 X105.988 Y105.976 E3.68138
G1 X105.988 Y104.858 E3.70126
G1 X106.028 Y104.161 E3.71367
G1 X106.147 Y103.474 E3.72606
G1 X106.345 Y102.805 E3.73846
G1 X106.617 Y102.162 E3.75087
G1 X106.961 Y101.556 E3.76326
G1 X107.373 Y100.992 E3.77567
G1 X107.699 Y100.626 E3.78439
M204 S625
M205 X6 Y6
G0 F4285.7 X108.001 Y100.918
M204 S500
M205 X5 Y5
G1 F1200 X109.007 Y99.877 E3.81012
G1 X109.502 Y99.421 E3.82208
G1 X110.049 Y99.028 E3.83406
G1 X110.638 Y98.702 E3.84602
G1 X111.261 Y98.448 E3.85798
G1 X111.91 Y98.27 E3.86995
G1 X112.576 Y98.17 E3.88192
G1 X113.084 Y98.147 E3.89096
G1 X119.916 Y98.147 E4.0124
G1 X120.588 Y98.187 E4.02437
G1 X121.251 Y98.306 E4.03634
G1 X121.894 Y98.503 E4.0483
G1 X122.51 Y98.775 E4.06027
G1 X123.089 Y99.118 E4.07223
G1 X123.624 Y99.527 E4.0842
G1 X123.993 Y99.877 E4.09324
G1 X124.999 Y100.918 E4.11897
G1 X125.438 Y101.429 E4.13095
G1 X125.812 Y101.988 E4.14291
G1 X126.118 Y102.588 E4.15488
G1 X126.35 Y103.22 E4.16685
G1 X126.506 Y103.875 E4.17881
G1 X126.592 Y104.858 E4.19636
G1 X126.592 Y105.976 E4.21623
G1 X126.552 Y106.648 E4.2282
G1 X126.433 Y107.311 E4.24017
G1 X126.378 Y107.49 E4.2435
G1 X126.396 Y107.544 E4.24451
G1 X126.532 Y108.204 E4.25649
G1 X126.592 Y109.024 E4.2711
G1 X126.592 Y110.142 E4.29098
G1 X126.552 Y110.814 E4.30294
G1 X126.433 Y111.477 E4.31492
G1 X126.236 Y112.12 E4.32687
G1 X125.964 Y112.736 E4.33884
G1 X125.621 Y113.315 E4.3508
G1 X124.999 Y114.082 E4.36836
G1 X123.993 Y115.123 E4.39409
G1 X123.498 Y115.579 E4.40606
G1 X122.951 Y115.972 E4.41803
G1 X122.362 Y116.298 E4.43
G1 X121.739 Y116.552 E4.44195
G1 X121.09 Y116.73 E4.45392
G1 X120.424 Y116.83 E4.46589
G1 X119.916 Y116.853 E4.47493
G1 X113.084 Y116.853 E4.59637
G1 X112.412 Y116.813 E4.60834
G1 X111.749 Y116.694 E4.62031
G1 X111.106 Y116.497 E4.63227
G1 X110.49 Y116.225 E4.64424
G1 X109.911 Y115.882 E4.6562
G1 X109.376 Y115.473 E4.66817
G1 X109.007 Y115.123 E4.67721
G1 X108.001 Y114.082 E4.70295
G1 X107.562 Y113.571 E4.71492
G1 X107.188 Y113.012 E4.72688
G1 X106.882 Y112.412 E4.73885
G1 X106.65 Y111.78 E4.75082
G1 X106.494 Y111.125 E4.76279
G1 X106.408 Y110.142 E4.78033
G1 X106.408 Y109.024 E4.8002
G1 X106.448 Y108.352 E4.81217
G1 X106.567 Y107.689 E4.82414
G1 X106.622 Y107.51 E4.82747
G1 X106.604 Y107.456 E4.82848
G1 X106.468 Y106.796 E4.84046
G1 X106.408 Y105.976 E4.85508
G1 X106.408 Y104.858 E4.87495
G1 X106.448 Y104.186 E4.88692
G1 X106.567 Y103.523 E4.89889
G1 X106.764 Y102.88 E4.91084
G1 X107.036 Y102.264 E4.92281
G1 X107.379 Y101.685 E4.93478
G1 X108.001 Y100.918 E4.95233
M204 S625
M205 X6 Y6
G0 F4285.7 X108.303 Y101.21
M204 S500
M205 X5 Y5
G1 F1200 X109.309 Y100.169 E4.97806
G1 X109.787 Y99.732 E4.98958
G1 X110.315 Y99.357 E5.00109
G1 X110.885 Y99.05 E5.0126
G1 X111.489 Y98.815 E5.02412
G1 X112.117 Y98.657 E5.03563
G1 X113.084 Y98.567 E5.05289
G1 X119.916 Y98.567 E5.17434
G1 X120.563 Y98.607 E5.18586
G1 X121.199 Y98.726 E5.19736
G1 X121.816 Y98.923 E5.20888
G1 X122.405 Y99.194 E5.2204
G1 X122.955 Y99.536 E5.23191
G1 X123.691 Y100.169 E5.24917
G1 X124.697 Y101.21 E5.2749
G1 X125.118 Y101.702 E5.28641
G1 X125.474 Y102.243 E5.29793
G1 X125.762 Y102.824 E5.30945
G1 X125.976 Y103.435 E5.32096
G1 X126.112 Y104.068 E5.33247
G1 X126.172 Y104.858 E5.34655
G1 X126.172 Y105.976 E5.36643
G1 X126.132 Y106.623 E5.37795
G1 X126.013 Y107.259 E5.38945
G1 X125.936 Y107.499 E5.39393
G1 X126.054 Y107.916 E5.40164
G1 X126.151 Y108.556 E5.41314
G1 X126.172 Y109.024 E5.42147
G1 X126.172 Y110.142 E5.44134
G1 X126.132 Y110.789 E5.45287
G1 X126.013 Y111.425 E5.46437
G1 X125.816 Y112.042 E5.47588
G1 X125.545 Y112.631 E5.48741
G1 X125.203 Y113.181 E5.49892
G1 X124.697 Y113.79 E5.51299
G1 X123.691 Y114.831 E5.53873
G1 X123.213 Y115.268 E5.55024
G1 X122.685 Y115.643 E5.56175
G1 X122.115 Y115.95 E5.57326
G1 X121.511 Y116.185 E5.58478
G1 X120.883 Y116.343 E5.59629
G1 X119.916 Y116.433 E5.61356
G1 X113.084 Y116.433 E5.735
G1 X112.437 Y116.393 E5.74653
G1 X111.801 Y116.274 E5.75803
G1 X111.184 Y116.077 E5.76954
G1 X110.595 Y115.806 E5.78107
G1 X110.045 Y115.464 E5.79258
G1 X109.309 Y114.831 E5.80983
G1 X108.303 Y113.79 E5.83557
G1 X107.882 Y113.298 E5.84708
G1 X107.526 Y112.757 E5.85859
G1 X107.238 Y112.176 E5.87012
G1 X107.024 Y111.565 E5.88163
G1 X106.888 Y110.932 E5.89313
G1 X106.828 Y110.142 E5.90722
G1 X106.828 Y109.024 E5.92709
G1 X106.868 Y108.377 E5.93861
G1 X106.987 Y107.741 E5.95012
G1 X107.064 Y107.501 E5.9546
G1 X106.946 Y107.084 E5.9623
G1 X106.849 Y106.444 E5.97381
G1 X106.828 Y105.976 E5.98213
G1 X106.828 Y104.858 E6.00201
G1 X106.868 Y104.211 E6.01353
G1 X106.987 Y103.575 E6.02503
G1 X107.184 Y102.958 E6.03655
G1 X107.455 Y102.369 E6.04807
G1 X107.797 Y101.819 E6.05958
G1 X108.303 Y101.21 E6.07366
M204 S625
M205 X6 Y6
G0 F4285.7 X108.605 Y101.502
M204 S500
M205 X5 Y5
G1 F1200 X109.611 Y100.461 E6.09939
G1 X110.07 Y100.042 E6.11044
G1 X110.58 Y99.687 E6.12149
G1 X111.131 Y99.4 E6.13253
G1 X111.714 Y99.185 E6.14358
G1 X112.32 Y99.048 E6.15462
G1 X113.084 Y98.987 E6.16824
G1 X119.916 Y98.987 E6.28969
G1 X120.536 Y99.027 E6.30073
G1 X121.146 Y99.146 E6.31178
G1 X121.735 Y99.343 E6.32282
G1 X122.294 Y99.613 E6.33386
G1 X122.814 Y99.953 E6.3449
G1 X123.389 Y100.461 E6.35854
G1 X124.395 Y101.502 E6.38427
G1 X124.797 Y101.975 E6.39531
G1 X125.135 Y102.496 E6.40635
G1 X125.404 Y103.057 E6.41741
G1 X125.598 Y103.647 E6.42845
G1 X125.714 Y104.257 E6.43948
G1 X125.752 Y104.858 E6.45019
G1 X125.752 Y105.976 E6.47006
G1 X125.712 Y106.596 E6.48111
G1 X125.593 Y107.206 E6.49215
G1 X125.495 Y107.498 E6.49763
G1 X125.559 Y107.673 E6.50094
G1 X125.694 Y108.279 E6.51198
G1 X125.752 Y109.024 E6.52526
G1 X125.752 Y110.142 E6.54513
G1 X125.712 Y110.762 E6.55618
G1 X125.593 Y111.372 E6.56723
G1 X125.396 Y111.961 E6.57827
G1 X125.126 Y112.52 E6.5893
G1 X124.786 Y113.04 E6.60035
G1 X124.395 Y113.498 E6.61105
G1 X123.389 Y114.539 E6.63678
G1 X122.93 Y114.958 E6.64783
G1 X122.42 Y115.313 E6.65888
G1 X121.869 Y115.6 E6.66992
G1 X121.286 Y115.815 E6.68097
G1 X120.68 Y115.952 E6.69201
G1 X119.916 Y116.013 E6.70563
G1 X113.084 Y116.013 E6.82708
G1 X112.464 Y115.973 E6.83812
G1 X111.854 Y115.854 E6.84917
G1 X111.265 Y115.657 E6.86021
G1 X110.706 Y115.387 E6.87125
G1 X110.186 Y115.047 E6.88229
G1 X109.611 Y114.539 E6.89593
G1 X108.605 Y113.498 E6.92166
G1 X108.203 Y113.025 E6.9327
G1 X107.865 Y112.504 E6.94374
G1 X107.596 Y111.943 E6.9548
G1 X107.402 Y111.353 E6.96584
G1 X107.286 Y110.743 E6.97687
G1 X107.248 Y110.142 E6.98758
G1 X107.248 Y109.024 E7.00745
G1 X107.288 Y108.404 E7.0185
G1 X107.407 Y107.794 E7.02954
G1 X107.505 Y107.502 E7.03502
G1 X107.441 Y107.327 E7.03833
G1 X107.306 Y106.721 E7.04937
G1 X107.248 Y105.976 E7.06265
G1 X107.248 Y104.858 E7.08252
G1 X107.288 Y104.238 E7.09357
G1 X107.407 Y103.628 E7.10462
G1 X107.604 Y103.039 E7.11566
G1 X107.874 Y102.48 E7.12669
G1 X108.214 Y101.96 E7.13774
G1 X108.605 Y101.502 E7.14844
M204 S625
M205 X6 Y6
G0 F4285.7 X108.907 Y101.793
M204 S500
M205 X5 Y5
G1 F1200 X109.913 Y100.752 E7.17417
G1 X110.353 Y100.354 E7.18472
G1 X110.843 Y100.019 E7.19527
G1 X111.373 Y99.752 E7.20582
G1 X111.935 Y99.559 E7.21638
G1 X112.517 Y99.444 E7.22693
G1 X113.084 Y99.407 E7.23703
G1 X119.916 Y99.407 E7.35848
G1 X120.508 Y99.447 E7.36902
G1 X121.09 Y99.566 E7.37958
G1 X121.65 Y99.762 E7.39013
G1 X122.179 Y100.032 E7.40069
G1 X122.667 Y100.37 E7.41124
G1 X123.087 Y100.752 E7.42133
G1 X124.093 Y101.793 E7.44706
G1 X124.476 Y102.247 E7.45762
G1 X124.795 Y102.748 E7.46818
G1 X125.043 Y103.287 E7.47873
G1 X125.216 Y103.855 E7.48928
G1 X125.312 Y104.441 E7.49984
G1 X125.332 Y104.858 E7.50726
G1 X125.332 Y105.976 E7.52713
G1 X125.292 Y106.568 E7.53768
G1 X125.173 Y107.15 E7.54824
G1 X125.055 Y107.487 E7.55459
G1 X125.222 Y108.046 E7.56496
G1 X125.315 Y108.632 E7.5755
G1 X125.332 Y109.024 E7.58248
G1 X125.332 Y110.142 E7.60235
G1 X125.292 Y110.734 E7.6129
G1 X125.173 Y111.316 E7.62346
G1 X124.977 Y111.876 E7.63401
G1 X124.707 Y112.405 E7.64456
G1 X124.369 Y112.893 E7.65512
G1 X124.093 Y113.207 E7.66255
G1 X123.087 Y114.248 E7.68828
G1 X122.647 Y114.646 E7.69883
G1 X122.157 Y114.981 E7.70938
G1 X121.627 Y115.248 E7.71993
G1 X121.065 Y115.441 E7.73049
G1 X120.483 Y115.556 E7.74104
G1 X119.916 Y115.593 E7.75114
G1 X113.084 Y115.593 E7.87258
G1 X112.492 Y115.553 E7.88313
G1 X111.91 Y115.434 E7.89369
G1 X111.35 Y115.238 E7.90424
G1 X110.821 Y114.968 E7.91479
G1 X110.333 Y114.63 E7.92535
G1 X109.913 Y114.248 E7.93544
