;START_OF_HEADER
;HEADER_VERSION:0.1
;FLAVOR:Griffin
;GENERATOR.NAME:Cura_SteamEngine
;GENERATOR.VERSION:3.6.0
;GENERATOR.BUILD_DATE:2018-11-12
;TARGET_MACHINE.NAME:Ultimaker 3
;EXTRUDER_TRAIN.0.INITIAL_TEMPERATURE:205
;EXTRUDER_TRAIN.0.MATERIAL.VOLUME_USED:4463
;EXTRUDER_TRAIN.0.MATERIAL.GUID:506c9f0d-e3aa-4bd4-b2d2-23e2425b1aa9
;EXTRUDER_TRAIN.0.NOZZLE.DIAMETER:0.4
;EXTRUDER_TRAIN.0.NOZZLE.NAME:AA 0.4
;BUILD_PLATE.TYPE:glass
;BUILD_PLATE.INITIAL_TEMPERATURE:60
;PRINT.TIME:5154
;PRINT.SIZE.MIN.X:9
;PRINT.SIZE.MIN.Y:6
;PRINT.SIZE.MIN.Z:0.27
;PRINT.SIZE.MAX.X:90.058
;PRINT.SIZE.MAX.Y:133.32
;PRINT.SIZE.MAX.Z:21.17
;END_OF_HEADER
;Generated with Cura_SteamEngine 3.6.0
T0
M82 ;absolute extrusion mode

G92 E0
M109 S205
G0 F15000 X9 Y6 Z2
G280
G1 F1500 E-6.5
;LAYER_COUNT:210
;LAYER:0
M107
M204 S625
M205 X6 Y6
G0 F4285.7 X66.189 Y91.635 Z0.27
M204 S500
M205 X5 Y5
;TYPE:SKIRT
G1 F1500 E0
G1 F1200 X66.823 Y91.246 E0.01322
G1 X67.496 Y90.927 E0.02646
G1 X68.199 Y90.682 E0.03969
G1 X68.924 Y90.514 E0.05292
G1 X69.663 Y90.425 E0.06616
G1 X70.123 Y90.41 E0.07434
G1 X83.128 Y90.41 E0.30551
G1 X83.871 Y90.45 E0.31874
G1 X84.606 Y90.569 E0.33198
G1 X85.324 Y90.767 E0.34522
G1 X86.016 Y91.04 E0.35844
G1 X86.675 Y91.386 E0.37167
G1 X87.293 Y91.801 E0.3849
G1 X87.863 Y92.28 E0.39814
G1 X88.378 Y92.817 E0.41136
G1 X88.833 Y93.406 E0.42459
G1 X89.222 Y94.04 E0.43782
G1 X89.541 Y94.713 E0.45105
G1 X89.786 Y95.416 E0.46429
G1 X89.954 Y96.141 E0.47752
G1 X90.043 Y96.88 E0.49075
G1 X90.058 Y97.34 E0.49893
G1 X90.058 Y117.66 E0.86014
G1 X90.018 Y118.403 E0.87336
G1 X89.899 Y119.138 E0.8866
G1 X89.701 Y119.856 E0.89984
G1 X89.428 Y120.548 E0.91306
G1 X89.082 Y121.207 E0.92629
G1 X88.667 Y121.825 E0.93953
G1 X88.188 Y122.395 E0.95276
G1 X87.651 Y122.91 E0.96599
G1 X87.062 Y123.365 E0.97922
G1 X86.428 Y123.754 E0.99244
G1 X85.755 Y124.073 E1.00568
G1 X85.052 Y124.318 E1.01891
G1 X84.327 Y124.486 E1.03214
G1 X83.588 Y124.575 E1.04537
G1 X83.128 Y124.59 E1.05355
G1 X70.123 Y124.59 E1.28473
G1 X69.38 Y124.55 E1.29796
G1 X68.645 Y124.431 E1.31119
G1 X67.927 Y124.233 E1.32443
G1 X67.235 Y123.96 E1.33766
G1 X66.576 Y123.614 E1.35089
G1 X65.958 Y123.199 E1.36412
G1 X65.388 Y122.72 E1.37735
G1 X64.873 Y122.183 E1.39058
G1 X64.418 Y121.594 E1.40381
G1 X64.029 Y120.96 E1.41703
G1 X63.71 Y120.287 E1.43027
G1 X63.465 Y119.584 E1.44351
G1 X63.297 Y118.859 E1.45674
G1 X63.208 Y118.12 E1.46997
G1 X63.193 Y117.66 E1.47815
G1 X63.193 Y97.34 E1.83936
G1 X63.233 Y96.597 E1.85258
G1 X63.352 Y95.862 E1.86582
G1 X63.55 Y95.144 E1.87906
G1 X63.823 Y94.452 E1.89228
G1 X64.169 Y93.793 E1.90551
G1 X64.584 Y93.175 E1.91874
G1 X65.063 Y92.605 E1.93198
G1 X65.6 Y92.09 E1.94521
G1 X66.189 Y91.635 E1.95844
M204 S625
M205 X6 Y6
G0 F4285.7 X66.594 Y91.87
M204 S500
M205 X5 Y5
G1 F1200 X67.221 Y91.513 E1.97126
G1 X67.883 Y91.227 E1.98408
G1 X68.573 Y91.017 E1.9969
G1 X69.282 Y90.885 E2.00972
G1 X70.123 Y90.83 E2.0247
G1 X83.128 Y90.83 E2.25588
G1 X83.848 Y90.87 E2.2687
G1 X84.56 Y90.989 E2.28153
G1 X85.254 Y91.187 E2.29436
G1 X85.921 Y91.46 E2.30717
G1 X86.555 Y91.805 E2.32
G1 X87.146 Y92.218 E2.33282
G1 X87.688 Y92.694 E2.34564
G1 X88.174 Y93.227 E2.35846
G1 X88.598 Y93.811 E2.37129
G1 X88.955 Y94.438 E2.38412
G1 X89.241 Y95.1 E2.39693
G1 X89.451 Y95.79 E2.40976
G1 X89.583 Y96.499 E2.42257
G1 X89.638 Y97.34 E2.43756
G1 X89.638 Y117.66 E2.79876
G1 X89.598 Y118.38 E2.81158
G1 X89.479 Y119.092 E2.82441
G1 X89.281 Y119.786 E2.83724
G1 X89.008 Y120.453 E2.85005
G1 X88.663 Y121.087 E2.86289
G1 X88.25 Y121.678 E2.8757
G1 X87.774 Y122.22 E2.88852
G1 X87.241 Y122.706 E2.90135
G1 X86.657 Y123.13 E2.91418
G1 X86.03 Y123.487 E2.927
G1 X85.368 Y123.773 E2.93982
G1 X84.678 Y123.983 E2.95264
G1 X83.969 Y124.115 E2.96546
G1 X83.128 Y124.17 E2.98044
G1 X70.123 Y124.17 E3.21162
G1 X69.403 Y124.13 E3.22444
G1 X68.691 Y124.011 E3.23727
G1 X67.997 Y123.813 E3.2501
G1 X67.33 Y123.54 E3.26291
G1 X66.696 Y123.195 E3.27574
G1 X66.105 Y122.782 E3.28856
G1 X65.563 Y122.306 E3.30138
G1 X65.077 Y121.773 E3.3142
G1 X64.653 Y121.189 E3.32703
G1 X64.296 Y120.562 E3.33985
G1 X64.01 Y119.9 E3.35267
G1 X63.8 Y119.21 E3.36549
G1 X63.668 Y118.501 E3.37831
G1 X63.613 Y117.66 E3.3933
G1 X63.613 Y97.34 E3.7545
G1 X63.653 Y96.62 E3.76732
G1 X63.772 Y95.908 E3.78015
G1 X63.97 Y95.214 E3.79298
G1 X64.243 Y94.547 E3.80579
G1 X64.588 Y93.913 E3.81862
G1 X65.001 Y93.322 E3.83144
G1 X65.477 Y92.78 E3.84426
G1 X66.01 Y92.294 E3.85709
G1 X66.594 Y91.87 E3.86991
M204 S625
M205 X6 Y6
G0 F4285.7 X66.419 Y92.506
M204 S500
M205 X5 Y5
G1 F1200 X66.996 Y92.114 E3.88231
G1 X67.615 Y91.791 E3.89473
G1 X68.266 Y91.54 E3.90713
G1 X68.942 Y91.366 E3.91954
G1 X69.633 Y91.27 E3.93194
G1 X70.123 Y91.25 E3.94066
G1 X83.128 Y91.25 E4.17183
G1 X83.825 Y91.29 E4.18424
G1 X84.512 Y91.409 E4.19664
G1 X85.181 Y91.607 E4.20904
G1 X85.824 Y91.879 E4.22145
G1 X86.43 Y92.223 E4.23384
G1 X86.994 Y92.635 E4.24625
G1 X87.507 Y93.108 E4.25865
G1 X87.962 Y93.636 E4.27104
G1 X88.354 Y94.213 E4.28344
G1 X88.677 Y94.832 E4.29586
G1 X88.928 Y95.483 E4.30826
G1 X89.102 Y96.159 E4.32067
G1 X89.198 Y96.85 E4.33307
G1 X89.218 Y97.34 E4.34179
G1 X89.218 Y117.66 E4.70299
G1 X89.178 Y118.357 E4.7154
G1 X89.059 Y119.044 E4.7278
G1 X88.861 Y119.713 E4.7402
G1 X88.589 Y120.356 E4.75261
G1 X88.245 Y120.962 E4.765
G1 X87.833 Y121.526 E4.77741
G1 X87.36 Y122.039 E4.78982
G1 X86.832 Y122.494 E4.80221
G1 X86.255 Y122.886 E4.81461
G1 X85.636 Y123.209 E4.82702
G1 X84.985 Y123.46 E4.83942
G1 X84.309 Y123.634 E4.85183
G1 X83.618 Y123.73 E4.86423
G1 X83.128 Y123.75 E4.87295
G1 X70.123 Y123.75 E5.10412
G1 X69.426 Y123.71 E5.11653
G1 X68.739 Y123.591 E5.12893
G1 X68.07 Y123.393 E5.14133
G1 X67.427 Y123.121 E5.15374
G1 X66.821 Y122.777 E5.16613
G1 X66.257 Y122.365 E5.17854
G1 X65.744 Y121.892 E5.19095
G1 X65.289 Y121.364 E5.20334
G1 X64.897 Y120.787 E5.21574
G1 X64.574 Y120.168 E5.22815
G1 X64.323 Y119.517 E5.24055
G1 X64.149 Y118.841 E5.25296
G1 X64.053 Y118.15 E5.26536
G1 X64.033 Y117.66 E5.27408
G1 X64.033 Y97.34 E5.63528
G1 X64.073 Y96.643 E5.64769
G1 X64.192 Y95.956 E5.66009
G1 X64.39 Y95.287 E5.67249
G1 X64.662 Y94.644 E5.6849
G1 X65.006 Y94.038 E5.69729
G1 X65.418 Y93.474 E5.7097
G1 X65.891 Y92.961 E5.72211
G1 X66.419 Y92.506 E5.7345
M204 S625
M205 X6 Y6
G0 F4285.7 X66.827 Y92.727
M204 S500
M205 X5 Y5
G1 F1200 X67.397 Y92.368 E5.74647
G1 X68.005 Y92.08 E5.75843
G1 X68.643 Y91.866 E5.77039
G1 X69.303 Y91.73 E5.78237
G1 X70.123 Y91.67 E5.79699
G1 X83.128 Y91.67 E6.02816
G1 X83.8 Y91.71 E6.04013
G1 X84.463 Y91.829 E6.0521
G1 X85.106 Y92.026 E6.06406
G1 X85.722 Y92.298 E6.07603
G1 X86.301 Y92.641 E6.08799
G1 X86.836 Y93.05 E6.09996
G1 X87.318 Y93.52 E6.11193
G1 X87.741 Y94.044 E6.1239
G1 X88.1 Y94.614 E6.13587
G1 X88.388 Y95.222 E6.14783
G1 X88.602 Y95.86 E6.1598
G1 X88.738 Y96.52 E6.17177
G1 X88.798 Y97.34 E6.18639
G1 X88.798 Y117.66 E6.5476
G1 X88.758 Y118.332 E6.55956
G1 X88.639 Y118.995 E6.57154
G1 X88.442 Y119.638 E6.58349
G1 X88.17 Y120.254 E6.59546
G1 X87.827 Y120.833 E6.60742
G1 X87.418 Y121.368 E6.6194
G1 X86.948 Y121.85 E6.63136
G1 X86.424 Y122.273 E6.64333
G1 X85.854 Y122.632 E6.65531
G1 X85.246 Y122.92 E6.66727
G1 X84.608 Y123.134 E6.67923
G1 X83.948 Y123.27 E6.69121
G1 X83.128 Y123.33 E6.70582
G1 X70.123 Y123.33 E6.937
G1 X69.451 Y123.29 E6.94897
G1 X68.788 Y123.171 E6.96094
G1 X68.145 Y122.974 E6.97289
G1 X67.529 Y122.702 E6.98486
G1 X66.95 Y122.359 E6.99683
G1 X66.415 Y121.95 E7.0088
G1 X65.933 Y121.48 E7.02076
G1 X65.51 Y120.956 E7.03274
G1 X65.151 Y120.386 E7.04471
G1 X64.863 Y119.778 E7.05667
G1 X64.649 Y119.14 E7.06863
G1 X64.513 Y118.48 E7.08061
G1 X64.453 Y117.66 E7.09522
G1 X64.453 Y97.34 E7.45643
G1 X64.493 Y96.668 E7.4684
G1 X64.612 Y96.005 E7.48037
G1 X64.809 Y95.362 E7.49233
G1 X65.081 Y94.746 E7.5043
G1 X65.424 Y94.167 E7.51626
G1 X65.833 Y93.632 E7.52823
G1 X66.303 Y93.15 E7.5402
G1 X66.827 Y92.727 E7.55217
M204 S625
M205 X6 Y6
G0 F4285.7 X67.232 Y92.958
M204 S500
M205 X5 Y5
G1 F1200 X67.794 Y92.635 E7.56369
G1 X68.391 Y92.384 E7.5752
G1 X69.015 Y92.208 E7.58673
G1 X69.655 Y92.111 E7.59824
G1 X70.123 Y92.09 E7.60656
G1 X83.128 Y92.09 E7.83774
G1 X83.775 Y92.13 E7.84926
G1 X84.411 Y92.249 E7.86076
G1 X85.028 Y92.446 E7.87228
G1 X85.617 Y92.717 E7.8838
G1 X86.167 Y93.059 E7.89532
G1 X86.671 Y93.466 E7.90683
G1 X87.121 Y93.932 E7.91835
G1 X87.51 Y94.449 E7.92985
G1 X87.833 Y95.011 E7.94137
G1 X88.084 Y95.608 E7.95288
G1 X88.26 Y96.232 E7.96441
G1 X88.357 Y96.872 E7.97591
G1 X88.378 Y97.34 E7.98424
G1 X88.378 Y117.66 E8.34545
G1 X88.338 Y118.307 E8.35697
G1 X88.219 Y118.943 E8.36847
G1 X88.022 Y119.56 E8.37999
G1 X87.751 Y120.149 E8.39151
G1 X87.409 Y120.699 E8.40302
G1 X87.002 Y121.203 E8.41454
G1 X86.536 Y121.653 E8.42606
G1 X86.019 Y122.042 E8.43756
G1 X85.457 Y122.365 E8.44908
G1 X84.86 Y122.616 E8.46059
G1 X84.236 Y122.792 E8.47212
G1 X83.596 Y122.889 E8.48362
G1 X83.128 Y122.91 E8.49195
G1 X70.123 Y122.91 E8.72313
G1 X69.476 Y122.87 E8.73465
G1 X68.84 Y122.751 E8.74615
G1 X68.223 Y122.554 E8.75766
G1 X67.634 Y122.283 E8.76919
G1 X67.084 Y121.941 E8.7807
G1 X66.58 Y121.534 E8.79222
G1 X66.13 Y121.068 E8.80373
G1 X65.741 Y120.551 E8.81523
G1 X65.418 Y119.989 E8.82676
G1 X65.167 Y119.392 E8.83827
G1 X64.991 Y118.768 E8.84979
G1 X64.894 Y118.128 E8.8613
G1 X64.873 Y117.66 E8.86963
G1 X64.873 Y97.34 E9.23084
G1 X64.913 Y96.693 E9.24236
G1 X65.032 Y96.057 E9.25386
G1 X65.229 Y95.44 E9.26537
G1 X65.5 Y94.851 E9.2769
G1 X65.842 Y94.301 E9.28841
G1 X66.249 Y93.797 E9.29993
G1 X66.715 Y93.347 E9.31144
G1 X67.232 Y92.958 E9.32294
M204 S625
M205 X6 Y6
G0 F4285.7 X67.635 Y93.2
M204 S500
M205 X5 Y5
G1 F1200 X68.187 Y92.915 E9.33399
G1 X68.772 Y92.703 E9.34505
G1 X69.378 Y92.568 E9.35608
G1 X70.123 Y92.51 E9.36937
G1 X83.128 Y92.51 E9.60054
G1 X83.748 Y92.55 E9.61159
G1 X84.358 Y92.669 E9.62264
G1 X84.947 Y92.866 E9.63368
G1 X85.506 Y93.136 E9.64471
G1 X86.026 Y93.476 E9.65576
G1 X86.498 Y93.88 E9.6668
G1 X86.915 Y94.342 E9.67786
G1 X87.268 Y94.852 E9.68889
G1 X87.553 Y95.404 E9.69993
G1 X87.765 Y95.989 E9.71099
G1 X87.9 Y96.595 E9.72203
G1 X87.958 Y97.34 E9.73531
G1 X87.958 Y117.66 E10.09652
G1 X87.918 Y118.28 E10.10756
G1 X87.799 Y118.89 E10.11861
G1 X87.602 Y119.479 E10.12965
G1 X87.332 Y120.038 E10.14069
G1 X86.992 Y120.558 E10.15173
G1 X86.588 Y121.03 E10.16277
G1 X86.126 Y121.447 E10.17384
G1 X85.616 Y121.8 E10.18486
G1 X85.064 Y122.085 E10.19591
G1 X84.479 Y122.297 E10.20697
G1 X83.873 Y122.432 E10.218
G1 X83.128 Y122.49 E10.23129
G1 X70.123 Y122.49 E10.46246
G1 X69.503 Y122.45 E10.47351
G1 X68.893 Y122.331 E10.48455
G1 X68.304 Y122.134 E10.49559
G1 X67.745 Y121.864 E10.50663
G1 X67.225 Y121.524 E10.51767
G1 X66.753 Y121.12 E10.52872
G1 X66.336 Y120.658 E10.53978
G1 X65.983 Y120.148 E10.55081
G1 X65.698 Y119.596 E10.56185
G1 X65.486 Y119.011 E10.57291
G1 X65.351 Y118.405 E10.58395
G1 X65.293 Y117.66 E10.59723
G1 X65.293 Y97.34 E10.95844
G1 X65.333 Y96.72 E10.96948
G1 X65.452 Y96.11 E10.98053
G1 X65.649 Y95.521 E10.99157
G1 X65.919 Y94.962 E11.0026
G1 X66.259 Y94.442 E11.01365
G1 X66.663 Y93.97 E11.02469
G1 X67.125 Y93.553 E11.03576
G1 X67.635 Y93.2 E11.04678
M204 S625
M205 X6 Y6
G0 F4285.7 X67.533 Y93.771
M204 S500
M205 X5 Y5
G1 F1200 X68.036 Y93.455 E11.05734
G1 X68.576 Y93.21 E11.06788
G1 X69.145 Y93.04 E11.07844
G1 X69.731 Y92.947 E11.08898
G1 X70.123 Y92.93 E11.09596
G1 X83.128 Y92.93 E11.32714
G1 X83.72 Y92.97 E11.33768
G1 X84.302 Y93.089 E11.34824
G1 X84.862 Y93.285 E11.35879
G1 X85.391 Y93.555 E11.36935
G1 X85.879 Y93.893 E11.3799
G1 X86.317 Y94.294 E11.39046
G1 X86.697 Y94.75 E11.40101
G1 X87.013 Y95.253 E11.41157
G1 X87.258 Y95.793 E11.42211
G1 X87.428 Y96.362 E11.43266
G1 X87.521 Y96.948 E11.44321
G1 X87.538 Y97.34 E11.45018
G1 X87.538 Y117.66 E11.81139
G1 X87.498 Y118.252 E11.82194
G1 X87.379 Y118.834 E11.8325
G1 X87.183 Y119.394 E11.84305
G1 X86.913 Y119.923 E11.8536
G1 X86.575 Y120.411 E11.86416
G1 X86.174 Y120.849 E11.87471
G1 X85.718 Y121.229 E11.88526
G1 X85.215 Y121.545 E11.89582
G1 X84.675 Y121.79 E11.90636
G1 X84.106 Y121.96 E11.91692
G1 X83.52 Y122.053 E11.92747
G1 X83.128 Y122.07 E11.93444
G1 X70.123 Y122.07 E12.16562
G1 X69.531 Y122.03 E12.17617
G1 X68.949 Y121.911 E12.18673
G1 X68.389 Y121.715 E12.19727
G1 X67.86 Y121.445 E12.20783
G1 X67.372 Y121.107 E12.21838
G1 X66.934 Y120.706 E12.22894
G1 X66.554 Y120.25 E12.23949
G1 X66.238 Y119.747 E12.25005
G1 X65.993 Y119.207 E12.26059
G1 X65.823 Y118.638 E12.27115
G1 X65.73 Y118.052 E12.28169
G1 X65.713 Y117.66 E12.28867
G1 X65.713 Y97.34 E12.64988
G1 X65.753 Y96.748 E12.66042
G1 X65.872 Y96.166 E12.67098
G1 X66.068 Y95.606 E12.68153
G1 X66.338 Y95.077 E12.69209
G1 X66.676 Y94.589 E12.70264
G1 X67.077 Y94.151 E12.71319
G1 X67.533 Y93.771 E12.72375
M204 S625
M205 X6 Y6
G0 F4285.7 X67.938 Y94.001
M204 S500
M205 X5 Y5
G1 F1200 X68.432 Y93.726 E12.7338
G1 X68.959 Y93.524 E12.74383
G1 X69.509 Y93.398 E12.75386
G1 X70.123 Y93.35 E12.76481
G1 X83.128 Y93.35 E12.99598
G1 X83.691 Y93.39 E13.00602
G1 X84.243 Y93.509 E13.01605
G1 X84.773 Y93.705 E13.0261
G1 X85.269 Y93.973 E13.03612
G1 X85.723 Y94.309 E13.04616
G1 X86.125 Y94.706 E13.0562
G1 X86.467 Y95.155 E13.06624
G1 X86.742 Y95.649 E13.07629
G1 X86.944 Y96.176 E13.08632
G1 X87.07 Y96.726 E13.09635
G1 X87.118 Y97.34 E13.1073
G1 X87.118 Y117.66 E13.46851
G1 X87.078 Y118.223 E13.47854
G1 X86.959 Y118.775 E13.48858
G1 X86.763 Y119.305 E13.49862
G1 X86.495 Y119.801 E13.50864
G1 X86.159 Y120.255 E13.51868
G1 X85.762 Y120.657 E13.52873
G1 X85.313 Y120.999 E13.53876
G1 X84.819 Y121.274 E13.54881
G1 X84.292 Y121.476 E13.55884
G1 X83.742 Y121.602 E13.56887
G1 X83.128 Y121.65 E13.57982
G1 X70.123 Y121.65 E13.811
G1 X69.56 Y121.61 E13.82103
G1 X69.008 Y121.491 E13.83107
G1 X68.478 Y121.295 E13.84111
G1 X67.982 Y121.027 E13.85113
G1 X67.528 Y120.691 E13.86117
G1 X67.126 Y120.294 E13.87122
G1 X66.784 Y119.845 E13.88125
G1 X66.509 Y119.351 E13.8913
G1 X66.307 Y118.824 E13.90133
G1 X66.181 Y118.274 E13.91136
G1 X66.133 Y117.66 E13.92231
G1 X66.133 Y97.34 E14.28352
G1 X66.173 Y96.777 E14.29355
G1 X66.292 Y96.225 E14.30359
G1 X66.488 Y95.695 E14.31363
G1 X66.756 Y95.199 E14.32366
G1 X67.092 Y94.745 E14.3337
G1 X67.489 Y94.343 E14.34374
G1 X67.938 Y94.001 E14.35377
M204 S625
M205 X6 Y6
G0 F4285.7 X67.899 Y94.547
M204 S500
M205 X5 Y5
G1 F1200 X68.341 Y94.247 E14.36327
G1 X68.822 Y94.015 E14.37276
G1 X69.333 Y93.859 E14.38226
G1 X70.123 Y93.77 E14.39639
G1 X83.128 Y93.77 E14.62757
G1 X83.661 Y93.81 E14.63707
G1 X84.181 Y93.929 E14.64655
G1 X84.678 Y94.124 E14.65604
G1 X85.141 Y94.391 E14.66554
G1 X85.558 Y94.725 E14.67504
G1 X85.921 Y95.116 E14.68452
G1 X86.221 Y95.558 E14.69402
G1 X86.453 Y96.039 E14.70351
G1 X86.609 Y96.55 E14.71301
G1 X86.698 Y97.34 E14.72714
G1 X86.698 Y117.66 E15.08835
G1 X86.658 Y118.193 E15.09785
G1 X86.539 Y118.713 E15.10733
G1 X86.344 Y119.21 E15.11682
G1 X86.077 Y119.673 E15.12632
G1 X85.743 Y120.09 E15.13582
G1 X85.352 Y120.453 E15.1453
G1 X84.91 Y120.753 E15.1548
G1 X84.429 Y120.985 E15.16429
G1 X83.918 Y121.141 E15.17379
G1 X83.128 Y121.23 E15.18792
G1 X70.123 Y121.23 E15.4191
G1 X69.59 Y121.19 E15.4286
G1 X69.07 Y121.071 E15.43808
G1 X68.573 Y120.876 E15.44757
G1 X68.11 Y120.609 E15.45707
G1 X67.693 Y120.275 E15.46657
G1 X67.33 Y119.884 E15.47605
G1 X67.03 Y119.442 E15.48555
G1 X66.798 Y118.961 E15.49504
G1 X66.642 Y118.45 E15.50454
G1 X66.553 Y117.66 E15.51867
G1 X66.553 Y97.34 E15.87988
G1 X66.593 Y96.807 E15.88938
G1 X66.712 Y96.287 E15.89886
G1 X66.907 Y95.79 E15.90835
G1 X67.174 Y95.327 E15.91786
G1 X67.508 Y94.91 E15.92735
G1 X67.899 Y94.547 E15.93684
M204 S625
M205 X6 Y6
G0 F4285.7 X68.307 Y94.766
M204 S500
M205 X5 Y5
G1 F1200 X68.739 Y94.51 E15.94576
G1 X69.206 Y94.327 E15.95468
G1 X69.695 Y94.219 E15.96358
G1 X70.123 Y94.19 E15.97121
G1 X83.128 Y94.19 E16.20238
G1 X83.628 Y94.23 E16.2113
G1 X84.115 Y94.349 E16.22021
G1 X84.578 Y94.543 E16.22913
G1 X85.003 Y94.809 E16.23805
G1 X85.381 Y95.139 E16.24697
G1 X85.702 Y95.524 E16.25588
G1 X85.958 Y95.956 E16.2648
G1 X86.141 Y96.423 E16.27372
G1 X86.249 Y96.912 E16.28262
G1 X86.278 Y97.34 E16.29025
G1 X86.278 Y117.66 E16.65145
G1 X86.238 Y118.16 E16.66037
