;START_OF_HEADER
;HEADER_VERSION:0.1
;FLAVOR:Griffin
;GENERATOR.NAME:Cura_SteamEngine
;GENERATOR.VERSION:3.6.0
;GENERATOR.BUILD_DATE:2018-11-12
;TARGET_MACHINE.NAME:Ultimaker 3
;EXTRUDER_TRAIN.0.INITIAL_TEMPERATURE:205
;EXTRUDER_TRAIN.0.MATERIAL.VOLUME_USED:6754
;EXTRUDER_TRAIN.0.MATERIAL.GUID:506c9f0d-e3aa-4bd4-b2d2-23e2425b1aa9
;EXTRUDER_TRAIN.0.NOZZLE.DIAMETER:0.4
;EXTRUDER_TRAIN.0.NOZZLE.NAME:AA 0.4
;BUILD_PLATE.TYPE:glass
;BUILD_PLATE.INITIAL_TEMPERATURE:60
;PRINT.TIME:6734
;PRINT.SIZE.MIN.X:9
;PRINT.SIZE.MIN.Y:6
;PRINT.SIZE.MIN.Z:0.27
;PRINT.SIZE.MAX.X:189.385
;PRINT.SIZE.MAX.Y:188.3
;PRINT.SIZE.MAX.Z:3.97
;END_OF_HEADER
;Generated with Cura_SteamEngine 3.6.0
T0
M82 ;absolute extrusion mode

G92 E0
M109 S205
G0 F15000 X9 Y6 Z2
G280
G1 F1500 E-6.5
;LAYER_COUNT:39
;LAYER:0
M107
M204 S625
M205 X6 Y6
G0 F4285.7 X149.442 Y48.756 Z0.27
M204 S500
M205 X5 Y5
;TYPE:SKIRT
G1 F1500 E0
G1 F1200 X149.715 Y48.064 E0.01322
G1 X150.061 Y47.405 E0.02645
G1 X150.476 Y46.787 E0.03969
G1 X150.955 Y46.217 E0.05292
G1 X151.492 Y45.702 E0.06615
G1 X152.081 Y45.247 E0.07938
G1 X152.715 Y44.858 E0.0926
G1 X153.388 Y44.539 E0.10584
G1 X154.091 Y44.294 E0.11907
G1 X154.816 Y44.126 E0.1323
G1 X155.555 Y44.037 E0.14553
G1 X156.017 Y44.022 E0.15375
G1 X182.052 Y44.029 E0.61655
G1 X182.795 Y44.069 E0.62977
G1 X183.53 Y44.189 E0.64301
G1 X184.247 Y44.387 E0.65624
G1 X184.939 Y44.66 E0.66946
G1 X185.598 Y45.006 E0.68269
G1 X186.216 Y45.421 E0.69592
G1 X186.786 Y45.9 E0.70916
G1 X187.301 Y46.437 E0.72238
G1 X187.756 Y47.026 E0.73561
G1 X188.145 Y47.661 E0.74885
G1 X188.464 Y48.334 E0.76209
G1 X188.708 Y49.037 E0.77532
G1 X188.876 Y49.762 E0.78855
G1 X188.965 Y50.501 E0.80178
G1 X188.98 Y50.959 E0.80992
G1 X188.98 Y63.647 E1.03547
G1 X188.94 Y64.39 E1.04869
G1 X188.821 Y65.125 E1.06193
G1 X188.623 Y65.843 E1.07517
G1 X188.35 Y66.535 E1.08839
G1 X188.004 Y67.194 E1.10162
G1 X187.589 Y67.812 E1.11485
G1 X187.11 Y68.382 E1.12809
G1 X186.573 Y68.897 E1.14132
G1 X185.984 Y69.352 E1.15455
G1 X185.35 Y69.741 E1.16777
G1 X184.677 Y70.06 E1.18101
G1 X183.974 Y70.305 E1.19424
G1 X183.249 Y70.473 E1.20747
G1 X182.63 Y70.548 E1.21855
G1 X182.63 Y71.267 E1.23133
G1 X182.59 Y72.01 E1.24456
G1 X182.471 Y72.745 E1.2578
G1 X182.273 Y73.463 E1.27104
G1 X182 Y74.155 E1.28426
G1 X181.654 Y74.814 E1.29749
G1 X181.239 Y75.432 E1.31072
G1 X180.76 Y76.002 E1.32396
G1 X180.223 Y76.517 E1.33718
G1 X179.634 Y76.972 E1.35041
G1 X179 Y77.361 E1.36364
G1 X178.327 Y77.68 E1.37688
G1 X177.624 Y77.925 E1.39011
G1 X176.899 Y78.093 E1.40334
G1 X176.16 Y78.182 E1.41657
G1 X175.7 Y78.197 E1.42475
G1 X169.985 Y78.197 E1.52634
G1 X169.242 Y78.157 E1.53957
G1 X169.031 Y78.123 E1.54337
G1 X168.54 Y78.182 E1.55216
G1 X168.08 Y78.197 E1.56034
G1 X162.365 Y78.197 E1.66193
G1 X161.622 Y78.157 E1.67516
G1 X160.887 Y78.038 E1.68839
G1 X160.169 Y77.84 E1.70163
G1 X159.477 Y77.567 E1.71485
G1 X158.818 Y77.221 E1.72808
G1 X158.2 Y76.806 E1.74132
G1 X157.63 Y76.327 E1.75455
G1 X157.115 Y75.79 E1.76778
G1 X156.66 Y75.201 E1.78101
G1 X156.271 Y74.567 E1.79423
G1 X155.952 Y73.894 E1.80747
G1 X155.707 Y73.191 E1.8207
G1 X155.539 Y72.466 E1.83393
G1 X155.45 Y71.727 E1.84716
G1 X155.435 Y71.267 E1.85535
G1 X155.435 Y70.546 E1.86816
G1 X155.272 Y70.537 E1.87106
G1 X154.537 Y70.418 E1.8843
G1 X153.819 Y70.22 E1.89754
G1 X153.127 Y69.947 E1.91076
G1 X152.468 Y69.601 E1.92399
G1 X151.85 Y69.186 E1.93723
G1 X151.28 Y68.707 E1.95046
G1 X150.765 Y68.17 E1.96369
G1 X150.31 Y67.581 E1.97692
G1 X149.921 Y66.947 E1.99014
G1 X149.602 Y66.274 E2.00338
G1 X149.357 Y65.571 E2.01661
G1 X149.189 Y64.846 E2.02984
G1 X149.1 Y64.107 E2.04307
G1 X149.085 Y63.647 E2.05125
G1 X149.085 Y50.952 E2.27692
G1 X149.125 Y50.209 E2.29015
G1 X149.244 Y49.474 E2.30338
G1 X149.442 Y48.756 E2.31662
M204 S625
M205 X6 Y6
G0 F4285.7 X149.862 Y48.826
M204 S500
M205 X5 Y5
G1 F1200 X150.135 Y48.159 E2.32943
G1 X150.48 Y47.525 E2.34226
G1 X150.893 Y46.934 E2.35508
G1 X151.369 Y46.392 E2.3679
G1 X151.902 Y45.906 E2.38072
G1 X152.486 Y45.482 E2.39355
G1 X153.113 Y45.125 E2.40638
G1 X153.775 Y44.839 E2.4192
G1 X154.465 Y44.629 E2.43202
G1 X155.174 Y44.497 E2.44484
G1 X156.017 Y44.442 E2.45986
G1 X182.052 Y44.449 E2.92265
G1 X182.772 Y44.489 E2.93547
G1 X183.483 Y44.609 E2.94829
G1 X184.177 Y44.806 E2.96111
G1 X184.845 Y45.079 E2.97394
G1 X185.478 Y45.425 E2.98676
G1 X186.07 Y45.838 E2.99959
G1 X186.611 Y46.314 E3.0124
G1 X187.097 Y46.847 E3.02523
G1 X187.521 Y47.431 E3.03805
G1 X187.878 Y48.058 E3.05088
G1 X188.163 Y48.721 E3.06371
G1 X188.373 Y49.411 E3.07653
G1 X188.506 Y50.12 E3.08935
G1 X188.56 Y50.959 E3.1043
G1 X188.56 Y63.647 E3.32984
G1 X188.52 Y64.367 E3.34266
G1 X188.401 Y65.079 E3.35549
G1 X188.203 Y65.773 E3.36832
G1 X187.93 Y66.44 E3.38113
G1 X187.585 Y67.074 E3.39396
G1 X187.172 Y67.665 E3.40678
G1 X186.696 Y68.207 E3.4196
G1 X186.163 Y68.693 E3.43242
G1 X185.579 Y69.117 E3.44525
G1 X184.952 Y69.474 E3.45808
G1 X184.29 Y69.76 E3.47089
G1 X183.6 Y69.97 E3.48372
G1 X182.891 Y70.102 E3.49654
G1 X182.21 Y70.147 E3.50867
G1 X182.21 Y71.267 E3.52858
G1 X182.17 Y71.987 E3.54139
G1 X182.051 Y72.699 E3.55423
G1 X181.853 Y73.393 E3.56706
G1 X181.58 Y74.06 E3.57987
G1 X181.235 Y74.694 E3.5927
G1 X180.822 Y75.285 E3.60551
G1 X180.346 Y75.827 E3.61834
G1 X179.813 Y76.313 E3.63116
G1 X179.229 Y76.737 E3.64399
G1 X178.602 Y77.094 E3.65681
G1 X177.94 Y77.38 E3.66963
G1 X177.25 Y77.59 E3.68245
G1 X176.541 Y77.722 E3.69527
G1 X175.7 Y77.777 E3.71025
G1 X169.985 Y77.777 E3.81184
G1 X169.265 Y77.737 E3.82466
G1 X169.041 Y77.7 E3.8287
G1 X168.921 Y77.722 E3.83087
G1 X168.08 Y77.777 E3.84585
G1 X162.365 Y77.777 E3.94744
G1 X161.645 Y77.737 E3.96026
G1 X160.933 Y77.618 E3.97309
G1 X160.239 Y77.42 E3.98592
G1 X159.572 Y77.147 E3.99873
G1 X158.938 Y76.802 E4.01156
G1 X158.347 Y76.389 E4.02438
G1 X157.805 Y75.913 E4.0372
G1 X157.319 Y75.38 E4.05002
G1 X156.895 Y74.796 E4.06285
G1 X156.538 Y74.169 E4.07567
G1 X156.252 Y73.507 E4.08849
G1 X156.042 Y72.817 E4.10131
G1 X155.91 Y72.108 E4.11413
G1 X155.855 Y71.267 E4.12912
G1 X155.855 Y70.148 E4.14901
G1 X155.295 Y70.117 E4.15898
G1 X154.583 Y69.998 E4.17181
G1 X153.889 Y69.8 E4.18464
G1 X153.222 Y69.527 E4.19745
G1 X152.588 Y69.182 E4.21028
G1 X151.997 Y68.769 E4.2231
G1 X151.455 Y68.293 E4.23592
G1 X150.969 Y67.76 E4.24874
G1 X150.545 Y67.176 E4.26157
G1 X150.188 Y66.549 E4.27439
G1 X149.902 Y65.887 E4.28721
G1 X149.692 Y65.197 E4.30003
G1 X149.56 Y64.488 E4.31285
G1 X149.505 Y63.647 E4.32784
G1 X149.505 Y50.952 E4.5535
G1 X149.545 Y50.232 E4.56632
G1 X149.664 Y49.52 E4.57915
G1 X149.862 Y48.826 E4.59198
M204 S625
M205 X6 Y6
G0 F4285.7 X150.282 Y48.899
M204 S500
M205 X5 Y5
G1 F1200 X150.554 Y48.256 E4.60439
G1 X150.898 Y47.65 E4.61678
G1 X151.31 Y47.086 E4.62919
G1 X151.783 Y46.573 E4.6416
G1 X152.311 Y46.118 E4.65399
G1 X152.888 Y45.726 E4.66639
G1 X153.507 Y45.403 E4.6788
G1 X154.158 Y45.152 E4.6912
G1 X154.834 Y44.978 E4.70361
G1 X155.525 Y44.882 E4.71601
G1 X156.017 Y44.862 E4.72476
G1 X182.052 Y44.869 E5.18756
G1 X182.748 Y44.909 E5.19995
G1 X183.436 Y45.029 E5.21237
G1 X184.105 Y45.226 E5.22476
G1 X184.747 Y45.499 E5.23717
G1 X185.354 Y45.843 E5.24957
G1 X185.917 Y46.255 E5.26197
G1 X186.43 Y46.728 E5.27437
G1 X186.885 Y47.257 E5.28678
G1 X187.277 Y47.834 E5.29918
G1 X187.6 Y48.452 E5.31157
G1 X187.85 Y49.103 E5.32397
G1 X188.025 Y49.779 E5.33638
G1 X188.12 Y50.47 E5.34878
G1 X188.14 Y50.959 E5.35748
G1 X188.14 Y63.647 E5.58302
G1 X188.1 Y64.344 E5.59543
G1 X187.981 Y65.031 E5.60783
G1 X187.783 Y65.7 E5.62023
G1 X187.511 Y66.343 E5.63264
G1 X187.167 Y66.949 E5.64502
G1 X186.755 Y67.513 E5.65744
G1 X186.282 Y68.026 E5.66984
G1 X185.754 Y68.481 E5.68223
G1 X185.177 Y68.873 E5.69463
G1 X184.558 Y69.196 E5.70705
G1 X183.907 Y69.447 E5.71945
G1 X183.231 Y69.621 E5.73186
G1 X182.54 Y69.717 E5.74426
G1 X182.05 Y69.737 E5.75297
G1 X181.79 Y69.737 E5.7576
G1 X181.79 Y71.267 E5.78479
G1 X181.75 Y71.964 E5.7972
G1 X181.631 Y72.651 E5.8096
G1 X181.433 Y73.32 E5.822
G1 X181.161 Y73.963 E5.83441
G1 X180.817 Y74.569 E5.8468
G1 X180.405 Y75.133 E5.85921
G1 X179.932 Y75.646 E5.87162
G1 X179.404 Y76.101 E5.88401
G1 X178.827 Y76.493 E5.89641
G1 X178.208 Y76.816 E5.90882
G1 X177.557 Y77.067 E5.92122
G1 X176.881 Y77.241 E5.93363
G1 X176.19 Y77.337 E5.94603
G1 X175.7 Y77.357 E5.95475
G1 X169.985 Y77.357 E6.05634
G1 X169.288 Y77.317 E6.06875
G1 X169.033 Y77.273 E6.07335
G1 X168.57 Y77.337 E6.08166
G1 X168.08 Y77.357 E6.09037
G1 X162.365 Y77.357 E6.19196
G1 X161.668 Y77.317 E6.20437
G1 X160.981 Y77.198 E6.21677
G1 X160.312 Y77 E6.22917
G1 X159.669 Y76.728 E6.24158
G1 X159.063 Y76.384 E6.25397
G1 X158.499 Y75.972 E6.26638
G1 X157.986 Y75.499 E6.27879
G1 X157.531 Y74.971 E6.29118
G1 X157.139 Y74.394 E6.30358
G1 X156.816 Y73.775 E6.31599
G1 X156.565 Y73.124 E6.32839
G1 X156.391 Y72.448 E6.3408
G1 X156.295 Y71.757 E6.3532
G1 X156.275 Y71.267 E6.36192
G1 X156.275 Y69.737 E6.38911
G1 X156.015 Y69.737 E6.39373
G1 X155.318 Y69.697 E6.40615
G1 X154.631 Y69.578 E6.41854
G1 X153.962 Y69.38 E6.43094
G1 X153.319 Y69.108 E6.44335
G1 X152.713 Y68.764 E6.45574
G1 X152.149 Y68.352 E6.46815
G1 X151.636 Y67.879 E6.48056
G1 X151.181 Y67.351 E6.49295
G1 X150.789 Y66.774 E6.50535
G1 X150.466 Y66.155 E6.51776
G1 X150.215 Y65.504 E6.53016
G1 X150.041 Y64.828 E6.54257
G1 X149.945 Y64.137 E6.55497
G1 X149.925 Y63.647 E6.56369
G1 X149.925 Y50.952 E6.78935
G1 X149.965 Y50.255 E6.80176
G1 X150.084 Y49.568 E6.81416
G1 X150.282 Y48.899 E6.82656
M204 S625
M205 X6 Y6
G0 F4285.7 X150.701 Y48.974
M204 S500
M205 X5 Y5
G1 F1200 X150.973 Y48.358 E6.83853
G1 X151.316 Y47.779 E6.85049
G1 X151.725 Y47.244 E6.86246
G1 X152.195 Y46.762 E6.87443
G1 X152.719 Y46.339 E6.8864
G1 X153.289 Y45.98 E6.89838
G1 X153.897 Y45.692 E6.91034
G1 X154.535 Y45.478 E6.9223
G1 X155.195 Y45.342 E6.93428
G1 X156.017 Y45.282 E6.94893
G1 X182.052 Y45.289 E7.41172
G1 X182.724 Y45.329 E7.42369
G1 X183.386 Y45.449 E7.43565
G1 X184.03 Y45.646 E7.44762
G1 X184.645 Y45.918 E7.45958
G1 X185.225 Y46.261 E7.47155
G1 X185.759 Y46.67 E7.48351
G1 X186.241 Y47.14 E7.49548
G1 X186.664 Y47.664 E7.50745
G1 X187.022 Y48.234 E7.51941
G1 X187.31 Y48.843 E7.53139
G1 X187.524 Y49.481 E7.54335
G1 X187.661 Y50.14 E7.55532
G1 X187.72 Y50.959 E7.56991
G1 X187.72 Y63.647 E7.79545
G1 X187.68 Y64.319 E7.80742
G1 X187.561 Y64.982 E7.81939
G1 X187.364 Y65.625 E7.83135
G1 X187.092 Y66.241 E7.84332
G1 X186.749 Y66.82 E7.85528
G1 X186.34 Y67.355 E7.86725
G1 X185.87 Y67.837 E7.87922
G1 X185.346 Y68.26 E7.89119
G1 X184.776 Y68.619 E7.90316
G1 X184.168 Y68.907 E7.91512
G1 X183.53 Y69.121 E7.92708
G1 X182.87 Y69.257 E7.93906
G1 X182.05 Y69.317 E7.95368
G1 X181.37 Y69.317 E7.96577
G1 X181.37 Y71.267 E8.00043
G1 X181.33 Y71.939 E8.0124
G1 X181.211 Y72.602 E8.02437
G1 X181.014 Y73.245 E8.03632
G1 X180.742 Y73.861 E8.04829
G1 X180.399 Y74.44 E8.06026
G1 X179.99 Y74.975 E8.07223
G1 X179.52 Y75.457 E8.0842
G1 X178.996 Y75.88 E8.09617
G1 X178.426 Y76.239 E8.10814
G1 X177.818 Y76.527 E8.1201
G1 X177.18 Y76.741 E8.13206
G1 X176.52 Y76.877 E8.14404
G1 X175.7 Y76.937 E8.15866
G1 X169.985 Y76.937 E8.26025
G1 X169.313 Y76.897 E8.27221
G1 X169.04 Y76.848 E8.27714
G1 X168.9 Y76.877 E8.27968
G1 X168.08 Y76.937 E8.2943
G1 X162.365 Y76.937 E8.39589
G1 X161.693 Y76.897 E8.40786
G1 X161.03 Y76.778 E8.41983
G1 X160.387 Y76.581 E8.43178
G1 X159.771 Y76.309 E8.44375
G1 X159.192 Y75.966 E8.45572
G1 X158.657 Y75.557 E8.46769
G1 X158.175 Y75.087 E8.47965
G1 X157.752 Y74.563 E8.49162
G1 X157.393 Y73.993 E8.5036
G1 X157.105 Y73.385 E8.51556
G1 X156.891 Y72.747 E8.52752
G1 X156.755 Y72.087 E8.5395
G1 X156.695 Y71.267 E8.55411
G1 X156.695 Y69.317 E8.58878
G1 X156.015 Y69.317 E8.60087
G1 X155.343 Y69.277 E8.61283
G1 X154.68 Y69.158 E8.62481
G1 X154.037 Y68.961 E8.63676
G1 X153.421 Y68.689 E8.64873
G1 X152.842 Y68.346 E8.66069
G1 X152.307 Y67.937 E8.67266
G1 X151.825 Y67.467 E8.68463
G1 X151.402 Y66.943 E8.6966
G1 X151.043 Y66.373 E8.70858
G1 X150.755 Y65.765 E8.72053
G1 X150.541 Y65.127 E8.7325
G1 X150.405 Y64.467 E8.74448
G1 X150.345 Y63.647 E8.75909
G1 X150.345 Y50.952 E8.98476
G1 X150.385 Y50.28 E8.99672
G1 X150.504 Y49.617 E9.0087
G1 X150.701 Y48.974 E9.02065
M204 S625
M205 X6 Y6
G0 F4285.7 X151.121 Y49.052
M204 S500
M205 X5 Y5
G1 F1200 X151.392 Y48.463 E9.03218
G1 X151.734 Y47.913 E9.04369
G1 X152.141 Y47.409 E9.0552
G1 X152.607 Y46.959 E9.06672
G1 X153.124 Y46.57 E9.07822
G1 X153.686 Y46.247 E9.08974
G1 X154.283 Y45.996 E9.10126
G1 X154.907 Y45.82 E9.11278
G1 X155.547 Y45.723 E9.12429
G1 X156.016 Y45.702 E9.13263
G1 X182.051 Y45.709 E9.59543
G1 X182.698 Y45.749 E9.60695
G1 X183.335 Y45.869 E9.61848
G1 X183.952 Y46.066 E9.62999
G1 X184.54 Y46.337 E9.6415
G1 X185.09 Y46.679 E9.65301
G1 X185.594 Y47.086 E9.66453
G1 X186.044 Y47.552 E9.67604
G1 X186.433 Y48.069 E9.68754
G1 X186.756 Y48.631 E9.69907
G1 X187.007 Y49.228 E9.71058
G1 X187.182 Y49.852 E9.7221
G1 X187.279 Y50.492 E9.7336
G1 X187.3 Y50.959 E9.74191
G1 X187.3 Y63.647 E9.96746
G1 X187.26 Y64.294 E9.97898
G1 X187.141 Y64.93 E9.99048
G1 X186.944 Y65.547 E10.00199
G1 X186.673 Y66.136 E10.01352
G1 X186.331 Y66.686 E10.02503
G1 X185.924 Y67.19 E10.03655
G1 X185.458 Y67.64 E10.04806
G1 X184.941 Y68.029 E10.05956
G1 X184.379 Y68.352 E10.07109
G1 X183.782 Y68.603 E10.0826
G1 X183.158 Y68.779 E10.09412
G1 X182.518 Y68.876 E10.10563
G1 X182.05 Y68.897 E10.11396
G1 X180.95 Y68.897 E10.13351
G1 X180.95 Y71.267 E10.17564
G1 X180.91 Y71.914 E10.18716
G1 X180.791 Y72.55 E10.19866
G1 X180.594 Y73.167 E10.21018
G1 X180.323 Y73.756 E10.2217
G1 X179.981 Y74.306 E10.23322
G1 X179.574 Y74.81 E10.24473
G1 X179.108 Y75.26 E10.25625
G1 X178.591 Y75.649 E10.26775
G1 X178.029 Y75.972 E10.27927
G1 X177.432 Y76.223 E10.29078
G1 X176.808 Y76.399 E10.30231
G1 X176.168 Y76.496 E10.31381
G1 X175.7 Y76.517 E10.32214
G1 X169.985 Y76.517 E10.42373
G1 X169.338 Y76.477 E10.43525
G1 X169.041 Y76.421 E10.44063
G1 X168.548 Y76.496 E10.44949
G1 X168.08 Y76.517 E10.45782
G1 X162.365 Y76.517 E10.55941
G1 X161.718 Y76.477 E10.57093
G1 X161.082 Y76.358 E10.58243
G1 X160.465 Y76.161 E10.59395
G1 X159.876 Y75.89 E10.60547
G1 X159.326 Y75.548 E10.61698
G1 X158.822 Y75.141 E10.6285
G1 X158.372 Y74.675 E10.64002
G1 X157.983 Y74.158 E10.65152
G1 X157.66 Y73.596 E10.66304
G1 X157.409 Y72.999 E10.67455
G1 X157.233 Y72.375 E10.68608
G1 X157.136 Y71.735 E10.69758
G1 X157.115 Y71.267 E10.70591
G1 X157.115 Y68.897 E10.74804
G1 X156.015 Y68.897 E10.76759
G1 X155.368 Y68.857 E10.77912
G1 X154.732 Y68.738 E10.79062
G1 X154.115 Y68.541 E10.80213
G1 X153.526 Y68.27 E10.81366
G1 X152.976 Y67.928 E10.82517
G1 X152.472 Y67.521 E10.83668
G1 X152.022 Y67.055 E10.8482
G1 X151.633 Y66.538 E10.8597
G1 X151.31 Y65.976 E10.87122
G1 X151.059 Y65.379 E10.88273
G1 X150.883 Y64.755 E10.89426
G1 X150.786 Y64.115 E10.90577
G1 X150.765 Y63.647 E10.91409
G1 X150.765 Y50.952 E11.13976
G1 X150.805 Y50.305 E11.15128
G1 X150.924 Y49.669 E11.16278
G1 X151.121 Y49.052 E11.1743
M204 S625
M205 X6 Y6
G0 F4285.7 X151.541 Y49.133
M204 S500
M205 X5 Y5
G1 F1200 X151.811 Y48.574 E11.18533
G1 X152.151 Y48.054 E11.19638
G1 X152.555 Y47.582 E11.20742
G1 X153.017 Y47.165 E11.21848
G1 X153.527 Y46.812 E11.22951
G1 X154.079 Y46.527 E11.24055
G1 X154.664 Y46.315 E11.25161
G1 X155.27 Y46.18 E11.26265
G1 X156.016 Y46.122 E11.27595
G1 X182.051 Y46.129 E11.73875
G1 X182.671 Y46.169 E11.74979
G1 X183.281 Y46.289 E11.76084
G1 X183.87 Y46.485 E11.77188
G1 X184.43 Y46.756 E11.78294
G1 X184.949 Y47.096 E11.79397
G1 X185.421 Y47.5 E11.80501
G1 X185.837 Y47.962 E11.81606
G1 X186.191 Y48.473 E11.82711
G1 X186.476 Y49.025 E11.83815
G1 X186.687 Y49.609 E11.84919
G1 X186.822 Y50.215 E11.86023
G1 X186.88 Y50.959 E11.87349
G1 X186.88 Y63.647 E12.09904
G1 X186.84 Y64.267 E12.11008
G1 X186.721 Y64.877 E12.12113
G1 X186.524 Y65.466 E12.13217
G1 X186.254 Y66.025 E12.1432
G1 X185.914 Y66.545 E12.15425
G1 X185.51 Y67.017 E12.16529
G1 X185.048 Y67.434 E12.17635
G1 X184.538 Y67.787 E12.18738
G1 X183.986 Y68.072 E12.19842
G1 X183.401 Y68.284 E12.20948
G1 X182.795 Y68.419 E12.22052
G1 X182.05 Y68.477 E12.2338
G1 X180.53 Y68.477 E12.26082
G1 X180.53 Y71.267 E12.31042
G1 X180.49 Y71.887 E12.32146
