;START_OF_HEADER
;HEADER_VERSION:0.1
;FLAVOR:Griffin
;GENERATOR.NAME:Cura_SteamEngine
;GENERATOR.VERSION:3.6.0
;GENERATOR.BUILD_DATE:2018-11-12
;TARGET_MACHINE.NAME:Ultimaker 3
;EXTRUDER_TRAIN.0.INITIAL_TEMPERATURE:205
;EXTRUDER_TRAIN.0.MATERIAL.VOLUME_USED:10800
;EXTRUDER_TRAIN.0.MATERIAL.GUID:506c9f0d-e3aa-4bd4-b2d2-23e2425b1aa9
;EXTRUDER_TRAIN.0.NOZZLE.DIAMETER:0.4
;EXTRUDER_TRAIN.0.NOZZLE.NAME:AA 0.4
;BUILD_PLATE.TYPE:glass
;BUILD_PLATE.INITIAL_TEMPERATURE:60
;PRINT.TIME:9361
;PRINT.SIZE.MIN.X:9
;PRINT.SIZE.MIN.Y:6
;PRINT.SIZE.MIN.Z:0.27
;PRINT.SIZE.MAX.X:138.479
;PRINT.SIZE.MAX.Y:144.91
;PRINT.SIZE.MAX.Z:33.77
;END_OF_HEADER
;Generated with Cura_SteamEngine 3.6.0
T0
M82 ;absolute extrusion mode

G92 E0
M109 S205
G0 F15000 X9 Y6 Z2
G280
G1 F1500 E-6.5
;LAYER_COUNT:337
;LAYER:0
M107
M204 S625
M205 X6 Y6
G0 F4285.7 X95.912 Y72.978 Z0.27
M204 S500
M205 X5 Y5
;TYPE:SKIRT
G1 F1500 E0
G1 F1200 X96.551 Y72.243 E0.01731
G1 X96.674 Y72.12 E0.0204
G1 X97.228 Y71.622 E0.03365
G1 X97.832 Y71.187 E0.04688
G1 X98.479 Y70.82 E0.0601
G1 X99.161 Y70.523 E0.07332
G1 X99.872 Y70.302 E0.08656
G1 X100.602 Y70.158 E0.09979
G1 X101.574 Y70.09 E0.11711
G1 X114.662 Y70.09 E0.34976
G1 X115.405 Y70.13 E0.36298
G1 X116.14 Y70.249 E0.37622
G1 X116.858 Y70.447 E0.38946
G1 X117.55 Y70.72 E0.40268
G1 X118.209 Y71.066 E0.41591
G1 X118.827 Y71.481 E0.42915
G1 X119.562 Y72.12 E0.44646
G1 X119.685 Y72.243 E0.44955
G1 X120.183 Y72.797 E0.46279
G1 X120.618 Y73.401 E0.47602
G1 X120.985 Y74.048 E0.48925
G1 X121.282 Y74.73 E0.50247
G1 X121.503 Y75.441 E0.5157
G1 X121.647 Y76.171 E0.52893
G1 X121.715 Y77.143 E0.54625
G1 X121.715 Y113.268 E1.18841
G1 X131.428 Y113.27 E1.36107
G1 X132.171 Y113.31 E1.37429
G1 X132.906 Y113.43 E1.38753
G1 X133.623 Y113.628 E1.40075
G1 X134.315 Y113.901 E1.41398
G1 X134.974 Y114.247 E1.42721
G1 X135.592 Y114.662 E1.44044
G1 X136.326 Y115.3 E1.45773
G1 X136.449 Y115.423 E1.46082
G1 X136.947 Y115.977 E1.47406
G1 X137.382 Y116.581 E1.48729
G1 X137.749 Y117.228 E1.50052
G1 X138.046 Y117.91 E1.51374
G1 X138.267 Y118.621 E1.52697
G1 X138.411 Y119.351 E1.5402
G1 X138.479 Y120.323 E1.55752
G1 X138.479 Y137.857 E1.86921
G1 X138.439 Y138.6 E1.88243
G1 X138.32 Y139.335 E1.89567
G1 X138.122 Y140.053 E1.90891
G1 X137.849 Y140.745 E1.92213
G1 X137.503 Y141.404 E1.93536
G1 X137.088 Y142.022 E1.94859
G1 X136.449 Y142.757 E1.96591
G1 X136.326 Y142.88 E1.969
G1 X135.772 Y143.378 E1.98224
G1 X135.168 Y143.813 E1.99547
G1 X134.521 Y144.18 E2.0087
G1 X133.839 Y144.477 E2.02192
G1 X133.128 Y144.698 E2.03515
G1 X132.398 Y144.842 E2.04838
G1 X131.426 Y144.91 E2.0657
G1 X101.574 Y144.91 E2.59635
G1 X100.831 Y144.87 E2.60958
G1 X100.096 Y144.751 E2.62281
G1 X99.378 Y144.553 E2.63605
G1 X98.686 Y144.28 E2.64927
G1 X98.027 Y143.934 E2.6625
G1 X97.409 Y143.519 E2.67574
G1 X96.674 Y142.88 E2.69305
G1 X96.551 Y142.757 E2.69614
G1 X96.053 Y142.203 E2.70938
G1 X95.618 Y141.599 E2.72262
G1 X95.251 Y140.952 E2.73584
G1 X94.954 Y140.27 E2.74906
G1 X94.733 Y139.559 E2.7623
G1 X94.589 Y138.829 E2.77552
G1 X94.521 Y137.857 E2.79284
G1 X94.521 Y77.143 E3.87209
G1 X94.561 Y76.4 E3.88532
G1 X94.68 Y75.665 E3.89856
G1 X94.878 Y74.947 E3.9118
G1 X95.151 Y74.255 E3.92502
G1 X95.497 Y73.596 E3.93825
G1 X95.912 Y72.978 E3.95148
M204 S625
M205 X6 Y6
G0 F4285.7 X96.329 Y73.125
M204 S500
M205 X5 Y5
G1 F1200 X96.848 Y72.54 E3.96538
G1 X96.971 Y72.417 E3.96848
G1 X97.508 Y71.936 E3.98129
G1 X98.096 Y71.517 E3.99413
G1 X98.726 Y71.166 E4.00695
G1 X99.391 Y70.887 E4.01976
G1 X100.083 Y70.683 E4.03259
G1 X100.793 Y70.557 E4.04541
G1 X101.574 Y70.51 E4.05932
G1 X114.662 Y70.51 E4.29197
G1 X115.382 Y70.55 E4.30479
G1 X116.094 Y70.669 E4.31762
G1 X116.788 Y70.867 E4.33045
G1 X117.455 Y71.14 E4.34326
G1 X118.089 Y71.485 E4.35609
G1 X118.68 Y71.898 E4.3689
G1 X119.265 Y72.417 E4.38281
G1 X119.388 Y72.54 E4.3859
G1 X119.869 Y73.077 E4.39871
G1 X120.288 Y73.665 E4.41155
G1 X120.639 Y74.295 E4.42437
G1 X120.918 Y74.96 E4.43719
G1 X121.122 Y75.652 E4.45001
G1 X121.248 Y76.362 E4.46283
G1 X121.295 Y77.143 E4.47674
G1 X121.295 Y113.688 E5.12636
G1 X131.428 Y113.69 E5.30648
G1 X132.148 Y113.73 E5.3193
G1 X132.859 Y113.85 E5.33212
G1 X133.553 Y114.047 E5.34494
G1 X134.221 Y114.32 E5.35777
G1 X134.854 Y114.666 E5.3706
G1 X135.445 Y115.079 E5.38341
G1 X136.029 Y115.597 E5.39729
G1 X136.152 Y115.72 E5.40038
G1 X136.633 Y116.257 E5.4132
G1 X137.052 Y116.845 E5.42603
G1 X137.403 Y117.475 E5.43885
G1 X137.682 Y118.14 E5.45167
G1 X137.886 Y118.832 E5.46449
G1 X138.012 Y119.542 E5.47731
G1 X138.059 Y120.323 E5.49122
G1 X138.059 Y137.857 E5.8029
G1 X138.019 Y138.577 E5.81572
G1 X137.9 Y139.289 E5.82855
G1 X137.702 Y139.983 E5.84138
G1 X137.429 Y140.65 E5.85419
G1 X137.084 Y141.284 E5.86702
G1 X136.671 Y141.875 E5.87984
G1 X136.152 Y142.46 E5.89374
G1 X136.029 Y142.583 E5.89684
G1 X135.492 Y143.064 E5.90965
G1 X134.904 Y143.483 E5.92248
G1 X134.274 Y143.834 E5.9353
G1 X133.609 Y144.113 E5.94812
G1 X132.917 Y144.317 E5.96095
G1 X132.207 Y144.443 E5.97377
G1 X131.426 Y144.49 E5.98767
G1 X101.574 Y144.49 E6.51832
G1 X100.854 Y144.45 E6.53114
G1 X100.142 Y144.331 E6.54397
G1 X99.448 Y144.133 E6.5568
G1 X98.781 Y143.86 E6.56961
G1 X98.147 Y143.515 E6.58244
G1 X97.556 Y143.102 E6.59526
G1 X96.971 Y142.583 E6.60916
G1 X96.848 Y142.46 E6.61225
G1 X96.367 Y141.923 E6.62507
G1 X95.948 Y141.335 E6.6379
G1 X95.597 Y140.705 E6.65072
G1 X95.318 Y140.04 E6.66354
G1 X95.114 Y139.348 E6.67637
G1 X94.988 Y138.638 E6.68919
G1 X94.941 Y137.857 E6.70309
G1 X94.941 Y77.143 E7.78234
G1 X94.981 Y76.423 E7.79516
G1 X95.1 Y75.711 E7.80799
G1 X95.298 Y75.017 E7.82082
G1 X95.571 Y74.35 E7.83363
G1 X95.916 Y73.716 E7.84646
G1 X96.329 Y73.125 E7.85928
M204 S625
M205 X6 Y6
G0 F4285.7 X96.746 Y73.277
M204 S500
M205 X5 Y5
G1 F1200 X97.145 Y72.837 E7.86984
G1 X97.268 Y72.714 E7.87293
G1 X97.789 Y72.249 E7.88535
G1 X98.359 Y71.848 E7.89773
G1 X98.972 Y71.514 E7.91014
G1 X99.619 Y71.252 E7.92255
G1 X100.291 Y71.067 E7.93494
G1 X100.98 Y70.959 E7.94734
G1 X101.574 Y70.93 E7.95791
G1 X114.662 Y70.93 E8.19056
G1 X115.359 Y70.97 E8.20297
G1 X116.046 Y71.089 E8.21537
G1 X116.715 Y71.287 E8.22777
G1 X117.358 Y71.559 E8.24018
G1 X117.964 Y71.903 E8.25257
G1 X118.528 Y72.315 E8.26498
G1 X118.968 Y72.714 E8.27554
G1 X119.091 Y72.837 E8.27863
G1 X119.556 Y73.358 E8.29105
G1 X119.957 Y73.928 E8.30343
G1 X120.291 Y74.541 E8.31584
G1 X120.553 Y75.188 E8.32825
G1 X120.738 Y75.86 E8.34064
G1 X120.846 Y76.549 E8.35304
G1 X120.875 Y77.143 E8.36361
G1 X120.875 Y114.107 E9.02068
G1 X131.427 Y114.11 E9.20825
G1 X132.124 Y114.15 E9.22066
G1 X132.811 Y114.27 E9.23306
G1 X133.481 Y114.467 E9.24547
G1 X134.123 Y114.74 E9.25788
G1 X134.73 Y115.084 E9.27028
G1 X135.293 Y115.495 E9.28267
G1 X135.732 Y115.894 E9.29321
G1 X135.855 Y116.017 E9.29631
G1 X136.32 Y116.538 E9.30872
G1 X136.721 Y117.108 E9.32111
G1 X137.055 Y117.721 E9.33352
G1 X137.317 Y118.368 E9.34593
G1 X137.502 Y119.04 E9.35832
G1 X137.61 Y119.729 E9.37071
G1 X137.639 Y120.323 E9.38128
G1 X137.639 Y137.857 E9.69297
G1 X137.599 Y138.554 E9.70538
G1 X137.48 Y139.241 E9.71777
G1 X137.282 Y139.91 E9.73017
G1 X137.01 Y140.553 E9.74258
G1 X136.666 Y141.159 E9.75497
G1 X136.254 Y141.723 E9.76739
G1 X135.855 Y142.163 E9.77795
G1 X135.732 Y142.286 E9.78104
G1 X135.211 Y142.751 E9.79345
G1 X134.641 Y143.152 E9.80584
G1 X134.028 Y143.486 E9.81825
G1 X133.381 Y143.748 E9.83066
G1 X132.709 Y143.933 E9.84305
G1 X132.02 Y144.041 E9.85544
G1 X131.426 Y144.07 E9.86602
G1 X101.574 Y144.07 E10.39666
G1 X100.877 Y144.03 E10.40907
G1 X100.19 Y143.911 E10.42147
G1 X99.521 Y143.713 E10.43387
G1 X98.878 Y143.441 E10.44628
G1 X98.272 Y143.097 E10.45867
G1 X97.708 Y142.685 E10.47108
G1 X97.268 Y142.286 E10.48164
G1 X97.145 Y142.163 E10.48473
G1 X96.68 Y141.642 E10.49715
G1 X96.279 Y141.072 E10.50954
G1 X95.945 Y140.459 E10.52195
G1 X95.683 Y139.812 E10.53435
G1 X95.498 Y139.14 E10.54674
G1 X95.39 Y138.451 E10.55914
G1 X95.361 Y137.857 E10.56971
G1 X95.361 Y77.143 E11.64896
G1 X95.401 Y76.446 E11.66137
G1 X95.52 Y75.759 E11.67377
G1 X95.718 Y75.09 E11.68617
G1 X95.99 Y74.447 E11.69858
G1 X96.334 Y73.841 E11.71097
G1 X96.746 Y73.277 E11.72338
M204 S625
M205 X6 Y6
G0 F4285.7 X96.752 Y73.97
M204 S500
M205 X5 Y5
G1 F1200 X97.161 Y73.435 E11.73535
G1 X97.442 Y73.134 E11.74267
G1 X97.565 Y73.011 E11.74576
G1 X98.068 Y72.564 E11.75773
G1 X98.621 Y72.18 E11.76969
G1 X99.216 Y71.864 E11.78167
G1 X99.843 Y71.621 E11.79362
G1 X100.495 Y71.454 E11.80559
G1 X101.163 Y71.365 E11.81757
G1 X101.574 Y71.35 E11.82488
G1 X114.662 Y71.35 E12.05753
G1 X115.334 Y71.39 E12.0695
G1 X115.997 Y71.509 E12.08147
G1 X116.64 Y71.706 E12.09342
G1 X117.256 Y71.978 E12.10539
G1 X117.835 Y72.321 E12.11736
G1 X118.37 Y72.73 E12.12933
G1 X118.671 Y73.011 E12.13665
G1 X118.794 Y73.134 E12.13974
G1 X119.241 Y73.637 E12.1517
G1 X119.625 Y74.19 E12.16367
G1 X119.941 Y74.785 E12.17564
G1 X120.184 Y75.412 E12.1876
G1 X120.351 Y76.064 E12.19956
G1 X120.44 Y76.732 E12.21154
G1 X120.455 Y77.143 E12.21885
G1 X120.455 Y114.527 E12.88339
G1 X131.427 Y114.53 E13.07843
G1 X132.099 Y114.57 E13.09039
G1 X132.762 Y114.69 E13.10237
G1 X133.406 Y114.887 E13.11434
G1 X134.021 Y115.159 E13.1263
G1 X134.601 Y115.502 E13.13827
G1 X135.135 Y115.911 E13.15023
G1 X135.435 Y116.191 E13.15753
G1 X135.558 Y116.314 E13.16062
G1 X136.005 Y116.817 E13.17258
G1 X136.389 Y117.37 E13.18455
G1 X136.705 Y117.965 E13.19652
G1 X136.948 Y118.592 E13.20848
G1 X137.115 Y119.244 E13.22044
G1 X137.204 Y119.912 E13.23242
G1 X137.219 Y120.323 E13.23973
G1 X137.219 Y137.857 E13.55141
G1 X137.179 Y138.529 E13.56338
G1 X137.06 Y139.192 E13.57535
G1 X136.863 Y139.835 E13.58731
G1 X136.591 Y140.451 E13.59928
G1 X136.248 Y141.03 E13.61124
G1 X135.839 Y141.565 E13.62321
G1 X135.558 Y141.866 E13.63053
G1 X135.435 Y141.989 E13.63362
G1 X134.932 Y142.436 E13.64559
G1 X134.379 Y142.82 E13.65755
G1 X133.784 Y143.136 E13.66953
G1 X133.157 Y143.379 E13.68148
G1 X132.505 Y143.546 E13.69345
G1 X131.837 Y143.635 E13.70543
G1 X131.426 Y143.65 E13.71274
G1 X101.574 Y143.65 E14.24339
G1 X100.902 Y143.61 E14.25535
G1 X100.239 Y143.491 E14.26733
G1 X99.596 Y143.294 E14.27928
G1 X98.98 Y143.022 E14.29125
G1 X98.401 Y142.679 E14.30321
G1 X97.866 Y142.27 E14.31518
G1 X97.565 Y141.989 E14.3225
G1 X97.442 Y141.866 E14.3256
G1 X96.995 Y141.363 E14.33756
G1 X96.611 Y140.81 E14.34953
G1 X96.295 Y140.215 E14.3615
G1 X96.052 Y139.588 E14.37345
G1 X95.885 Y138.936 E14.38542
G1 X95.796 Y138.268 E14.3974
G1 X95.781 Y137.857 E14.40471
G1 X95.781 Y77.143 E15.48396
G1 X95.821 Y76.471 E15.49593
G1 X95.94 Y75.808 E15.5079
G1 X96.137 Y75.165 E15.51985
G1 X96.409 Y74.549 E15.53182
G1 X96.752 Y73.97 E15.54379
M204 S625
M205 X6 Y6
G0 F4285.7 X97.17 Y74.104
M204 S500
M205 X5 Y5
G1 F1200 X97.739 Y73.431 E15.55945
G1 X97.862 Y73.308 E15.56254
G1 X98.347 Y72.879 E15.57405
G1 X98.882 Y72.513 E15.58558
G1 X99.457 Y72.216 E15.59708
G1 X100.065 Y71.992 E15.6086
G1 X100.696 Y71.844 E15.62012
G1 X101.574 Y71.77 E15.63578
G1 X114.662 Y71.77 E15.86843
G1 X115.309 Y71.81 E15.87996
G1 X115.945 Y71.929 E15.89146
G1 X116.562 Y72.126 E15.90297
G1 X117.151 Y72.397 E15.9145
G1 X117.701 Y72.739 E15.92601
G1 X118.374 Y73.308 E15.94168
G1 X118.497 Y73.431 E15.94477
G1 X118.926 Y73.916 E15.95628
G1 X119.292 Y74.451 E15.9678
G1 X119.589 Y75.026 E15.97931
G1 X119.813 Y75.634 E15.99082
G1 X119.961 Y76.265 E16.00234
G1 X120.035 Y77.143 E16.01801
G1 X120.035 Y114.947 E16.69001
G1 X131.427 Y114.95 E16.89251
G1 X132.074 Y114.99 E16.90404
G1 X132.71 Y115.11 E16.91554
G1 X133.328 Y115.306 E16.92707
G1 X133.916 Y115.578 E16.93858
G1 X134.466 Y115.92 E16.9501
G1 X135.138 Y116.488 E16.96574
G1 X135.261 Y116.611 E16.96883
G1 X135.69 Y117.096 E16.98034
G1 X136.056 Y117.631 E16.99186
G1 X136.353 Y118.206 E17.00337
G1 X136.577 Y118.814 E17.01488
G1 X136.725 Y119.445 E17.02641
G1 X136.799 Y120.323 E17.04207
G1 X136.799 Y137.857 E17.35375
G1 X136.759 Y138.504 E17.36527
G1 X136.64 Y139.14 E17.37678
G1 X136.443 Y139.757 E17.38829
G1 X136.172 Y140.346 E17.39981
G1 X135.83 Y140.896 E17.41133
G1 X135.261 Y141.569 E17.42699
G1 X135.138 Y141.692 E17.43009
G1 X134.653 Y142.121 E17.4416
G1 X134.118 Y142.487 E17.45312
G1 X133.543 Y142.784 E17.46462
G1 X132.935 Y143.008 E17.47614
G1 X132.304 Y143.156 E17.48766
G1 X131.426 Y143.23 E17.50332
G1 X101.574 Y143.23 E18.03397
G1 X100.927 Y143.19 E18.0455
G1 X100.291 Y143.071 E18.057
G1 X99.674 Y142.874 E18.06851
G1 X99.085 Y142.603 E18.08004
G1 X98.535 Y142.261 E18.09155
G1 X97.862 Y141.692 E18.10721
G1 X97.739 Y141.569 E18.11031
G1 X97.31 Y141.084 E18.12182
G1 X96.944 Y140.549 E18.13334
G1 X96.647 Y139.974 E18.14484
G1 X96.423 Y139.366 E18.15636
G1 X96.275 Y138.735 E18.16788
G1 X96.201 Y137.857 E18.18355
G1 X96.201 Y77.143 E19.2628
G1 X96.241 Y76.496 E19.27432
G1 X96.36 Y75.86 E19.28582
G1 X96.557 Y75.243 E19.29733
G1 X96.828 Y74.654 E19.30886
G1 X97.17 Y74.104 E19.32037
M204 S625
M205 X6 Y6
G0 F4285.7 X97.587 Y74.245
M204 S500
M205 X5 Y5
G1 F1200 X98.036 Y73.728 E19.33254
G1 X98.159 Y73.605 E19.33564
G1 X98.625 Y73.195 E19.34667
G1 X99.141 Y72.848 E19.35772
G1 X99.697 Y72.57 E19.36877
G1 X100.283 Y72.366 E19.3798
G1 X100.891 Y72.238 E19.39085
G1 X101.574 Y72.19 E19.40302
G1 X114.662 Y72.19 E19.63567
G1 X115.282 Y72.23 E19.64671
G1 X115.892 Y72.349 E19.65776
G1 X116.481 Y72.546 E19.6688
G1 X117.04 Y72.816 E19.67984
G1 X117.56 Y73.156 E19.69088
G1 X118.077 Y73.605 E19.70305
G1 X118.2 Y73.728 E19.70615
G1 X118.61 Y74.194 E19.71718
G1 X118.957 Y74.71 E19.72823
G1 X119.235 Y75.266 E19.73928
G1 X119.439 Y75.852 E19.75031
G1 X119.567 Y76.46 E19.76136
G1 X119.615 Y77.143 E19.77353
G1 X119.615 Y115.367 E20.453
G1 X131.427 Y115.37 E20.66297
G1 X132.047 Y115.41 E20.67401
G1 X132.657 Y115.529 E20.68506
G1 X133.246 Y115.726 E20.6961
G1 X133.805 Y115.997 E20.70714
G1 X134.325 Y116.337 E20.71819
G1 X134.841 Y116.785 E20.73033
G1 X134.964 Y116.908 E20.73343
G1 X135.374 Y117.374 E20.74446
G1 X135.721 Y117.89 E20.75551
G1 X135.999 Y118.446 E20.76656
G1 X136.203 Y119.032 E20.77759
G1 X136.331 Y119.64 E20.78864
G1 X136.379 Y120.323 E20.80081
G1 X136.379 Y137.857 E21.11249
G1 X136.339 Y138.477 E21.12354
G1 X136.22 Y139.087 E21.13458
G1 X136.023 Y139.676 E21.14562
G1 X135.753 Y140.235 E21.15666
G1 X135.413 Y140.755 E21.1677
G1 X134.964 Y141.272 E21.17987
G1 X134.841 Y141.395 E21.18297
G1 X134.375 Y141.805 E21.194
G1 X133.859 Y142.152 E21.20505
G1 X133.303 Y142.43 E21.2161
G1 X132.717 Y142.634 E21.22713
G1 X132.109 Y142.762 E21.23818
G1 X131.426 Y142.81 E21.25035
G1 X101.574 Y142.81 E21.781
G1 X100.954 Y142.77 E21.79204
G1 X100.344 Y142.651 E21.80309
G1 X99.755 Y142.454 E21.81413
G1 X99.196 Y142.184 E21.82516
G1 X98.676 Y141.844 E21.83621
G1 X98.159 Y141.395 E21.84838
G1 X98.036 Y141.272 E21.85147
G1 X97.626 Y140.806 E21.86251
G1 X97.279 Y140.29 E21.87356
G1 X97.001 Y139.734 E21.88461
G1 X96.797 Y139.148 E21.89564
G1 X96.669 Y138.54 E21.90668
G1 X96.621 Y137.857 E21.91886
G1 X96.621 Y77.143 E22.99811
G1 X96.661 Y76.523 E23.00915
G1 X96.78 Y75.913 E23.0202
G1 X96.977 Y75.324 E23.03124
G1 X97.247 Y74.765 E23.04227
G1 X97.587 Y74.245 E23.05332
M204 S625
M205 X6 Y6
G0 F4285.7 X98.004 Y74.392
M204 S500
M205 X5 Y5
G1 F1200 X98.333 Y74.025 E23.06208
G1 X98.456 Y73.902 E23.06517
G1 X98.903 Y73.511 E23.07573
G1 X99.398 Y73.184 E23.08627
G1 X99.933 Y72.927 E23.09682
G1 X100.498 Y72.743 E23.10739
G1 X101.082 Y72.638 E23.11793
G1 X101.574 Y72.61 E23.12669
G1 X114.662 Y72.61 E23.35935
G1 X115.254 Y72.65 E23.36989
G1 X115.836 Y72.769 E23.38045
G1 X116.396 Y72.965 E23.391
G1 X116.925 Y73.235 E23.40156
G1 X117.413 Y73.573 E23.41211
G1 X117.78 Y73.902 E23.42087
G1 X117.903 Y74.025 E23.42396
G1 X118.294 Y74.472 E23.43452
G1 X118.621 Y74.967 E23.44507
G1 X118.878 Y75.502 E23.45562
G1 X119.062 Y76.067 E23.46618
G1 X119.167 Y76.651 E23.47673
G1 X119.195 Y77.143 E23.48549
G1 X119.195 Y115.787 E24.17242
G1 X131.427 Y115.79 E24.38986
G1 X132.019 Y115.83 E24.4004
G1 X132.601 Y115.949 E24.41096
G1 X133.161 Y116.146 E24.42152
G1 X133.69 Y116.415 E24.43207
G1 X134.178 Y116.754 E24.44263
G1 X134.544 Y117.082 E24.45136
G1 X134.667 Y117.205 E24.45446
G1 X135.058 Y117.652 E24.46501
