;START_OF_HEADER
;HEADER_VERSION:0.1
;FLAVOR:Griffin
;GENERATOR.NAME:Cura_SteamEngine
;GENERATOR.VERSION:3.6.0
;GENERATOR.BUILD_DATE:2018-11-12
;TARGET_MACHINE.NAME:Ultimaker 3
;EXTRUDER_TRAIN.0.INITIAL_TEMPERATURE:217
;EXTRUDER_TRAIN.0.MATERIAL.VOLUME_USED:463
;EXTRUDER_TRAIN.0.MATERIAL.GUID:44a029e6-e31b-4c9e-a12f-9282e29a92ff
;EXTRUDER_TRAIN.0.NOZZLE.DIAMETER:0.4
;EXTRUDER_TRAIN.0.NOZZLE.NAME:AA 0.4
;BUILD_PLATE.TYPE:glass
;BUILD_PLATE.INITIAL_TEMPERATURE:60
;PRINT.TIME:880
;PRINT.SIZE.MIN.X:9
;PRINT.SIZE.MIN.Y:6
;PRINT.SIZE.MIN.Z:0.27
;PRINT.SIZE.MAX.X:127.605
;PRINT.SIZE.MAX.Y:118.615
;PRINT.SIZE.MAX.Z:19.77
;END_OF_HEADER
;Generated with Cura_SteamEngine 3.6.0
T0
M82 ;absolute extrusion mode

G92 E0
M109 S217
G0 F15000 X9 Y6 Z2
G280
G1 F1500 E-6.5
;LAYER_COUNT:196
;LAYER:0
M107
M204 S625
M205 X6 Y6
G0 F4285.7 X108.436 Y99.846 Z0.27
M204 S500
M205 X5 Y5
;TYPE:SKIRT
G1 F1500 E0
G1 F1200 X108.727 Y99.562 E0.00723
G1 X109.238 Y99.092 E0.01957
G1 X109.812 Y98.619 E0.03279
G1 X110.141 Y98.39 E0.03992
G1 X110.72 Y98.012 E0.05221
G1 X111.364 Y97.639 E0.06544
G1 X111.73 Y97.466 E0.07263
G1 X112.363 Y97.189 E0.08492
G1 X113.06 Y96.928 E0.09815
G1 X113.437 Y96.821 E0.10511
G1 X114.107 Y96.651 E0.1174
G1 X114.837 Y96.507 E0.13063
G1 X115.25 Y96.461 E0.13801
G1 X115.94 Y96.405 E0.15032
G1 X116.684 Y96.384 E0.16355
G1 X117.061 Y96.405 E0.17026
G1 X117.752 Y96.461 E0.18258
G1 X118.489 Y96.561 E0.19581
G1 X118.908 Y96.654 E0.20343
G1 X119.577 Y96.825 E0.21571
G1 X120.287 Y97.048 E0.22894
G1 X120.639 Y97.19 E0.23569
G1 X121.272 Y97.467 E0.24797
G1 X121.937 Y97.802 E0.2612
G1 X122.294 Y98.021 E0.26865
G1 X122.872 Y98.4 E0.28094
G1 X123.472 Y98.841 E0.29417
G1 X123.758 Y99.09 E0.30091
G1 X124.27 Y99.56 E0.31327
G1 X124.791 Y100.092 E0.3265
G1 X125.059 Y100.416 E0.33398
G1 X125.482 Y100.961 E0.34624
G1 X125.906 Y101.573 E0.35948
G1 X126.104 Y101.917 E0.36653
G1 X126.434 Y102.528 E0.37888
G1 X126.753 Y103.201 E0.39211
G1 X126.893 Y103.575 E0.39921
G1 X127.116 Y104.226 E0.41145
G1 X127.319 Y104.942 E0.42467
G1 X127.395 Y105.326 E0.43163
G1 X127.51 Y106.012 E0.444
G1 X127.593 Y106.752 E0.45723
G1 X127.605 Y107.168 E0.46463
G1 X127.604 Y107.857 E0.47688
G1 X127.563 Y108.6 E0.49011
G1 X127.508 Y108.998 E0.49725
G1 X127.394 Y109.675 E0.50945
G1 X127.231 Y110.401 E0.52268
G1 X127.116 Y110.77 E0.52955
G1 X126.892 Y111.424 E0.54184
G1 X126.613 Y112.114 E0.55507
G1 X126.433 Y112.471 E0.56218
G1 X126.103 Y113.082 E0.57452
G1 X125.715 Y113.717 E0.58775
G1 X125.481 Y114.038 E0.59481
G1 X125.058 Y114.583 E0.60707
G1 X124.57 Y115.146 E0.62032
G1 X124.269 Y115.439 E0.62778
G1 X123.757 Y115.909 E0.64014
G1 X123.183 Y116.382 E0.65336
G1 X122.871 Y116.599 E0.66012
G1 X122.293 Y116.978 E0.6724
G1 X121.65 Y117.352 E0.68563
G1 X121.271 Y117.532 E0.69308
G1 X120.638 Y117.809 E0.70537
G1 X119.941 Y118.07 E0.7186
G1 X119.576 Y118.174 E0.72534
G1 X118.907 Y118.345 E0.73762
G1 X118.177 Y118.49 E0.75085
G1 X117.752 Y118.538 E0.75845
G1 X117.063 Y118.594 E0.77074
G1 X116.319 Y118.615 E0.78397
G1 X115.941 Y118.594 E0.7907
G1 X115.251 Y118.538 E0.803
G1 X114.514 Y118.438 E0.81622
G1 X114.108 Y118.348 E0.82362
G1 X113.438 Y118.178 E0.8359
G1 X112.727 Y117.957 E0.84914
G1 X112.364 Y117.81 E0.8561
G1 X111.731 Y117.533 E0.86838
G1 X111.066 Y117.198 E0.88162
G1 X110.721 Y116.987 E0.88881
G1 X110.142 Y116.609 E0.9011
G1 X109.541 Y116.169 E0.91434
G1 X109.239 Y115.907 E0.92145
G1 X108.728 Y115.437 E0.93379
G1 X108.208 Y114.904 E0.94703
G1 X107.949 Y114.591 E0.95425
G1 X107.525 Y114.046 E0.96652
G1 X107.1 Y113.435 E0.97975
G1 X106.898 Y113.084 E0.98695
G1 X106.568 Y112.473 E0.99929
G1 X106.249 Y111.8 E1.01253
G1 X106.109 Y111.426 E1.01963
G1 X105.886 Y110.775 E1.03186
G1 X105.683 Y110.059 E1.04509
G1 X105.608 Y109.676 E1.05203
G1 X105.493 Y108.991 E1.06438
G1 X105.409 Y108.252 E1.0776
G1 X105.397 Y107.854 E1.08468
G1 X105.396 Y107.165 E1.09693
G1 X105.435 Y106.422 E1.11015
G1 X105.492 Y106.004 E1.11765
G1 X105.607 Y105.321 E1.12996
G1 X105.77 Y104.595 E1.14319
G1 X105.883 Y104.232 E1.14995
G1 X106.106 Y103.579 E1.16221
G1 X106.384 Y102.889 E1.17544
G1 X106.567 Y102.526 E1.18266
G1 X106.897 Y101.915 E1.19501
G1 X107.285 Y101.28 E1.20823
G1 X107.524 Y100.953 E1.21543
G1 X107.948 Y100.408 E1.22771
G1 X108.436 Y99.846 E1.24094
M204 S625
M205 X6 Y6
G0 F4285.7 X109.011 Y99.872
M204 S500
M205 X5 Y5
G1 F1200 X109.522 Y99.402 E1.25328
G1 X110.37 Y98.742 E1.27238
G1 X110.949 Y98.364 E1.28467
G1 X111.898 Y97.851 E1.30385
G1 X112.531 Y97.574 E1.31613
G1 X113.54 Y97.228 E1.33509
G1 X114.21 Y97.058 E1.34738
G1 X114.918 Y96.92 E1.3602
G1 X115.284 Y96.879 E1.36675
G1 X115.974 Y96.823 E1.37906
G1 X117.027 Y96.823 E1.39777
G1 X117.718 Y96.879 E1.4101
G1 X118.433 Y96.977 E1.42293
G1 X118.804 Y97.061 E1.42969
G1 X119.473 Y97.232 E1.44196
G1 X120.471 Y97.575 E1.46072
G1 X121.104 Y97.852 E1.473
G1 X121.748 Y98.177 E1.48583
G1 X122.064 Y98.372 E1.49243
G1 X122.642 Y98.751 E1.50471
G1 X123.474 Y99.399 E1.52346
G1 X123.986 Y99.869 E1.53581
G1 X124.49 Y100.386 E1.54865
G1 X124.727 Y100.673 E1.55527
G1 X125.15 Y101.218 E1.56753
G1 X125.735 Y102.116 E1.58658
G1 X126.065 Y102.727 E1.59892
G1 X126.496 Y103.711 E1.61802
G1 X126.719 Y104.362 E1.63025
G1 X126.98 Y105.396 E1.64921
G1 X127.095 Y106.082 E1.66157
G1 X127.175 Y106.799 E1.6744
G1 X127.185 Y107.167 E1.68094
G1 X127.184 Y107.856 E1.69319
G1 X127.094 Y108.928 E1.71231
G1 X126.98 Y109.605 E1.72452
G1 X126.719 Y110.633 E1.74337
G1 X126.495 Y111.287 E1.75566
G1 X126.064 Y112.272 E1.77477
G1 X125.734 Y112.883 E1.78711
G1 X125.149 Y113.781 E1.80617
G1 X124.726 Y114.326 E1.81843
G1 X124.253 Y114.87 E1.83124
G1 X123.985 Y115.13 E1.83788
G1 X123.473 Y115.6 E1.85024
G1 X122.641 Y116.248 E1.86898
G1 X122.063 Y116.627 E1.88127
G1 X121.438 Y116.989 E1.89411
G1 X121.103 Y117.147 E1.90069
G1 X120.47 Y117.424 E1.91297
G1 X119.472 Y117.767 E1.93173
G1 X118.803 Y117.938 E1.94401
G1 X118.095 Y118.078 E1.95684
G1 X117.718 Y118.12 E1.96358
G1 X117.029 Y118.176 E1.97587
G1 X115.975 Y118.176 E1.9946
G1 X115.285 Y118.12 E2.00691
G1 X114.571 Y118.022 E2.01972
G1 X114.211 Y117.941 E2.02628
G1 X113.541 Y117.771 E2.03857
G1 X112.532 Y117.425 E2.05753
G1 X111.899 Y117.148 E2.06981
G1 X110.95 Y116.635 E2.08899
G1 X110.371 Y116.257 E2.10128
G1 X109.523 Y115.597 E2.12038
G1 X109.012 Y115.127 E2.13272
G1 X108.281 Y114.333 E2.15191
G1 X107.857 Y113.788 E2.16418
G1 X107.267 Y112.885 E2.18335
G1 X106.937 Y112.274 E2.1957
G1 X106.506 Y111.29 E2.21479
G1 X106.283 Y110.639 E2.22703
G1 X106.022 Y109.607 E2.24595
G1 X105.907 Y108.922 E2.2583
G1 X105.817 Y107.853 E2.27737
G1 X105.816 Y107.164 E2.28961
G1 X105.855 Y106.444 E2.30243
G1 X105.906 Y106.074 E2.30907
G1 X106.021 Y105.391 E2.32138
G1 X106.28 Y104.368 E2.34014
G1 X106.503 Y103.715 E2.35241
G1 X106.936 Y102.725 E2.37161
G1 X107.266 Y102.114 E2.38396
G1 X107.856 Y101.211 E2.40313
G1 X108.28 Y100.666 E2.41541
G1 X109.011 Y99.872 E2.43459
M204 S625
M205 X6 Y6
G0 F4285.7 X109.295 Y100.181
M204 S500
M205 X5 Y5
G1 F1200 X109.806 Y99.711 E2.44693
G1 X110.6 Y99.094 E2.46481
G1 X111.179 Y98.716 E2.4771
G1 X112.067 Y98.236 E2.49504
G1 X112.7 Y97.959 E2.50733
G1 X113.643 Y97.635 E2.52505
G1 X114.313 Y97.465 E2.53734
G1 X115.318 Y97.298 E2.55545
G1 X116.008 Y97.242 E2.56775
G1 X116.993 Y97.242 E2.58526
G1 X117.684 Y97.298 E2.59759
G1 X118.7 Y97.468 E2.6159
G1 X119.369 Y97.639 E2.62817
G1 X120.302 Y97.96 E2.64571
G1 X120.935 Y98.237 E2.65799
G1 X121.833 Y98.723 E2.67614
G1 X122.411 Y99.102 E2.68843
G1 X123.19 Y99.709 E2.70598
G1 X123.702 Y100.179 E2.71834
G1 X124.395 Y100.931 E2.73652
G1 X124.818 Y101.476 E2.74878
G1 X125.365 Y102.316 E2.7666
G1 X125.695 Y102.927 E2.77894
G1 X126.098 Y103.847 E2.7968
G1 X126.321 Y104.498 E2.80903
G1 X126.566 Y105.465 E2.82676
G1 X126.681 Y106.151 E2.83913
G1 X126.765 Y107.167 E2.85725
G1 X126.764 Y107.856 E2.8695
G1 X126.679 Y108.858 E2.88737
G1 X126.565 Y109.535 E2.89958
G1 X126.321 Y110.497 E2.91722
G1 X126.097 Y111.151 E2.92951
G1 X125.694 Y112.072 E2.94738
G1 X125.364 Y112.683 E2.95972
G1 X124.817 Y113.523 E2.97754
G1 X124.394 Y114.068 E2.9898
G1 X123.701 Y114.82 E3.00798
G1 X123.189 Y115.29 E3.02034
G1 X122.41 Y115.897 E3.03789
G1 X121.832 Y116.276 E3.05018
G1 X120.934 Y116.762 E3.06833
G1 X120.301 Y117.039 E3.08061
G1 X119.368 Y117.36 E3.09815
G1 X118.699 Y117.531 E3.11042
G1 X117.684 Y117.701 E3.12872
G1 X116.995 Y117.757 E3.14101
G1 X116.009 Y117.757 E3.15853
G1 X115.319 Y117.701 E3.17084
G1 X114.314 Y117.534 E3.18895
G1 X113.644 Y117.364 E3.20124
G1 X112.701 Y117.04 E3.21896
G1 X112.068 Y116.763 E3.23124
G1 X111.18 Y116.283 E3.24919
G1 X110.601 Y115.905 E3.26148
G1 X109.807 Y115.288 E3.27935
G1 X109.296 Y114.818 E3.29169
G1 X108.612 Y114.076 E3.30963
G1 X108.188 Y113.531 E3.32191
G1 X107.637 Y112.685 E3.33985
G1 X107.307 Y112.074 E3.3522
G1 X106.904 Y111.154 E3.37005
G1 X106.681 Y110.503 E3.38228
G1 X106.436 Y109.537 E3.4
G1 X106.321 Y108.852 E3.41235
G1 X106.237 Y107.853 E3.43017
G1 X106.236 Y107.164 E3.44241
G1 X106.321 Y106.144 E3.46061
G1 X106.436 Y105.461 E3.47292
G1 X106.678 Y104.504 E3.49047
G1 X106.901 Y103.851 E3.50273
G1 X107.306 Y102.925 E3.5207
G1 X107.636 Y102.314 E3.53304
G1 X108.187 Y101.468 E3.55099
G1 X108.611 Y100.923 E3.56327
G1 X109.295 Y100.181 E3.5812
M204 S625
M205 X6 Y6
G0 F4285.7 X109.58 Y100.49
M204 S500
M205 X5 Y5
G1 F1200 X110.091 Y100.02 E3.59355
G1 X110.829 Y99.445 E3.61018
G1 X111.408 Y99.067 E3.62247
G1 X112.235 Y98.621 E3.63917
G1 X112.868 Y98.344 E3.65145
G1 X113.747 Y98.042 E3.66797
G1 X114.417 Y97.872 E3.68026
G1 X115.352 Y97.717 E3.69711
G1 X116.042 Y97.661 E3.70941
G1 X116.959 Y97.661 E3.72572
G1 X117.65 Y97.717 E3.73804
G1 X118.596 Y97.875 E3.75509
G1 X119.265 Y98.046 E3.76736
G1 X120.134 Y98.345 E3.7837
G1 X120.767 Y98.622 E3.79598
G1 X121.603 Y99.074 E3.81287
G1 X122.181 Y99.453 E3.82516
G1 X122.906 Y100.018 E3.8415
G1 X123.418 Y100.488 E3.85385
G1 X124.063 Y101.189 E3.87079
G1 X124.486 Y101.734 E3.88305
G1 X124.996 Y102.516 E3.89965
G1 X125.326 Y103.127 E3.91199
G1 X125.701 Y103.984 E3.92862
G1 X125.924 Y104.635 E3.94085
G1 X126.152 Y105.535 E3.95736
G1 X126.267 Y106.221 E3.96972
G1 X126.345 Y107.166 E3.98658
G1 X126.344 Y107.855 E3.99882
G1 X126.265 Y108.789 E4.01548
G1 X126.151 Y109.466 E4.02769
G1 X125.924 Y110.361 E4.0441
G1 X125.7 Y111.015 E4.05639
G1 X125.325 Y111.872 E4.07302
G1 X124.995 Y112.483 E4.08536
G1 X124.485 Y113.265 E4.10196
G1 X124.062 Y113.81 E4.11422
G1 X123.417 Y114.511 E4.13116
G1 X122.905 Y114.981 E4.14351
G1 X122.18 Y115.546 E4.15985
G1 X121.602 Y115.925 E4.17214
G1 X120.766 Y116.377 E4.18903
G1 X120.133 Y116.654 E4.20131
G1 X119.264 Y116.953 E4.21765
G1 X118.595 Y117.124 E4.22992
G1 X117.65 Y117.282 E4.24695
G1 X116.961 Y117.338 E4.25924
G1 X116.043 Y117.338 E4.27556
G1 X115.353 Y117.282 E4.28787
G1 X114.418 Y117.127 E4.30471
G1 X113.748 Y116.957 E4.317
G1 X112.869 Y116.655 E4.33352
G1 X112.236 Y116.378 E4.3458
G1 X111.409 Y115.932 E4.36251
G1 X110.83 Y115.554 E4.3748
G1 X110.092 Y114.979 E4.39143
G1 X109.581 Y114.509 E4.40377
G1 X108.944 Y113.818 E4.42048
G1 X108.52 Y113.273 E4.43275
G1 X108.006 Y112.485 E4.44947
G1 X107.676 Y111.874 E4.46182
G1 X107.301 Y111.017 E4.47845
G1 X107.078 Y110.366 E4.49068
G1 X106.85 Y109.468 E4.50715
G1 X106.735 Y108.783 E4.5195
G1 X106.657 Y107.852 E4.5361
G1 X106.656 Y107.163 E4.54835
G1 X106.735 Y106.214 E4.56528
G1 X106.85 Y105.531 E4.57759
G1 X107.075 Y104.64 E4.59393
G1 X107.298 Y103.987 E4.60619
G1 X107.675 Y103.125 E4.62292
G1 X108.005 Y102.514 E4.63526
G1 X108.519 Y101.726 E4.65198
G1 X108.943 Y101.181 E4.66426
G1 X109.58 Y100.49 E4.68096
M204 S625
M205 X6 Y6
G0 F4285.7 X109.864 Y100.799
M204 S500
M205 X5 Y5
G1 F1200 X110.375 Y100.329 E4.69331
G1 X111.059 Y99.797 E4.70871
G1 X111.638 Y99.419 E4.721
G1 X112.403 Y99.005 E4.73646
G1 X113.036 Y98.728 E4.74875
G1 X113.85 Y98.449 E4.76404
G1 X114.52 Y98.279 E4.77633
G1 X115.386 Y98.135 E4.79193
G1 X116.076 Y98.079 E4.80424
G1 X116.925 Y98.079 E4.81933
G1 X117.616 Y98.135 E4.83166
G1 X118.492 Y98.282 E4.84744
G1 X119.161 Y98.453 E4.85972
G1 X119.966 Y98.729 E4.87485
G1 X120.599 Y99.006 E4.88713
G1 X121.373 Y99.426 E4.90278
G1 X121.951 Y99.805 E4.91507
G1 X122.622 Y100.327 E4.93018
G1 X123.134 Y100.797 E4.94254
G1 X123.731 Y101.446 E4.95821
G1 X124.154 Y101.991 E4.97047
G1 X124.626 Y102.715 E4.98584
G1 X124.956 Y103.326 E4.99818
G1 X125.304 Y104.12 E5.01359
G1 X125.527 Y104.771 E5.02582
G1 X125.738 Y105.604 E5.0411
G1 X125.853 Y106.29 E5.05346
G1 X125.925 Y107.166 E5.06909
G1 X125.924 Y107.855 E5.08134
G1 X125.851 Y108.719 E5.09675
G1 X125.737 Y109.396 E5.10895
G1 X125.527 Y110.225 E5.12415
G1 X125.303 Y110.879 E5.13644
G1 X124.955 Y111.673 E5.15185
G1 X124.625 Y112.284 E5.1642
G1 X124.153 Y113.008 E5.17956
G1 X123.73 Y113.553 E5.19182
G1 X123.133 Y114.202 E5.2075
G1 X122.621 Y114.672 E5.21985
G1 X121.95 Y115.194 E5.23497
G1 X121.372 Y115.573 E5.24725
G1 X120.598 Y115.993 E5.26291
G1 X119.965 Y116.27 E5.27519
G1 X119.16 Y116.546 E5.29032
G1 X118.491 Y116.717 E5.30259
G1 X117.616 Y116.864 E5.31836
G1 X116.927 Y116.92 E5.33065
G1 X116.077 Y116.92 E5.34576
G1 X115.387 Y116.864 E5.35807
G1 X114.521 Y116.72 E5.37367
G1 X113.851 Y116.55 E5.38596
G1 X113.037 Y116.271 E5.40125
G1 X112.404 Y115.994 E5.41354
G1 X111.639 Y115.58 E5.429
G1 X111.06 Y115.202 E5.44129
G1 X110.376 Y114.67 E5.45669
G1 X109.865 Y114.2 E5.46903
G1 X109.275 Y113.56 E5.48451
G1 X108.851 Y113.015 E5.49678
G1 X108.376 Y112.286 E5.51225
G1 X108.046 Y111.675 E5.52459
G1 X107.698 Y110.881 E5.54
G1 X107.475 Y110.23 E5.55224
G1 X107.264 Y109.398 E5.56749
G1 X107.149 Y108.713 E5.57984
G1 X107.077 Y107.852 E5.5952
G1 X107.076 Y107.163 E5.60745
G1 X107.149 Y106.283 E5.62314
G1 X107.264 Y105.6 E5.63546
G1 X107.473 Y104.775 E5.65058
G1 X107.696 Y104.122 E5.66285
G1 X108.045 Y103.324 E5.67833
G1 X108.375 Y102.713 E5.69068
G1 X108.85 Y101.984 E5.70614
G1 X109.274 Y101.439 E5.71842
G1 X109.864 Y100.799 E5.73389
M204 S625
M205 X6 Y6
G0 F4285.7 X110.148 Y101.108
M204 S500
M205 X5 Y5
G1 F1200 X110.659 Y100.638 E5.74623
G1 X111.289 Y100.149 E5.76041
G1 X111.868 Y99.771 E5.7727
G1 X112.572 Y99.39 E5.78693
G1 X113.205 Y99.113 E5.79921
G1 X113.953 Y98.856 E5.81327
G1 X114.623 Y98.686 E5.82556
G1 X115.42 Y98.554 E5.83992
G1 X116.11 Y98.498 E5.85222
G1 X116.891 Y98.498 E5.86611
G1 X117.582 Y98.554 E5.87843
G1 X118.388 Y98.688 E5.89296
G1 X119.057 Y98.859 E5.90523
G1 X119.797 Y99.114 E5.91914
G1 X120.43 Y99.391 E5.93143
G1 X121.142 Y99.777 E5.94582
G1 X121.72 Y100.156 E5.95811
G1 X122.338 Y100.637 E5.97203
G1 X122.85 Y101.107 E5.98438
G1 X123.4 Y101.704 E5.99881
G1 X123.823 Y102.249 E6.01108
G1 X124.257 Y102.915 E6.02521
G1 X124.587 Y103.526 E6.03755
G1 X124.906 Y104.256 E6.05171
G1 X125.129 Y104.907 E6.06395
G1 X125.324 Y105.673 E6.078
G1 X125.439 Y106.359 E6.09036
G1 X125.505 Y107.165 E6.10474
G1 X125.504 Y107.854 E6.11698
G1 X125.437 Y108.649 E6.13117
G1 X125.323 Y109.326 E6.14337
G1 X125.129 Y110.089 E6.15736
G1 X124.905 Y110.743 E6.16965
G1 X124.586 Y111.473 E6.18381
G1 X124.256 Y112.084 E6.19616
G1 X123.822 Y112.75 E6.21029
G1 X123.399 Y113.295 E6.22255
G1 X122.849 Y113.892 E6.23698
G1 X122.337 Y114.362 E6.24934
G1 X121.719 Y114.843 E6.26326
G1 X121.141 Y115.222 E6.27554
G1 X120.429 Y115.608 E6.28994
G1 X119.796 Y115.885 E6.30222
G1 X119.056 Y116.14 E6.31614
G1 X118.387 Y116.311 E6.32841
G1 X117.582 Y116.445 E6.34292
G1 X116.893 Y116.501 E6.3552
G1 X116.111 Y116.501 E6.36911
G1 X115.421 Y116.445 E6.38141
G1 X114.624 Y116.313 E6.39577
G1 X113.954 Y116.143 E6.40806
G1 X113.206 Y115.886 E6.42212
G1 X112.573 Y115.609 E6.4344
G1 X111.869 Y115.228 E6.44863
G1 X111.29 Y114.85 E6.46092
G1 X110.66 Y114.361 E6.4751
G1 X110.149 Y113.891 E6.48744
G1 X109.607 Y113.302 E6.50167
G1 X109.183 Y112.757 E6.51394
G1 X108.745 Y112.086 E6.52819
G1 X108.415 Y111.475 E6.54053
G1 X108.096 Y110.745 E6.55469
G1 X107.873 Y110.094 E6.56692
G1 X107.679 Y109.329 E6.58095
G1 X107.564 Y108.644 E6.5933
G1 X107.497 Y107.851 E6.60745
G1 X107.496 Y107.162 E6.61969
G1 X107.563 Y106.353 E6.63412
G1 X107.678 Y105.67 E6.64644
G1 X107.87 Y104.911 E6.66035
G1 X108.093 Y104.258 E6.67262
G1 X108.414 Y103.524 E6.68686
