;START_OF_HEADER
;HEADER_VERSION:0.1
;FLAVOR:Griffin
;GENERATOR.NAME:Cura_SteamEngine
;GENERATOR.VERSION:3.6.0
;GENERATOR.BUILD_DATE:2018-11-12
;TARGET_MACHINE.NAME:Ultimaker 3
;EXTRUDER_TRAIN.0.INITIAL_TEMPERATURE:205
;EXTRUDER_TRAIN.0.MATERIAL.VOLUME_USED:7719
;EXTRUDER_TRAIN.0.MATERIAL.GUID:506c9f0d-e3aa-4bd4-b2d2-23e2425b1aa9
;EXTRUDER_TRAIN.0.NOZZLE.DIAMETER:0.4
;EXTRUDER_TRAIN.0.NOZZLE.NAME:AA 0.4
;BUILD_PLATE.TYPE:glass
;BUILD_PLATE.INITIAL_TEMPERATURE:60
;PRINT.TIME:9391
;PRINT.SIZE.MIN.X:9
;PRINT.SIZE.MIN.Y:6
;PRINT.SIZE.MIN.Z:0.27
;PRINT.SIZE.MAX.X:132.961
;PRINT.SIZE.MAX.Y:146.321
;PRINT.SIZE.MAX.Z:33.27
;END_OF_HEADER
;Generated with Cura_SteamEngine 3.6.0
T0
M82 ;absolute extrusion mode

G92 E0
M109 S205
G0 F15000 X9 Y6 Z2
G280
G1 F1500 E-6.5
;LAYER_COUNT:326
;LAYER:0
M107
M204 S625
M205 X6 Y6
G0 F4285.7 X104.982 Y81.544 Z0.27
M204 S500
M205 X5 Y5
;TYPE:SKIRT
G1 F1500 E0
G1 F1200 X105.5 Y81.01 E0.01322
G1 X106.073 Y80.535 E0.02645
G1 X106.693 Y80.123 E0.03969
G1 X107.354 Y79.781 E0.05292
G1 X108.048 Y79.512 E0.06615
G1 X108.777 Y79.316 E0.07957
G1 X112.483 Y78.535 E0.14689
G1 X113.218 Y78.421 E0.16011
G1 X113.962 Y78.386 E0.17335
G1 X114.705 Y78.432 E0.18659
G1 X115.439 Y78.556 E0.19982
G1 X115.728 Y78.635 E0.20514
G1 X115.806 Y78.563 E0.20703
G1 X116.403 Y78.119 E0.22026
G1 X117.045 Y77.741 E0.2335
G1 X117.723 Y77.434 E0.24673
G1 X118.775 Y77.119 E0.26625
G1 X122.347 Y76.349 E0.3312
G1 X123.082 Y76.231 E0.34444
G1 X123.825 Y76.193 E0.35766
G1 X124.568 Y76.235 E0.37089
G1 X125.479 Y76.398 E0.38734
G1 X125.857 Y76.492 E0.39427
G1 X126.569 Y76.71 E0.4075
G1 X127.253 Y77.003 E0.42073
G1 X127.902 Y77.368 E0.43397
G1 X128.508 Y77.8 E0.44719
G1 X129.064 Y78.295 E0.46043
G1 X129.563 Y78.847 E0.47366
G1 X130.001 Y79.449 E0.48689
G1 X130.372 Y80.094 E0.50012
G1 X130.671 Y80.776 E0.51335
G1 X130.958 Y81.748 E0.53137
G1 X131.474 Y84.127 E0.57464
G1 X131.592 Y84.862 E0.58787
G1 X131.631 Y85.605 E0.6011
G1 X131.59 Y86.348 E0.61433
G1 X131.47 Y87.083 E0.62757
G1 X131.271 Y87.8 E0.64079
G1 X130.997 Y88.492 E0.65402
G1 X130.65 Y89.151 E0.66726
G1 X130.234 Y89.768 E0.68049
G1 X129.755 Y90.338 E0.69372
G1 X129.366 Y90.721 E0.70343
G1 X129.143 Y90.924 E0.70879
G1 X128.567 Y91.394 E0.722
G1 X127.943 Y91.801 E0.73525
G1 X127.279 Y92.138 E0.74848
G1 X126.743 Y92.341 E0.75867
G1 X127.288 Y92.429 E0.76849
G1 X128.006 Y92.627 E0.78172
G1 X128.698 Y92.9 E0.79495
G1 X129.357 Y93.246 E0.80818
G1 X129.975 Y93.661 E0.82141
G1 X130.743 Y94.333 E0.83955
G1 X130.964 Y94.557 E0.84515
G1 X131.458 Y95.114 E0.85838
G1 X131.889 Y95.721 E0.87161
G1 X132.252 Y96.371 E0.88485
G1 X132.544 Y97.055 E0.89807
G1 X132.76 Y97.767 E0.91129
G1 X132.899 Y98.499 E0.92454
G1 X132.961 Y99.424 E0.94102
G1 X132.961 Y100.273 E0.95611
G1 X132.921 Y101.016 E0.96934
G1 X132.802 Y101.751 E0.98257
G1 X132.604 Y102.469 E0.99581
G1 X132.331 Y103.161 E1.00904
G1 X131.985 Y103.82 E1.02227
G1 X131.695 Y104.252 E1.03152
G1 X132.031 Y104.844 E1.04362
G1 X132.328 Y105.526 E1.05684
G1 X132.549 Y106.237 E1.07007
G1 X132.693 Y106.967 E1.0833
G1 X132.761 Y107.939 E1.10062
G1 X132.761 Y139.268 E1.65752
G1 X132.721 Y140.011 E1.67075
G1 X132.602 Y140.746 E1.68399
G1 X132.404 Y141.464 E1.69723
G1 X132.131 Y142.156 E1.71045
G1 X131.785 Y142.815 E1.72368
G1 X131.37 Y143.433 E1.73691
G1 X130.731 Y144.168 E1.75423
G1 X130.608 Y144.291 E1.75732
G1 X130.054 Y144.789 E1.77056
G1 X129.45 Y145.224 E1.78379
G1 X128.803 Y145.591 E1.79701
G1 X128.121 Y145.888 E1.81024
G1 X127.41 Y146.109 E1.82347
G1 X126.68 Y146.253 E1.8367
G1 X125.708 Y146.321 E1.85402
G1 X111.984 Y146.321 E2.09798
G1 X111.241 Y146.281 E2.1112
G1 X110.506 Y146.162 E2.12444
G1 X109.788 Y145.964 E2.13768
G1 X109.096 Y145.691 E2.1509
G1 X108.437 Y145.345 E2.16413
G1 X107.819 Y144.93 E2.17736
G1 X107.084 Y144.291 E2.19468
G1 X106.961 Y144.168 E2.19777
G1 X106.463 Y143.614 E2.21101
G1 X106.028 Y143.01 E2.22424
G1 X105.661 Y142.363 E2.23746
G1 X105.364 Y141.681 E2.25069
G1 X105.143 Y140.97 E2.26392
G1 X104.999 Y140.24 E2.27715
G1 X104.931 Y139.268 E2.29447
G1 X104.931 Y108.777 E2.83648
G1 X104.628 Y108.686 E2.8421
G1 X103.942 Y108.397 E2.85533
G1 X103.291 Y108.035 E2.86857
G1 X102.683 Y107.606 E2.8818
G1 X102.125 Y107.115 E2.89501
G1 X101.622 Y106.566 E2.90825
G1 X101.181 Y105.966 E2.92149
G1 X100.807 Y105.323 E2.93471
G1 X100.504 Y104.643 E2.94794
G1 X100.275 Y103.934 E2.96119
G1 X100.124 Y103.205 E2.97442
G1 X100.052 Y102.465 E2.98764
G1 X100.06 Y101.72 E3.00088
G1 X100.148 Y100.981 E3.01411
G1 X100.314 Y100.256 E3.02733
G1 X100.499 Y99.702 E3.03771
G1 X100.596 Y99.447 E3.04256
G1 X100.897 Y98.767 E3.05578
G1 X101.27 Y98.122 E3.06903
G1 X101.71 Y97.522 E3.08225
G1 X102.212 Y96.972 E3.09549
G1 X102.769 Y96.479 E3.10871
G1 X103.694 Y95.861 E3.12849
G1 X104.872 Y95.203 E3.15247
G1 X105.54 Y94.875 E3.1657
G1 X106.24 Y94.621 E3.17894
G1 X106.781 Y94.488 E3.18884
G1 X106.919 Y94.348 E3.19234
G1 X106.828 Y94.287 E3.19428
G1 X106.169 Y93.727 E3.20966
G1 X105.918 Y93.485 E3.21585
G1 X105.411 Y92.94 E3.22909
G1 X104.965 Y92.344 E3.24232
G1 X104.585 Y91.704 E3.25555
G1 X104.277 Y91.027 E3.26877
G1 X104.042 Y90.32 E3.28201
G1 X103.846 Y89.312 E3.30027
G1 X103.821 Y89.099 E3.30408
G1 X103.492 Y87.813 E3.32768
G1 X103.347 Y87.083 E3.34091
G1 X103.28 Y86.342 E3.35413
G1 X103.294 Y85.598 E3.36736
G1 X103.387 Y84.859 E3.3806
G1 X103.559 Y84.135 E3.39383
G1 X103.808 Y83.434 E3.40705
G1 X104.131 Y82.763 E3.42029
G1 X104.523 Y82.131 E3.43351
G1 X104.982 Y81.544 E3.44675
M204 S625
M205 X6 Y6
G0 F4285.7 X105.432 Y81.671
M204 S500
M205 X5 Y5
G1 F1200 X105.951 Y81.17 E3.45958
G1 X106.522 Y80.73 E3.47239
G1 X107.139 Y80.355 E3.48523
G1 X107.793 Y80.051 E3.49805
G1 X108.476 Y79.821 E3.51086
G1 X108.864 Y79.727 E3.51795
G1 X112.57 Y78.946 E3.58528
G1 X113.283 Y78.836 E3.5981
G1 X114.003 Y78.807 E3.61091
G1 X114.723 Y78.857 E3.62374
G1 X115.433 Y78.986 E3.63657
G1 X115.844 Y79.101 E3.64416
G1 X116.161 Y78.816 E3.65173
G1 X116.747 Y78.396 E3.66455
G1 X117.377 Y78.044 E3.67738
G1 X118.042 Y77.764 E3.6902
G1 X118.863 Y77.529 E3.70538
G1 X122.435 Y76.759 E3.77034
G1 X123.148 Y76.646 E3.78317
G1 X123.868 Y76.613 E3.79598
G1 X124.588 Y76.66 E3.80881
G1 X125.378 Y76.805 E3.82309
G1 X125.756 Y76.899 E3.83001
G1 X126.445 Y77.112 E3.84283
G1 X127.107 Y77.4 E3.85566
G1 X127.733 Y77.759 E3.86849
G1 X128.315 Y78.185 E3.88131
G1 X128.846 Y78.672 E3.89412
G1 X129.32 Y79.216 E3.90694
G1 X129.732 Y79.809 E3.91978
G1 X130.075 Y80.443 E3.93259
G1 X130.345 Y81.112 E3.94542
G1 X130.547 Y81.837 E3.9588
G1 X131.063 Y84.216 E4.00207
G1 X131.177 Y84.928 E4.01489
G1 X131.211 Y85.649 E4.02772
G1 X131.165 Y86.369 E4.04054
G1 X131.04 Y87.079 E4.05336
G1 X130.837 Y87.772 E4.06619
G1 X130.558 Y88.437 E4.07901
G1 X130.208 Y89.068 E4.09184
G1 X129.79 Y89.656 E4.10466
G1 X129.083 Y90.41 E4.12304
G1 X128.86 Y90.613 E4.1284
G1 X128.301 Y91.068 E4.14121
G1 X127.694 Y91.459 E4.15404
G1 X127.048 Y91.78 E4.16687
G1 X126.371 Y92.028 E4.17968
G1 X125.45 Y92.236 E4.19647
G1 X125.046 Y92.297 E4.20373
G1 X125.003 Y92.301 E4.2045
G1 X124.971 Y92.308 E4.20508
G1 X125.122 Y92.338 E4.20782
G1 X125.653 Y92.462 E4.21751
G1 X126.346 Y92.664 E4.23034
G1 X126.5 Y92.728 E4.23331
G1 X126.53 Y92.73 E4.23384
G1 X127.242 Y92.849 E4.24667
G1 X127.936 Y93.047 E4.2595
G1 X128.603 Y93.32 E4.27231
G1 X129.237 Y93.665 E4.28514
G1 X129.828 Y94.078 E4.29796
G1 X130.444 Y94.628 E4.31264
G1 X130.665 Y94.852 E4.31823
G1 X131.143 Y95.393 E4.33107
G1 X131.557 Y95.983 E4.34388
G1 X131.904 Y96.616 E4.35671
G1 X132.179 Y97.283 E4.36953
G1 X132.378 Y97.976 E4.38235
G1 X132.499 Y98.687 E4.39517
G1 X132.541 Y99.424 E4.40829
G1 X132.541 Y100.273 E4.42339
G1 X132.501 Y100.993 E4.4362
G1 X132.382 Y101.705 E4.44904
G1 X132.184 Y102.399 E4.46187
G1 X131.911 Y103.066 E4.47468
G1 X131.566 Y103.7 E4.48751
G1 X131.183 Y104.249 E4.49941
G1 X131.334 Y104.461 E4.50403
G1 X131.685 Y105.091 E4.51685
G1 X131.964 Y105.756 E4.52967
G1 X132.168 Y106.448 E4.5425
G1 X132.294 Y107.158 E4.55531
G1 X132.341 Y107.939 E4.56922
G1 X132.341 Y139.268 E5.12613
G1 X132.301 Y139.988 E5.13894
G1 X132.182 Y140.7 E5.15178
G1 X131.984 Y141.394 E5.16461
G1 X131.711 Y142.061 E5.17742
G1 X131.366 Y142.695 E5.19025
G1 X130.953 Y143.286 E5.20306
G1 X130.434 Y143.871 E5.21697
G1 X130.311 Y143.994 E5.22006
G1 X129.774 Y144.475 E5.23287
G1 X129.186 Y144.894 E5.24571
G1 X128.556 Y145.245 E5.25853
G1 X127.891 Y145.524 E5.27135
G1 X127.199 Y145.728 E5.28417
G1 X126.489 Y145.854 E5.29699
G1 X125.708 Y145.901 E5.3109
G1 X111.984 Y145.901 E5.55485
G1 X111.264 Y145.861 E5.56767
G1 X110.552 Y145.742 E5.5805
G1 X109.858 Y145.544 E5.59333
G1 X109.191 Y145.271 E5.60614
G1 X108.557 Y144.926 E5.61897
G1 X107.966 Y144.513 E5.63179
G1 X107.381 Y143.994 E5.64569
G1 X107.258 Y143.871 E5.64879
G1 X106.777 Y143.334 E5.6616
G1 X106.358 Y142.746 E5.67443
G1 X106.007 Y142.116 E5.68725
G1 X105.728 Y141.451 E5.70007
G1 X105.524 Y140.759 E5.7129
G1 X105.398 Y140.049 E5.72572
G1 X105.351 Y139.268 E5.73962
G1 X105.351 Y108.466 E6.28716
G1 X105.268 Y108.448 E6.28867
G1 X104.583 Y108.22 E6.3015
G1 X103.928 Y107.918 E6.31432
G1 X103.31 Y107.546 E6.32715
G1 X102.738 Y107.107 E6.33996
G1 X102.217 Y106.608 E6.35279
G1 X101.755 Y106.054 E6.36561
G1 X101.356 Y105.453 E6.37843
G1 X101.027 Y104.811 E6.39126
G1 X100.771 Y104.136 E6.40409
G1 X100.591 Y103.438 E6.4169
G1 X100.49 Y102.723 E6.42974
G1 X100.468 Y102.002 E6.44256
G1 X100.526 Y101.283 E6.45538
G1 X100.663 Y100.575 E6.4682
G1 X100.891 Y99.851 E6.4817
G1 X100.988 Y99.596 E6.48655
G1 X101.282 Y98.937 E6.49937
G1 X101.646 Y98.315 E6.51218
G1 X102.078 Y97.737 E6.52501
G1 X102.57 Y97.21 E6.53783
G1 X103.118 Y96.74 E6.55066
G1 X103.898 Y96.228 E6.56725
G1 X105.076 Y95.57 E6.59123
G1 X105.725 Y95.253 E6.60407
G1 X106.404 Y95.011 E6.61688
G1 X106.997 Y94.87 E6.62772
G1 X107.026 Y94.837 E6.6285
G1 X107.243 Y94.617 E6.63399
G1 X107.598 Y94.296 E6.6425
G1 X107.529 Y94.258 E6.6439
G1 X106.939 Y93.843 E6.65672
G1 X106.461 Y93.425 E6.66801
G1 X106.21 Y93.183 E6.67421
G1 X105.719 Y92.654 E6.68704
G1 X105.289 Y92.074 E6.69987
G1 X104.927 Y91.45 E6.7127
G1 X104.636 Y90.79 E6.72552
G1 X104.419 Y90.102 E6.73834
G1 X104.263 Y89.263 E6.75351
G1 X104.234 Y89.02 E6.75786
G1 X103.899 Y87.709 E6.78192
G1 X103.759 Y87.002 E6.79473
G1 X103.699 Y86.283 E6.80755
G1 X103.718 Y85.562 E6.82037
G1 X103.817 Y84.847 E6.8332
G1 X103.995 Y84.148 E6.84603
G1 X104.248 Y83.473 E6.85884
G1 X104.575 Y82.83 E6.87166
G1 X104.971 Y82.227 E6.88449
G1 X105.432 Y81.671 E6.89733
M204 S625
M205 X6 Y6
G0 F4285.7 X105.42 Y82.331
M204 S500
M205 X5 Y5
G1 F1200 X105.883 Y81.808 E6.90974
G1 X106.401 Y81.342 E6.92213
G1 X106.97 Y80.938 E6.93453
G1 X107.582 Y80.601 E6.94695
G1 X108.227 Y80.337 E6.95934
G1 X108.95 Y80.138 E6.97267
G1 X112.656 Y79.357 E7.04
G1 X113.346 Y79.252 E7.0524
G1 X114.043 Y79.227 E7.0648
G1 X114.739 Y79.282 E7.07721
G1 X115.757 Y79.512 E7.09576
G1 X115.948 Y79.573 E7.09933
G1 X115.987 Y79.53 E7.10036
G1 X116.513 Y79.072 E7.11276
G1 X117.089 Y78.678 E7.12516
G1 X117.706 Y78.353 E7.13756
G1 X118.357 Y78.1 E7.14997
G1 X118.952 Y77.94 E7.16093
G1 X122.524 Y77.17 E7.22588
G1 X123.213 Y77.062 E7.23828
G1 X123.91 Y77.034 E7.25068
G1 X124.606 Y77.086 E7.26308
G1 X125.277 Y77.213 E7.27522
G1 X125.655 Y77.307 E7.28215
G1 X126.321 Y77.514 E7.29454
G1 X126.959 Y77.796 E7.30694
G1 X127.561 Y78.149 E7.31935
G1 X128.119 Y78.568 E7.33175
G1 X128.625 Y79.048 E7.34415
G1 X129.072 Y79.584 E7.35656
G1 X129.456 Y80.166 E7.36895
G1 X129.77 Y80.789 E7.38135
G1 X130.011 Y81.444 E7.39376
G1 X130.137 Y81.926 E7.40262
G1 X130.653 Y84.305 E7.44589
G1 X130.761 Y84.994 E7.45829
G1 X130.79 Y85.691 E7.47069
G1 X130.739 Y86.387 E7.48309
G1 X130.609 Y87.073 E7.4955
G1 X130.402 Y87.739 E7.5079
G1 X130.119 Y88.377 E7.52031
G1 X129.765 Y88.978 E7.53271
G1 X129.345 Y89.535 E7.54511
G1 X128.801 Y90.099 E7.55904
G1 X128.578 Y90.302 E7.5644
G1 X128.036 Y90.742 E7.57681
G1 X127.447 Y91.116 E7.58921
G1 X126.819 Y91.421 E7.60162
G1 X126.161 Y91.652 E7.61401
G1 X125.387 Y91.821 E7.6281
G1 X124.983 Y91.882 E7.63536
G1 X124.966 Y91.884 E7.63566
G1 X124.718 Y91.937 E7.64017
G1 X124.065 Y92.128 E7.65227
G1 X123.934 Y92.15 E7.65463
G1 X123.498 Y92.403 E7.66359
G1 X122.968 Y92.634 E7.67387
G1 X123.308 Y92.596 E7.67995
G1 X124.006 Y92.598 E7.69236
G1 X125.027 Y92.747 E7.7107
G1 X125.558 Y92.871 E7.72039
G1 X126.227 Y93.068 E7.73279
G1 X126.407 Y93.144 E7.73626
G1 X126.507 Y93.15 E7.73804
G1 X127.194 Y93.269 E7.75043
G1 X127.863 Y93.467 E7.76284
G1 X128.506 Y93.739 E7.77525
G1 X129.112 Y94.083 E7.78763
G1 X129.676 Y94.495 E7.80005
G1 X130.145 Y94.923 E7.81134
G1 X130.366 Y95.147 E7.81693
G1 X130.827 Y95.671 E7.82934
G1 X131.225 Y96.244 E7.84174
G1 X131.554 Y96.859 E7.85414
G1 X131.812 Y97.507 E7.86653
G1 X131.993 Y98.181 E7.87894
G1 X132.096 Y98.871 E7.89134
G1 X132.121 Y99.424 E7.90118
G1 X132.121 Y100.273 E7.91627
G1 X132.081 Y100.97 E7.92868
G1 X131.962 Y101.657 E7.94108
G1 X131.764 Y102.326 E7.95348
G1 X131.492 Y102.969 E7.96589
G1 X131.148 Y103.575 E7.97828
G1 X130.736 Y104.139 E7.99069
G1 X130.654 Y104.228 E7.99284
G1 X131.003 Y104.724 E8.00362
G1 X131.337 Y105.337 E8.01603
G1 X131.599 Y105.984 E8.02844
G1 X131.784 Y106.656 E8.04083
G1 X131.892 Y107.345 E8.05323
G1 X131.921 Y107.939 E8.0638
G1 X131.921 Y139.268 E8.6207
G1 X131.881 Y139.965 E8.63311
G1 X131.762 Y140.652 E8.64551
G1 X131.564 Y141.321 E8.65791
G1 X131.292 Y141.964 E8.67032
G1 X130.948 Y142.57 E8.68271
G1 X130.536 Y143.134 E8.69512
G1 X130.137 Y143.574 E8.70568
G1 X130.014 Y143.697 E8.70877
G1 X129.493 Y144.162 E8.72119
G1 X128.923 Y144.563 E8.73358
G1 X128.31 Y144.897 E8.74598
G1 X127.663 Y145.159 E8.75839
G1 X126.991 Y145.344 E8.77078
G1 X126.302 Y145.452 E8.78318
G1 X125.708 Y145.481 E8.79375
G1 X111.984 Y145.481 E9.03771
G1 X111.287 Y145.441 E9.05012
G1 X110.6 Y145.322 E9.06251
G1 X109.931 Y145.124 E9.07492
G1 X109.288 Y144.852 E9.08733
G1 X108.682 Y144.508 E9.09971
G1 X108.118 Y144.096 E9.11213
G1 X107.678 Y143.697 E9.12269
G1 X107.555 Y143.574 E9.12578
G1 X107.09 Y143.053 E9.13819
G1 X106.689 Y142.483 E9.15058
G1 X106.355 Y141.87 E9.16299
G1 X106.093 Y141.223 E9.1754
G1 X105.908 Y140.551 E9.18779
G1 X105.8 Y139.862 E9.20019
G1 X105.771 Y139.268 E9.21076
G1 X105.771 Y108.13 E9.76427
G1 X105.202 Y107.992 E9.77467
G1 X104.547 Y107.751 E9.78708
G1 X103.924 Y107.436 E9.79949
G1 X103.342 Y107.053 E9.81187
G1 X102.807 Y106.605 E9.82428
G1 X102.326 Y106.099 E9.83669
G1 X101.907 Y105.541 E9.84909
G1 X101.554 Y104.939 E9.8615
G1 X101.272 Y104.301 E9.8739
G1 X101.066 Y103.634 E9.88631
G1 X100.937 Y102.949 E9.8987
G1 X100.887 Y102.253 E9.9111
G1 X100.917 Y101.556 E9.9235
G1 X101.026 Y100.867 E9.9359
G1 X101.284 Y100.001 E9.95196
G1 X101.381 Y99.746 E9.95681
G1 X101.666 Y99.109 E9.96922
G1 X102.022 Y98.509 E9.98162
G1 X102.444 Y97.953 E9.99403
G1 X102.927 Y97.45 E10.00642
G1 X103.465 Y97.005 E10.01884
G1 X104.103 Y96.594 E10.03233
G1 X105.281 Y95.936 E10.05631
G1 X105.909 Y95.631 E10.06872
G1 X106.567 Y95.4 E10.08112
G1 X107.216 Y95.253 E10.09295
G1 X107.325 Y95.132 E10.09584
G1 X107.542 Y94.912 E10.10134
G1 X108.06 Y94.445 E10.11373
G1 X108.362 Y94.229 E10.12033
G1 X108.219 Y94.167 E10.1231
G1 X107.616 Y93.815 E10.13552
G1 X107.058 Y93.398 E10.1479
G1 X106.752 Y93.122 E10.15522
G1 X106.501 Y92.88 E10.16142
G1 X106.027 Y92.368 E10.17382
G1 X105.615 Y91.805 E10.18622
G1 X105.27 Y91.198 E10.19864
G1 X104.997 Y90.556 E10.21104
G1 X104.799 Y89.887 E10.22344
G1 X104.68 Y89.213 E10.23561
G1 X104.648 Y88.943 E10.24044
G1 X104.306 Y87.605 E10.26499
G1 X104.172 Y86.921 E10.27738
G1 X104.117 Y86.225 E10.28979
G1 X104.143 Y85.528 E10.30219
G1 X104.248 Y84.838 E10.31459
G1 X104.431 Y84.165 E10.32699
G1 X104.69 Y83.517 E10.3394
G1 X105.021 Y82.903 E10.3518
G1 X105.42 Y82.331 E10.36419
M204 S625
M205 X6 Y6
G0 F4285.7 X105.87 Y82.444
M204 S500
M205 X5 Y5
G1 F1200 X106.333 Y81.956 E10.37615
G1 X106.852 Y81.526 E10.38813
G1 X107.417 Y81.16 E10.4001
G1 X108.022 Y80.865 E10.41206
G1 X108.657 Y80.643 E10.42402
G1 X109.037 Y80.549 E10.43098
G1 X112.743 Y79.768 E10.4983
G1 X113.409 Y79.668 E10.51027
G1 X114.082 Y79.649 E10.52224
G1 X114.752 Y79.709 E10.5342
